;FLAVOR:Marlin
;TIME:2866
;Filament used: 1.83118m, 0.827166m
;Layer height: 0.16
;POSTPROCESSED
;Generated with Cura_SteamEngine 3.4.1
T0
M190 S65
M104 S198
M104 T1 S170
M109 S198
M109 T1 S170
M82 ;absolute extrusion mode
; Printer start settings begin
; CALIBRATION M92 X160 Y160 Z1600; Steps per unit
; CALIBRATION M201 X1000 Y1000 Z50 E1500 E1500 ; Max Accelleration
; CALIBRATION M203 X800 Y800 Z2 E90 E90 ; Max Feed
; CALIBRATION M205 X3.0 Y3.0 Z0.3 E5.0 ; Default Jerk
; CALIBRATION M951 L32 R138 G32 N75 H300 D10 C0 ; Parking kinematic values
; CALIBRATION M218 T1 X0.65 Z-0.4 ; T1 Nozzle offset
; CALIBRATION M851 Z-0.75 ; System Z Probe Offset
G28 ;Home
G0 X32 Y0
G92 X0 E5
G1 F1000 E0
;G29 ;Auto Bed Level
G29 X3 Y3 L0 R109 F32 B168 ; Ato Bed Leveling
G92 E-5
G1 E0 F400
G0 Z15.0 F100 ;Move the platform down 15mm
G0 X0 Y0 F9000 ;Move to front
G1 F200 E3
G92 E0
; Printer start settings end
G92 E0
G1 F1200 E-5
;LAYER_COUNT:126
;LAYER:0
M107
M104 T1 S198
G0 F1542.9 X48.41 Y92.489 Z0.16
;TYPE:SKIRT
G1 F1200 E0
G1 F900 X49.073 Y92.183 E0.01943
G1 X50.374 Y91.699 E0.05636
G1 X51.03 Y91.507 E0.07455
G1 X52.067 Y91.282 E0.10279
G1 X52.563 Y91.201 E0.11616
G1 X53.441 Y91.105 E0.13966
G1 X53.984 Y91.077 E0.15413
G1 X55.126 Y91.082 E0.18451
G1 X56.043 Y91.174 E0.20904
G1 X58.322 Y91.628 E0.27087
G1 X59.084 Y91.847 E0.29196
G1 X59.768 Y92.106 E0.31142
G1 X60.37 Y92.383 E0.32906
G1 X61.953 Y93.248 E0.37706
G1 X62.544 Y93.63 E0.39578
G1 X63.288 Y94.192 E0.42059
G1 X63.702 Y94.543 E0.43503
G1 X64.451 Y95.255 E0.46253
G1 X64.807 Y95.632 E0.47633
G1 X65.442 Y96.382 E0.50247
G1 X65.784 Y96.838 E0.51764
G1 X66.434 Y97.822 E0.54902
G1 X66.749 Y98.375 E0.56595
G1 X67.267 Y99.444 E0.59756
G1 X67.56 Y100.21 E0.61938
G1 X68.12 Y102.156 E0.67326
G1 X68.281 Y102.98 E0.6956
G1 X68.86 Y108.471 E0.84252
G1 X69.682 Y113.808 E0.9862
G1 X70.804 Y119.079 E1.12959
G1 X72.219 Y124.273 E1.27283
G1 X73.938 Y129.413 E1.41705
G1 X74.871 Y131.853 E1.48655
G1 X75.908 Y134.354 E1.55859
G1 X78.188 Y139.251 E1.70232
G1 X80.741 Y144.008 E1.84598
G1 X83.547 Y148.596 E1.98908
G1 X86.602 Y153.008 E2.13187
G1 X90.665 Y158.139 E2.30601
G1 X92.433 Y160.286 E2.38002
G1 X92.795 Y160.789 E2.39651
G1 X92.96 Y161.075 E2.40529
G1 X93.652 Y162.37 E2.44436
G1 X93.909 Y162.934 E2.46085
G1 X94.013 Y163.241 E2.46948
G1 X94.44 Y164.651 E2.50868
G1 X94.581 Y165.254 E2.52515
G1 X94.623 Y165.569 E2.53361
G1 X94.766 Y167.014 E2.57225
G1 X94.787 Y167.633 E2.58873
G1 X94.764 Y167.977 E2.5979
G1 X94.608 Y169.498 E2.63858
G1 X94.426 Y170.402 E2.66312
G1 X94.015 Y171.756 E2.70077
G1 X93.797 Y172.336 E2.71726
G1 X93.652 Y172.63 E2.72598
G1 X92.949 Y173.941 E2.76556
G1 X92.622 Y174.467 E2.78204
G1 X92.418 Y174.732 E2.79094
G1 X91.467 Y175.882 E2.83065
G1 X91.042 Y176.333 E2.84714
G1 X90.789 Y176.553 E2.85606
G1 X89.653 Y177.473 E2.89495
G1 X88.887 Y177.98 E2.91939
G1 X87.6 Y178.665 E2.95819
G1 X87.036 Y178.92 E2.97466
G1 X86.73 Y179.024 E2.98326
G1 X85.35 Y179.44 E3.02161
G1 X84.442 Y179.62 E3.04624
G1 X82.979 Y179.766 E3.08536
G1 X82.36 Y179.788 E3.10184
G1 X82.021 Y179.766 E3.11088
G1 X80.541 Y179.617 E3.15046
G1 X79.93 Y179.515 E3.16694
G1 X79.63 Y179.435 E3.1752
G1 X78.247 Y179.016 E3.21365
G1 X77.667 Y178.798 E3.23014
G1 X77.374 Y178.654 E3.23883
G1 X76.062 Y177.952 E3.27842
G1 X75.536 Y177.625 E3.2949
G1 X75.263 Y177.415 E3.30406
G1 X74.109 Y176.458 E3.34395
G1 X73.659 Y176.033 E3.36042
G1 X73.445 Y175.787 E3.3691
G1 X72.525 Y174.653 E3.40795
G1 X72.167 Y174.148 E3.42443
G1 X72.012 Y173.876 E3.43276
G1 X71.328 Y172.585 E3.47163
G1 X71.073 Y172.02 E3.48812
G1 X70.973 Y171.722 E3.49649
G1 X70.558 Y170.344 E3.53478
G1 X70.394 Y169.581 E3.55555
G1 X70.119 Y167.477 E3.61201
G1 X69.216 Y162.127 E3.75637
G1 X68.024 Y156.89 E3.89928
G1 X67.32 Y154.311 E3.97042
G1 X65.674 Y149.151 E4.11453
G1 X63.753 Y144.13 E4.25757
G1 X61.546 Y139.212 E4.40101
G1 X59.069 Y134.436 E4.54416
G1 X56.319 Y129.798 E4.68763
G1 X53.317 Y125.33 E4.83086
G1 X50.07 Y121.043 E4.97395
G1 X46.545 Y116.9 E5.11869
G1 X43.7 Y113.785 E5.23094
G1 X43.271 Y113.242 E5.24936
G1 X42.69 Y112.385 E5.27691
G1 X42.426 Y111.946 E5.29054
G1 X41.987 Y111.121 E5.3154
G1 X41.7 Y110.469 E5.33436
G1 X41.143 Y108.897 E5.37873
G1 X40.96 Y108.235 E5.39701
G1 X40.734 Y107.105 E5.42767
G1 X40.642 Y106.265 E5.45016
G1 X40.601 Y104.319 E5.50195
G1 X40.656 Y103.484 E5.52421
G1 X40.845 Y102.263 E5.55709
G1 X41.007 Y101.565 E5.57615
G1 X41.432 Y100.205 E5.61407
G1 X41.614 Y99.718 E5.6279
G1 X41.908 Y99.044 E5.64747
G1 X42.165 Y98.539 E5.66254
G1 X42.788 Y97.474 E5.69537
G1 X43.166 Y96.921 E5.7132
G1 X44.069 Y95.779 E5.75193
G1 X44.519 Y95.285 E5.76972
G1 X45.277 Y94.561 E5.79761
G1 X45.691 Y94.208 E5.81208
G1 X46.432 Y93.646 E5.83683
G1 X46.996 Y93.277 E5.85476
G1 X48.41 Y92.489 E5.89783
G0 F1542.9 X48.605 Y92.839
G1 F900 X49.213 Y92.558 E5.91566
G1 X50.514 Y92.074 E5.95259
G1 X51.115 Y91.898 E5.96925
G1 X52.152 Y91.673 E5.99749
G1 X52.607 Y91.599 E6.00975
G1 X53.485 Y91.503 E6.03326
G1 X53.982 Y91.477 E6.0465
G1 X55.124 Y91.482 E6.07688
G1 X55.965 Y91.567 E6.09938
G1 X58.244 Y92.021 E6.16121
G1 X58.942 Y92.221 E6.18053
G1 X59.626 Y92.48 E6.19999
G1 X60.178 Y92.734 E6.21616
G1 X61.761 Y93.599 E6.26415
G1 X62.303 Y93.949 E6.28132
G1 X63.047 Y94.511 E6.30613
G1 X63.427 Y94.833 E6.31938
G1 X64.176 Y95.545 E6.34688
G1 X64.502 Y95.891 E6.35953
G1 X65.137 Y96.641 E6.38568
G1 X65.45 Y97.059 E6.39957
G1 X66.1 Y98.043 E6.43095
G1 X66.389 Y98.549 E6.44646
G1 X66.907 Y99.618 E6.47807
G1 X67.175 Y100.32 E6.49806
G1 X67.735 Y102.266 E6.55194
G1 X67.883 Y103.022 E6.57244
G1 X68.461 Y108.512 E6.71932
G1 X69.29 Y113.884 E6.86395
G1 X70.415 Y119.175 E7.00788
G1 X71.833 Y124.378 E7.15138
G1 X73.56 Y129.541 E7.29624
G1 X74.505 Y132.013 E7.36665
G1 X75.543 Y134.516 E7.43875
G1 X77.838 Y139.444 E7.5834
G1 X80.385 Y144.192 E7.72676
G1 X83.22 Y148.826 E7.87131
G1 X86.279 Y153.245 E8.01432
G1 X90.371 Y158.411 E8.18967
G1 X92.124 Y160.541 E8.26307
G1 X92.608 Y161.263 E8.2862
G1 X93.3 Y162.558 E8.32527
G1 X93.63 Y163.357 E8.34827
G1 X94.057 Y164.767 E8.38747
G1 X94.225 Y165.609 E8.41032
G1 X94.368 Y167.054 E8.44895
G1 X94.366 Y167.936 E8.47242
G1 X94.21 Y169.457 E8.5131
G1 X94.043 Y170.286 E8.53561
G1 X93.632 Y171.64 E8.57326
G1 X93.3 Y172.441 E8.59633
G1 X92.597 Y173.752 E8.63591
G1 X92.11 Y174.477 E8.65915
G1 X91.159 Y175.627 E8.69886
G1 X90.537 Y176.242 E8.72213
G1 X89.401 Y177.162 E8.76103
G1 X88.699 Y177.627 E8.78343
G1 X87.412 Y178.312 E8.82222
G1 X86.615 Y178.641 E8.84517
G1 X85.235 Y179.057 E8.88352
G1 X84.402 Y179.222 E8.90611
G1 X82.939 Y179.368 E8.94523
G1 X82.061 Y179.368 E8.9686
G1 X80.581 Y179.219 E9.00818
G1 X79.746 Y179.052 E9.03083
G1 X78.363 Y178.633 E9.06928
G1 X77.563 Y178.302 E9.09232
G1 X76.251 Y177.6 E9.13191
G1 X75.518 Y177.107 E9.15542
G1 X74.364 Y176.15 E9.19531
G1 X73.756 Y175.535 E9.21832
G1 X72.836 Y174.401 E9.25717
G1 X72.365 Y173.689 E9.27989
G1 X71.681 Y172.398 E9.31876
G1 X71.356 Y171.607 E9.34152
G1 X70.941 Y170.229 E9.37981
G1 X70.791 Y169.529 E9.39886
G1 X70.519 Y167.441 E9.45489
G1 X69.607 Y162.043 E9.60055
G1 X68.409 Y156.782 E9.74412
G1 X67.705 Y154.203 E9.81525
G1 X66.055 Y149.028 E9.95978
G1 X64.118 Y143.965 E10.10402
G1 X61.909 Y139.043 E10.24757
G1 X59.418 Y134.24 E10.39153
G1 X56.657 Y129.584 E10.53557
G1 X53.651 Y125.111 E10.67896
G1 X50.369 Y120.777 E10.82362
G1 X46.862 Y116.655 E10.96762
G1 X43.995 Y113.516 E11.08074
G1 X43.602 Y113.017 E11.09764
G1 X43.021 Y112.16 E11.12519
G1 X42.779 Y111.758 E11.13767
G1 X42.34 Y110.933 E11.16254
G1 X42.077 Y110.336 E11.1799
G1 X41.52 Y108.764 E11.22427
G1 X41.352 Y108.157 E11.24103
G1 X41.126 Y107.027 E11.27169
G1 X41.042 Y106.257 E11.2923
G1 X41.001 Y104.311 E11.3441
G1 X41.052 Y103.545 E11.36452
G1 X41.241 Y102.324 E11.3974
G1 X41.389 Y101.685 E11.41485
G1 X41.814 Y100.325 E11.45276
G1 X41.981 Y99.878 E11.46546
G1 X42.275 Y99.204 E11.48503
G1 X42.51 Y98.741 E11.49884
G1 X43.133 Y97.676 E11.53167
G1 X43.48 Y97.169 E11.54802
G1 X44.383 Y96.027 E11.58676
G1 X44.795 Y95.574 E11.60305
G1 X45.553 Y94.85 E11.63094
G1 X45.933 Y94.526 E11.64423
G1 X46.674 Y93.964 E11.66897
G1 X47.191 Y93.627 E11.68539
G1 X48.605 Y92.839 E11.72847
G0 F1542.9 X48.8 Y93.188
G1 F900 X49.352 Y92.933 E11.74465
G1 X50.653 Y92.449 E11.78158
G1 X51.2 Y92.289 E11.79675
G1 X52.237 Y92.064 E11.82498
G1 X52.65 Y91.997 E11.83611
G1 X53.528 Y91.901 E11.85961
G1 X53.981 Y91.877 E11.87168
G1 X55.123 Y91.882 E11.90207
G1 X55.886 Y91.959 E11.92248
G1 X58.165 Y92.413 E11.98431
G1 X58.8 Y92.595 E12.00188
G1 X59.484 Y92.854 E12.02135
G1 X59.986 Y93.085 E12.03605
G1 X61.569 Y93.95 E12.08405
G1 X62.062 Y94.268 E12.09966
G1 X62.806 Y94.83 E12.12447
G1 X63.151 Y95.123 E12.13651
G1 X63.9 Y95.835 E12.16401
G1 X64.197 Y96.149 E12.17551
G1 X64.832 Y96.899 E12.20166
G1 X65.117 Y97.279 E12.2143
G1 X65.767 Y98.263 E12.24567
G1 X66.029 Y98.724 E12.25978
G1 X66.547 Y99.793 E12.29139
G1 X66.791 Y100.431 E12.30957
G1 X67.351 Y102.377 E12.36345
G1 X67.485 Y103.064 E12.38207
G1 X68.065 Y108.573 E12.52946
G1 X68.896 Y113.957 E12.67442
G1 X70.023 Y119.258 E12.81862
G1 X71.453 Y124.505 E12.96333
G1 X73.181 Y129.671 E13.10827
G1 X74.133 Y132.16 E13.17918
G1 X75.173 Y134.669 E13.25144
G1 X77.477 Y139.616 E13.39665
G1 X80.049 Y144.41 E13.54141
G1 X82.871 Y149.025 E13.68534
G1 X85.962 Y153.489 E13.82982
G1 X90.061 Y158.664 E14.00548
G1 X91.815 Y160.795 E14.07891
G1 X92.255 Y161.452 E14.09995
G1 X92.947 Y162.747 E14.13902
G1 X93.247 Y163.473 E14.15992
G1 X93.674 Y164.883 E14.19912
G1 X93.827 Y165.648 E14.21988
G1 X93.97 Y167.093 E14.25852
G1 X93.968 Y167.895 E14.27986
G1 X93.812 Y169.416 E14.32054
G1 X93.661 Y170.17 E14.341
G1 X93.25 Y171.524 E14.37865
G1 X92.947 Y172.252 E14.39964
G1 X92.244 Y173.563 E14.43922
G1 X91.802 Y174.222 E14.46033
G1 X90.851 Y175.372 E14.50004
G1 X90.285 Y175.931 E14.5212
G1 X89.149 Y176.851 E14.5601
G1 X88.511 Y177.274 E14.58047
G1 X87.224 Y177.959 E14.61926
G1 X86.499 Y178.258 E14.64013
G1 X85.119 Y178.674 E14.67848
G1 X84.362 Y178.824 E14.69901
G1 X82.899 Y178.97 E14.73814
G1 X82.101 Y178.97 E14.75937
G1 X80.621 Y178.821 E14.79895
G1 X79.862 Y178.669 E14.81954
G1 X78.479 Y178.25 E14.85799
G1 X77.752 Y177.949 E14.87893
G1 X76.44 Y177.247 E14.91852
G1 X75.774 Y176.799 E14.93988
G1 X74.62 Y175.842 E14.97977
G1 X74.067 Y175.283 E15.00069
G1 X73.147 Y174.149 E15.03955
G1 X72.718 Y173.502 E15.06021
G1 X72.034 Y172.211 E15.09908
G1 X71.739 Y171.491 E15.11978
G1 X71.324 Y170.113 E15.15808
G1 X71.188 Y169.478 E15.17536
G1 X70.913 Y167.372 E15.23187
G1 X70.002 Y161.976 E15.37748
G1 X68.797 Y156.685 E15.52187
G1 X68.091 Y154.096 E15.59327
G1 X66.429 Y148.885 E15.73881
G1 X64.489 Y143.816 E15.88322
G1 X62.271 Y138.874 E16.02736
G1 X59.767 Y134.045 E16.17209
G1 X56.995 Y129.371 E16.31669
G1 X53.973 Y124.872 E16.4609
G1 X50.693 Y120.541 E16.60545
G1 X47.138 Y116.363 E16.75142
G1 X44.291 Y113.246 E16.86375
G1 X43.933 Y112.793 E16.87911
G1 X43.352 Y111.936 E16.90666
G1 X43.132 Y111.57 E16.91802
G1 X42.693 Y110.745 E16.94289
G1 X42.454 Y110.202 E16.95867
G1 X41.897 Y108.63 E17.00305
G1 X41.745 Y108.078 E17.01828
G1 X41.519 Y106.948 E17.04895
G1 X41.442 Y106.248 E17.06768
G1 X41.401 Y104.302 E17.11947
G1 X41.447 Y103.606 E17.13803
G1 X41.636 Y102.385 E17.17091
G1 X41.771 Y101.804 E17.18678
G1 X42.196 Y100.444 E17.22469
G1 X42.348 Y100.038 E17.23623
G1 X42.642 Y99.364 E17.25579
G1 X42.855 Y98.943 E17.26835
G1 X43.478 Y97.878 E17.30118
G1 X43.793 Y97.417 E17.31604
G1 X44.696 Y96.275 E17.35477
G1 X45.071 Y95.863 E17.3696
G1 X45.829 Y95.139 E17.39749
G1 X46.175 Y94.845 E17.40957
G1 X46.916 Y94.283 E17.43431
G1 X47.386 Y93.976 E17.44925
G1 X48.8 Y93.188 E17.49232
G0 F1542.9 X48.995 Y93.537
G1 F900 X49.492 Y93.308 E17.50688
G1 X50.793 Y92.824 E17.54382
G1 X51.285 Y92.68 E17.55746
G1 X52.322 Y92.455 E17.58569
G1 X52.694 Y92.394 E17.59572
G1 X53.572 Y92.298 E17.61923
G1 X53.979 Y92.277 E17.63007
G1 X55.121 Y92.282 E17.66046
G1 X55.808 Y92.351 E17.67883
G1 X58.087 Y92.805 E17.74066
G1 X58.659 Y92.969 E17.75649
G1 X59.343 Y93.228 E17.77595
G1 X59.794 Y93.436 E17.78917
G1 X61.377 Y94.301 E17.83717
G1 X61.821 Y94.587 E17.85122
G1 X62.565 Y95.149 E17.87603
G1 X62.875 Y95.413 E17.88686
G1 X63.624 Y96.125 E17.91436
G1 X63.891 Y96.408 E17.92471
G1 X64.526 Y97.158 E17.95086
G1 X64.783 Y97.5 E17.96225
G1 X65.433 Y98.484 E17.99362
G1 X65.669 Y98.898 E18.0063
G1 X66.187 Y99.967 E18.03791
G1 X66.407 Y100.541 E18.05427
G1 X66.967 Y102.487 E18.10815
G1 X67.087 Y103.106 E18.12493
G1 X67.667 Y108.613 E18.27227
G1 X68.502 Y114.029 E18.41808
G1 X69.637 Y119.362 E18.56316
G1 X71.067 Y124.611 E18.70791
G1 X72.803 Y129.8 E18.85351
G1 X73.762 Y132.308 E18.92495
G1 X74.815 Y134.85 E18.99816
G1 X77.118 Y139.795 E19.14331
G1 X79.698 Y144.603 E19.2885
G1 X82.539 Y149.248 E19.43338
G1 X85.639 Y153.725 E19.57827
G1 X89.745 Y158.91 E19.75425
G1 X91.506 Y161.049 E19.82797
G1 X91.902 Y161.64 E19.8469
G1 X92.594 Y162.935 E19.88597
G1 X92.864 Y163.589 E19.9048
G1 X93.291 Y164.999 E19.944
G1 X93.429 Y165.687 E19.96267
G1 X93.572 Y167.132 E20.00131
G1 X93.57 Y167.854 E20.02052
G1 X93.414 Y169.375 E20.0612
G1 X93.278 Y170.054 E20.07963
G1 X92.867 Y171.408 E20.11728
G1 X92.595 Y172.063 E20.13615
G1 X91.892 Y173.374 E20.17573
G1 X91.493 Y173.967 E20.19475
G1 X90.542 Y175.117 E20.23445
G1 X90.034 Y175.621 E20.2535
G1 X88.898 Y176.541 E20.29239
G1 X88.323 Y176.921 E20.31073
G1 X87.036 Y177.606 E20.34952
G1 X86.384 Y177.875 E20.36829
G1 X85.004 Y178.291 E20.40664
G1 X84.322 Y178.426 E20.42514
G1 X82.859 Y178.572 E20.46426
G1 X82.141 Y178.572 E20.48337
G1 X80.661 Y178.423 E20.52295
G1 X79.978 Y178.286 E20.54148
G1 X78.595 Y177.867 E20.57993
G1 X77.941 Y177.596 E20.59877
G1 X76.629 Y176.894 E20.63836
G1 X76.029 Y176.491 E20.65759
G1 X74.875 Y175.534 E20.69748
G1 X74.377 Y175.031 E20.71632
G1 X73.457 Y173.897 E20.75517
G1 X73.072 Y173.314 E20.77376
G1 X72.388 Y172.023 E20.81264
G1 X72.122 Y171.376 E20.83125
G1 X71.707 Y169.998 E20.86954
G1 X71.584 Y169.426 E20.88511
G1 X71.308 Y167.311 E20.94186
G1 X70.392 Y161.889 E21.08818
G1 X69.185 Y156.588 E21.23284
G1 X68.474 Y153.981 E21.30474
G1 X66.804 Y148.747 E21.45092
G1 X64.861 Y143.666 E21.59567
G1 X62.63 Y138.697 E21.7406
G1 X60.113 Y133.843 E21.88608
G1 X57.337 Y129.161 E22.03091
G1 X54.306 Y124.649 E22.17554
G1 X51.001 Y120.286 E22.32118
G1 X47.443 Y116.103 E22.4673
G1 X44.586 Y112.976 E22.58
G1 X44.264 Y112.568 E22.59383
G1 X43.683 Y111.711 E22.62138
G1 X43.485 Y111.382 E22.6316
G1 X43.046 Y110.557 E22.65647
G1 X42.831 Y110.068 E22.67068
G1 X42.274 Y108.496 E22.71505
G1 X42.137 Y108 E22.72875
G1 X41.911 Y106.87 E22.75941
G1 X41.842 Y106.24 E22.77627
G1 X41.801 Y104.294 E22.82806
G1 X41.842 Y103.667 E22.84478
G1 X42.031 Y102.446 E22.87766
G1 X42.153 Y101.923 E22.89195
G1 X42.578 Y100.563 E22.92986
G1 X42.714 Y100.198 E22.94022
G1 X43.008 Y99.524 E22.95979
G1 X43.201 Y99.145 E22.97111
G1 X43.824 Y98.08 E23.00394
G1 X44.107 Y97.665 E23.0173
G1 X45.01 Y96.523 E23.05604
G1 X45.347 Y96.153 E23.06936
G1 X46.105 Y95.429 E23.09725
G1 X46.417 Y95.164 E23.10814
G1 X47.158 Y94.602 E23.13289
G1 X47.581 Y94.325 E23.14634
G1 X48.995 Y93.537 E23.18941
G0 F1542.9 X49.189 Y93.887
G1 F900 X49.631 Y93.683 E23.20236
G1 X50.932 Y93.199 E23.2393
G1 X51.369 Y93.071 E23.25142
G1 X52.406 Y92.846 E23.27965
G1 X52.737 Y92.792 E23.28857
G1 X53.615 Y92.696 E23.31208
G1 X53.977 Y92.677 E23.32172
G1 X55.119 Y92.682 E23.35211
G1 X55.73 Y92.744 E23.36845
G1 X58.009 Y93.198 E23.43028
G1 X58.517 Y93.343 E23.44434
G1 X59.201 Y93.602 E23.4638
G1 X59.602 Y93.787 E23.47555
G1 X61.185 Y94.652 E23.52355
G1 X61.58 Y94.907 E23.53606
G1 X62.324 Y95.469 E23.56087
G1 X62.6 Y95.703 E23.57049
G1 X63.349 Y96.415 E23.59799
G1 X63.586 Y96.666 E23.60718
G1 X64.221 Y97.416 E23.63333
G1 X64.449 Y97.72 E23.64344
G1 X65.099 Y98.704 E23.67482
G1 X65.309 Y99.073 E23.68611
G1 X65.827 Y100.142 E23.71772
G1 X66.022 Y100.652 E23.73225
G1 X66.582 Y102.598 E23.78613
G1 X66.689 Y103.148 E23.80104
G1 X67.269 Y108.654 E23.94835
G1 X68.109 Y114.102 E24.09503
G1 X69.249 Y119.462 E24.24084
G1 X70.683 Y124.722 E24.3859
G1 X72.431 Y129.951 E24.5326
G1 X73.394 Y132.468 E24.60431
