;FLAVOR:Marlin
;TIME:3910
;Filament used: 3.89603m, 0m
;Layer height: 0.2
;POSTPROCESSED
;Generated with Cura_SteamEngine 3.4.1
T0
M190 S75
M104 S248
M109 S248
M82 ;absolute extrusion mode
; Printer start settings begin
M92 X160 Y160 Z1600; Steps per unit
M201 X1000 Y1000 Z50 E1500 E1500 ; Max Accelleration
M203 X800 Y800 Z2 E90 E90 ; Max Feed
M205 X3.0 Y3.0 Z0.3 E5.0 ; Default Jerk
G28
G0 X0 Y0 Z15 F1200
G92 E-35
G1 E0 F200 ;Home
G92 E5
G1 F1000 E0
G29 ;Auto Bed Level
G92 F400 E-5
G1 E0
G0 X0 Y0 Z15.0 F6000 ;Move the platform down 15mm
G92 E0
G1 F200 E3
G92 E0
G92 E0
G1 F1200 E-6.5
;LAYER_COUNT:98
;LAYER:0
M107
G0 F1542.9 X69.699 Y78.513 Z0.16
;TYPE:SKIRT
G1 F1200 E0
G1 F900 X74.407 Y74.724 E0.1608
G1 X78.421 Y71.088 E0.30491
G1 X80.306 Y69.228 E0.37537
G1 X83.661 Y65.678 E0.50534
G1 X84.114 Y65.256 E0.52181
G1 X84.564 Y64.931 E0.53658
G1 X85.376 Y64.412 E0.56223
G1 X85.918 Y64.112 E0.57871
G1 X86.431 Y63.906 E0.59342
G1 X87.418 Y63.574 E0.62113
G1 X88.016 Y63.415 E0.63759
G1 X88.711 Y63.33 E0.65622
G1 X89.782 Y63.277 E0.68475
G1 X90.401 Y63.286 E0.70123
G1 X91.041 Y63.381 E0.71844
G1 X92.055 Y63.602 E0.74606
G1 X92.651 Y63.773 E0.76255
G1 X93.107 Y63.963 E0.7757
G1 X93.921 Y64.353 E0.79972
G1 X94.461 Y64.656 E0.81619
G1 X94.907 Y64.984 E0.83092
G1 X95.667 Y65.613 E0.85717
G1 X96.229 Y66.161 E0.87806
G1 X101.014 Y71.662 E1.07205
G1 X104.822 Y75.506 E1.21603
G1 X106.724 Y77.268 E1.28501
G1 X110.878 Y80.803 E1.43015
G1 X115.144 Y84.037 E1.57259
G1 X119.628 Y87.052 E1.71636
G1 X124.249 Y89.793 E1.85932
G1 X129.04 Y92.281 E2.00297
G1 X133.961 Y94.492 E2.14651
G1 X137.071 Y95.727 E2.23555
G1 X137.609 Y95.98 E2.25137
G1 X140.979 Y97.83 E2.35366
G1 X141.501 Y98.163 E2.37014
G1 X141.977 Y98.56 E2.38663
G1 X142.397 Y99.015 E2.40311
G1 X142.684 Y99.408 E2.41605
G1 X144.821 Y102.67 E2.51982
G1 X147.985 Y107.07 E2.66402
G1 X151.05 Y110.89 E2.79434
G1 X151.405 Y111.397 E2.8108
G1 X151.693 Y111.946 E2.8273
G1 X151.907 Y112.527 E2.84378
G1 X152.045 Y113.13 E2.86023
G1 X152.106 Y113.894 E2.88063
G1 X152.106 Y118.385 E3.00012
G1 X152.066 Y119.003 E3.0166
G1 X151.947 Y119.611 E3.03309
G1 X151.75 Y120.198 E3.04956
G1 X151.48 Y120.755 E3.06603
G1 X151.14 Y121.273 E3.08252
G1 X150.736 Y121.743 E3.09901
G1 X150.275 Y122.156 E3.11548
G1 X149.613 Y122.594 E3.1366
G1 X146.219 Y124.454 E3.23958
G1 X145.683 Y124.706 E3.25534
G1 X142.623 Y125.921 E3.34294
G1 X137.667 Y128.147 E3.48751
G1 X132.882 Y130.629 E3.63093
G1 X128.251 Y133.374 E3.77418
G1 X123.792 Y136.371 E3.91713
G1 X119.489 Y139.632 E4.06079
G1 X115.403 Y143.108 E4.20353
G1 X111.493 Y146.834 E4.34724
G1 X107.795 Y150.783 E4.49119
G1 X104.801 Y154.301 E4.61411
G1 X104.179 Y154.911 E4.63729
G1 X103.474 Y155.486 E4.6615
G1 X102.97 Y155.845 E4.67796
G1 X102.474 Y156.114 E4.69298
G1 X101.576 Y156.534 E4.71936
G1 X100.999 Y156.76 E4.73585
G1 X100.431 Y156.903 E4.75143
G1 X99.444 Y157.089 E4.77815
G1 X98.829 Y157.164 E4.79464
G1 X98.247 Y157.162 E4.81013
G1 X97.252 Y157.098 E4.83666
G1 X96.638 Y157.019 E4.85313
G1 X96.068 Y156.87 E4.8688
G1 X95.117 Y156.559 E4.89543
G1 X94.542 Y156.329 E4.91191
G1 X94.023 Y156.041 E4.9277
G1 X93.188 Y155.507 E4.95407
G1 X92.689 Y155.14 E4.97055
G1 X92.311 Y154.786 E4.98433
G1 X87.828 Y150.114 E5.15662
G1 X83.897 Y146.468 E5.29928
G1 X78.295 Y141.906 E5.49151
G1 X77.841 Y141.485 E5.50799
G1 X77.445 Y141.009 E5.52446
G1 X77.114 Y140.485 E5.54095
G1 X76.852 Y139.924 E5.55743
G1 X76.666 Y139.333 E5.57391
G1 X76.55 Y138.664 E5.59198
G1 X76.276 Y135.936 E5.66493
G1 X75.506 Y130.58 E5.80891
G1 X74.433 Y125.267 E5.95313
G1 X73.813 Y122.746 E6.02221
G1 X72.284 Y117.51 E6.16735
G1 X70.488 Y112.444 E6.31037
G1 X68.283 Y107.197 E6.46181
G1 X68.08 Y106.612 E6.47828
G1 X67.955 Y106.005 E6.49477
G1 X67.908 Y105.337 E6.51259
G1 X67.909 Y82.252 E7.12684
G1 X67.949 Y81.634 E7.14332
G1 X68.068 Y81.026 E7.1598
G1 X68.265 Y80.439 E7.17628
G1 X68.535 Y79.881 E7.19277
G1 X68.875 Y79.364 E7.20924
G1 X69.279 Y78.894 E7.22573
G1 X69.699 Y78.513 E7.24082
G0 F1542.9 X69.95 Y78.824
G1 F900 X74.672 Y75.024 E7.40209
G1 X78.7 Y71.375 E7.54671
G1 X80.566 Y69.533 E7.61647
G1 X83.951 Y65.952 E7.74759
G1 X84.387 Y65.55 E7.76337
G1 X84.779 Y65.268 E7.77622
G1 X85.591 Y64.749 E7.80186
G1 X86.111 Y64.464 E7.81764
G1 X86.558 Y64.286 E7.83044
G1 X87.545 Y63.954 E7.85815
G1 X88.119 Y63.803 E7.87394
G1 X88.731 Y63.729 E7.89034
G1 X89.802 Y63.676 E7.91888
G1 X90.394 Y63.687 E7.93463
G1 X90.956 Y63.772 E7.94975
G1 X91.97 Y63.993 E7.97737
G1 X92.54 Y64.158 E7.99316
G1 X92.934 Y64.324 E8.00453
G1 X93.748 Y64.714 E8.02855
G1 X94.264 Y65.006 E8.04433
G1 X94.652 Y65.292 E8.05715
G1 X95.412 Y65.921 E8.0834
G1 X95.927 Y66.423 E8.10254
G1 X100.725 Y71.939 E8.29706
G1 X104.537 Y75.787 E8.44119
G1 X106.464 Y77.573 E8.5111
G1 X110.612 Y81.102 E8.65601
G1 X114.926 Y84.372 E8.80004
G1 X119.414 Y87.391 E8.94396
G1 X124.053 Y90.142 E9.08747
G1 X128.856 Y92.636 E9.23147
G1 X133.829 Y94.87 E9.37653
G1 X136.923 Y96.099 E9.46511
G1 X137.416 Y96.331 E9.47961
G1 X140.786 Y98.181 E9.5819
G1 X141.286 Y98.501 E9.5977
G1 X141.738 Y98.885 E9.61348
G1 X142.134 Y99.326 E9.62925
G1 X142.35 Y99.627 E9.63911
G1 X144.498 Y102.906 E9.74341
G1 X147.665 Y107.311 E9.88777
G1 X150.738 Y111.14 E10.0184
G1 X151.077 Y111.627 E10.03419
G1 X151.347 Y112.154 E10.04995
G1 X151.545 Y112.713 E10.06573
G1 X151.665 Y113.294 E10.08151
G1 X151.706 Y113.894 E10.09752
G1 X151.706 Y118.385 E10.21701
G1 X151.666 Y118.977 E10.2328
G1 X151.547 Y119.557 E10.24855
G1 X151.351 Y120.117 E10.26434
G1 X151.081 Y120.645 E10.28012
G1 X150.743 Y121.132 E10.29589
G1 X150.342 Y121.569 E10.31168
G1 X149.887 Y121.949 E10.32745
G1 X149.421 Y122.244 E10.34212
G1 X146.027 Y124.104 E10.4451
G1 X145.536 Y124.334 E10.45953
G1 X142.464 Y125.554 E10.54748
G1 X137.49 Y127.787 E10.69256
G1 X132.693 Y130.276 E10.83635
G1 X128.038 Y133.036 E10.98035
G1 X123.553 Y136.05 E11.12413
G1 X119.242 Y139.316 E11.26804
G1 X115.132 Y142.813 E11.41163
G1 X111.208 Y146.553 E11.55586
G1 X107.5 Y150.511 E11.70017
G1 X104.496 Y154.042 E11.82353
G1 X103.926 Y154.601 E11.84477
G1 X103.221 Y155.176 E11.86898
G1 X102.737 Y155.519 E11.88476
G1 X102.304 Y155.752 E11.89785
G1 X101.406 Y156.172 E11.92422
G1 X100.853 Y156.386 E11.94
G1 X100.357 Y156.51 E11.95361
G1 X99.37 Y156.696 E11.98033
G1 X98.781 Y156.766 E11.99611
G1 X98.273 Y156.763 E12.00963
G1 X97.278 Y156.699 E12.03616
G1 X96.69 Y156.621 E12.05194
G1 X96.192 Y156.49 E12.06564
G1 X95.241 Y156.179 E12.09227
G1 X94.691 Y155.957 E12.10805
G1 X94.238 Y155.704 E12.12185
G1 X93.403 Y155.17 E12.14823
G1 X92.927 Y154.817 E12.164
G1 X92.599 Y154.509 E12.17597
G1 X88.105 Y149.826 E12.34867
G1 X84.156 Y146.162 E12.492
G1 X78.548 Y141.596 E12.68443
G1 X78.114 Y141.191 E12.70022
G1 X77.739 Y140.732 E12.71599
G1 X77.429 Y140.227 E12.73176
G1 X77.19 Y139.684 E12.74755
G1 X77.026 Y139.115 E12.7633
G1 X76.948 Y138.624 E12.77653
G1 X76.672 Y135.883 E12.84983
G1 X75.9 Y130.512 E12.99421
G1 X74.822 Y125.172 E13.13917
G1 X74.202 Y122.652 E13.20822
G1 X72.665 Y117.385 E13.35421
G1 X70.861 Y112.297 E13.49785
G1 X68.652 Y107.042 E13.64953
G1 X68.459 Y106.481 E13.66531
G1 X68.344 Y105.899 E13.6811
G1 X68.308 Y105.337 E13.69608
G1 X68.309 Y82.252 E14.31033
G1 X68.349 Y81.66 E14.32612
G1 X68.468 Y81.079 E14.3419
G1 X68.664 Y80.52 E14.35766
G1 X68.934 Y79.992 E14.37344
G1 X69.272 Y79.505 E14.38921
G1 X69.673 Y79.067 E14.40501
G1 X69.95 Y78.824 E14.41482
G0 F1542.9 X70.201 Y79.136
G1 F900 X74.926 Y75.333 E14.57621
G1 X78.967 Y71.673 E14.72128
G1 X80.869 Y69.795 E14.7924
G1 X84.242 Y66.227 E14.92304
G1 X84.659 Y65.845 E14.93809
G1 X84.995 Y65.605 E14.94908
G1 X85.807 Y65.086 E14.97472
G1 X86.303 Y64.816 E14.98974
G1 X86.686 Y64.665 E15.0007
G1 X87.673 Y64.333 E15.02841
G1 X88.22 Y64.191 E15.04344
G1 X88.75 Y64.129 E15.05764
G1 X89.821 Y64.076 E15.08617
G1 X90.386 Y64.088 E15.10121
G1 X90.871 Y64.163 E15.11427
G1 X91.885 Y64.384 E15.14188
G1 X92.427 Y64.543 E15.15691
G1 X92.761 Y64.685 E15.16657
G1 X93.575 Y65.075 E15.19059
G1 X94.067 Y65.354 E15.20564
G1 X94.397 Y65.6 E15.21659
G1 X95.157 Y66.229 E15.24284
G1 X95.625 Y66.686 E15.26024
G1 X100.422 Y72.201 E15.45473
G1 X104.275 Y76.091 E15.60041
G1 X106.203 Y77.876 E15.67033
G1 X110.356 Y81.41 E15.81542
G1 X114.694 Y84.699 E15.96027
G1 X119.192 Y87.724 E16.10451
G1 X123.858 Y90.491 E16.24885
G1 X128.686 Y92.999 E16.39361
G1 X133.658 Y95.232 E16.53864
G1 X136.775 Y96.47 E16.62788
G1 X137.224 Y96.682 E16.64109
G1 X140.594 Y98.532 E16.74338
G1 X141.069 Y98.838 E16.75841
G1 X141.496 Y99.208 E16.77345
G1 X142.015 Y99.846 E16.79533
G1 X144.161 Y103.122 E16.89954
G1 X147.355 Y107.564 E17.04511
G1 X150.426 Y111.391 E17.17567
G1 X150.748 Y111.855 E17.1907
G1 X151.001 Y112.361 E17.20575
G1 X151.18 Y112.897 E17.22079
G1 X151.282 Y113.453 E17.23583
G1 X151.306 Y113.894 E17.24758
G1 X151.306 Y118.385 E17.36708
G1 X151.266 Y118.949 E17.38212
G1 X151.147 Y119.502 E17.39718
G1 X150.951 Y120.032 E17.41221
G1 X150.683 Y120.529 E17.42724
G1 X150.347 Y120.984 E17.44229
G1 X149.95 Y121.387 E17.45734
G1 X149.5 Y121.729 E17.47238
G1 X149.228 Y121.893 E17.48083
G1 X145.834 Y123.753 E17.58381
G1 X145.388 Y123.963 E17.59693
G1 X142.293 Y125.192 E17.68553
G1 X137.321 Y127.425 E17.83056
G1 X132.498 Y129.927 E17.97513
G1 X127.824 Y132.698 E18.11971
G1 X123.322 Y135.723 E18.26403
G1 X118.998 Y139 E18.40839
G1 X114.861 Y142.519 E18.5529
G1 X110.922 Y146.273 E18.69769
G1 X107.207 Y150.239 E18.84228
G1 X104.192 Y153.783 E18.96609
G1 X103.673 Y154.291 E18.98541
G1 X102.968 Y154.866 E19.00962
G1 X102.506 Y155.191 E19.02465
G1 X102.135 Y155.389 E19.03584
G1 X101.237 Y155.809 E19.06222
G1 X100.709 Y156.012 E19.07727
G1 X100.283 Y156.117 E19.08894
G1 X99.296 Y156.303 E19.11567
G1 X98.734 Y156.368 E19.13072
G1 X98.298 Y156.364 E19.14232
G1 X97.303 Y156.3 E19.16885
G1 X96.743 Y156.224 E19.18389
G1 X96.317 Y156.11 E19.19562
G1 X95.366 Y155.799 E19.22225
G1 X94.842 Y155.586 E19.2373
G1 X94.454 Y155.367 E19.24915
G1 X93.619 Y154.833 E19.27552
G1 X93.165 Y154.495 E19.29058
G1 X92.888 Y154.233 E19.30073
G1 X88.384 Y149.539 E19.47383
G1 X84.421 Y145.863 E19.61765
G1 X78.8 Y141.286 E19.81053
G1 X78.388 Y140.899 E19.82557
G1 X78.035 Y140.457 E19.84062
G1 X77.747 Y139.971 E19.85565
G1 X77.531 Y139.448 E19.87071
G1 X77.391 Y138.901 E19.88573
G1 X77.346 Y138.584 E19.89425
G1 X77.07 Y135.835 E19.96776
G1 X76.295 Y130.447 E20.1126
G1 X75.213 Y125.088 E20.25807
G1 X74.586 Y122.541 E20.32787
G1 X73.047 Y117.266 E20.47408
G1 X71.231 Y112.145 E20.61865
G1 X69.021 Y106.887 E20.77041
G1 X68.839 Y106.352 E20.78545
G1 X68.734 Y105.796 E20.80051
G1 X68.708 Y105.337 E20.81274
G1 X68.709 Y82.252 E21.42699
G1 X68.749 Y81.688 E21.44203
G1 X68.868 Y81.135 E21.45708
G1 X69.064 Y80.605 E21.47212
G1 X69.332 Y80.107 E21.48717
G1 X69.669 Y79.653 E21.50221
G1 X70.201 Y79.136 E21.52195
G0 F1542.9 X70.452 Y79.448
G1 F900 X75.181 Y75.642 E21.68347
G1 X79.245 Y71.961 E21.82937
G1 X81.158 Y70.072 E21.9009
G1 X84.533 Y66.502 E22.03162
G1 X84.929 Y66.141 E22.04588
G1 X85.21 Y65.942 E22.05504
G1 X86.022 Y65.423 E22.08068
G1 X86.494 Y65.168 E22.09496
G1 X86.813 Y65.044 E22.10407
G1 X87.8 Y64.712 E22.13177
G1 X88.32 Y64.579 E22.14606
G1 X88.77 Y64.528 E22.15811
G1 X89.841 Y64.475 E22.18664
G1 X90.377 Y64.489 E22.20091
G1 X90.786 Y64.554 E22.21192
G1 X91.8 Y64.775 E22.23954
G1 X92.314 Y64.927 E22.2538
G1 X92.588 Y65.045 E22.26174
G1 X93.402 Y65.435 E22.28575
G1 X93.868 Y65.702 E22.30005
G1 X94.142 Y65.909 E22.30918
G1 X94.902 Y66.538 E22.33543
G1 X95.323 Y66.948 E22.35107
G1 X100.133 Y72.478 E22.54608
G1 X103.979 Y76.36 E22.69149
G1 X105.942 Y78.179 E22.7627
G1 X110.111 Y81.727 E22.90836
G1 X114.464 Y85.026 E23.05369
G1 X118.978 Y88.062 E23.19844
G1 X123.669 Y90.844 E23.34355
G1 X128.51 Y93.358 E23.4887
G1 X133.499 Y95.599 E23.63422
G1 X136.628 Y96.842 E23.72381
G1 X137.031 Y97.032 E23.73566
G1 X140.401 Y98.882 E23.83796
G1 X140.851 Y99.175 E23.85224
G1 X141.252 Y99.531 E23.86651
G1 X141.68 Y100.065 E23.88472
G1 X143.826 Y103.342 E23.98895
G1 X147.036 Y107.805 E24.13523
G1 X150.114 Y111.641 E24.26609
G1 X150.417 Y112.083 E24.28035
G1 X150.652 Y112.565 E24.29462
G1 X150.812 Y113.077 E24.30889
G1 X150.895 Y113.607 E24.32317
G1 X150.906 Y113.894 E24.33081
G1 X150.906 Y118.385 E24.45031
G1 X150.866 Y118.92 E24.46458
G1 X150.747 Y119.443 E24.47885
G1 X150.552 Y119.942 E24.49311
G1 X150.284 Y120.407 E24.50739
G1 X149.951 Y120.827 E24.52165
G1 X149.559 Y121.193 E24.53592
G1 X149.036 Y121.542 E24.55265
G1 X145.642 Y123.402 E24.65563
G1 X145.24 Y123.591 E24.66745
G1 X142.141 Y124.821 E24.75617
G1 X137.152 Y127.062 E24.90169
G1 X132.302 Y129.578 E25.04707
G1 X127.61 Y132.36 E25.19221
G1 X123.083 Y135.402 E25.33734
G1 X118.751 Y138.685 E25.48196
G1 X114.59 Y142.224 E25.62731
G1 X110.637 Y145.992 E25.77262
G1 X106.912 Y149.968 E25.91759
G1 X103.887 Y153.524 E26.04181
G1 X103.42 Y153.981 E26.0592
G1 X102.715 Y154.556 E26.0834
G1 X102.276 Y154.863 E26.09766
G1 X101.965 Y155.027 E26.10701
G1 X101.067 Y155.447 E26.13339
G1 X100.566 Y155.637 E26.14765
G1 X100.209 Y155.724 E26.15743
G1 X99.222 Y155.91 E26.18415
G1 X98.689 Y155.97 E26.19842
G1 X98.324 Y155.965 E26.20813
G1 X97.329 Y155.901 E26.23466
G1 X96.798 Y155.826 E26.24893
G1 X96.441 Y155.73 E26.25877
G1 X95.49 Y155.419 E26.28539
G1 X94.994 Y155.214 E26.29967
G1 X94.669 Y155.03 E26.30961
G1 X93.834 Y154.496 E26.33598
G1 X93.405 Y154.174 E26.35026
G1 X93.176 Y153.956 E26.35867
G1 X88.653 Y149.242 E26.5325
G1 X84.689 Y145.565 E26.67636
G1 X79.053 Y140.976 E26.86975
G1 X78.663 Y140.607 E26.88404
G1 X78.333 Y140.185 E26.89829
G1 X78.069 Y139.718 E26.91256
G1 X77.877 Y139.217 E26.92684
G1 X77.744 Y138.544 E26.94509
G1 X77.467 Y135.785 E27.01888
G1 X76.69 Y130.383 E27.16409
G1 X75.605 Y125.005 E27.31007
G1 X74.971 Y122.43 E27.38064
G1 X73.427 Y117.141 E27.52724
G1 X71.609 Y112.014 E27.67198
G1 X69.389 Y106.732 E27.82443
G1 X69.219 Y106.223 E27.83871
G1 X69.126 Y105.695 E27.85298
G1 X69.108 Y105.337 E27.86252
G1 X69.109 Y82.252 E28.47676
G1 X69.149 Y81.717 E28.49104
G1 X69.268 Y81.194 E28.50531
G1 X69.463 Y80.695 E28.51957
G1 X69.731 Y80.23 E28.53385
G1 X70.064 Y79.81 E28.54811
G1 X70.452 Y79.448 E28.56223
G0 F1542.9 X70.703 Y79.759
G1 F900 X75.444 Y75.943 E28.72416
G1 X79.524 Y72.247 E28.87065
G1 X81.447 Y70.349 E28.94254
G1 X84.824 Y66.777 E29.07333
G1 X85.199 Y66.438 E29.08679
G1 X85.426 Y66.279 E29.09416
G1 X86.238 Y65.76 E29.1198
G1 X86.684 Y65.522 E29.13325
G1 X86.941 Y65.423 E29.14058
G1 X87.928 Y65.091 E29.16829
G1 X88.418 Y64.968 E29.18173
G1 X88.79 Y64.928 E29.19169
G1 X89.861 Y64.875 E29.22022
G1 X90.366 Y64.89 E29.23366
G1 X90.7 Y64.944 E29.24266
G1 X91.714 Y65.165 E29.27028
G1 X92.416 Y65.406 E29.29003
G1 X93.23 Y65.796 E29.31404
G1 X93.667 Y66.05 E29.32749
G1 X93.887 Y66.217 E29.33484
G1 X94.647 Y66.846 E29.36109
G1 X95.021 Y67.211 E29.375
G1 X99.837 Y72.748 E29.57026
G1 X103.705 Y76.653 E29.71651
G1 X105.669 Y78.472 E29.78774
G1 X109.864 Y82.042 E29.93431
G1 X114.224 Y85.347 E30.07988
G1 X118.772 Y88.405 E30.22571
G1 X123.465 Y91.189 E30.3709
G1 X128.34 Y93.721 E30.51706
G1 X133.347 Y95.97 E30.66311
G1 X136.48 Y97.214 E30.75281
G1 X136.839 Y97.383 E30.76336
G1 X140.209 Y99.233 E30.86566
G1 X140.631 Y99.51 E30.87909
G1 X141.005 Y99.851 E30.89256
G1 X141.346 Y100.285 E30.90724
G1 X143.503 Y103.578 E31.01199
G1 X146.709 Y108.037 E31.15812
G1 X149.802 Y111.891 E31.2896
G1 X150.086 Y112.309 E31.30305
G1 X150.301 Y112.767 E31.31651
G1 X150.441 Y113.253 E31.32997
G1 X150.506 Y113.894 E31.34711
G1 X150.506 Y118.385 E31.46661
G1 X150.466 Y118.889 E31.48006
G1 X150.347 Y119.38 E31.49351
G1 X150.153 Y119.847 E31.50696
G1 X149.887 Y120.277 E31.52041
G1 X149.557 Y120.66 E31.53387
G1 X149.17 Y120.986 E31.54733
G1 X148.844 Y121.191 E31.55758
G1 X145.45 Y123.051 E31.66056
G1 X145.093 Y123.219 E31.67106
G1 X141.982 Y124.454 E31.76012
G1 X136.968 Y126.706 E31.90637
G1 X132.12 Y129.221 E32.05169
G1 X127.396 Y132.021 E32.19781
G1 X122.853 Y135.075 E32.34346
G1 X118.496 Y138.376 E32.48891
G1 X114.32 Y141.929 E32.6348
G1 X110.36 Y145.703 E32.78036
G1 X106.609 Y149.708 E32.92636
G1 X103.582 Y153.265 E33.05064
G1 X103.168 Y153.671 E33.06607
