;FLAVOR:Marlin
;TIME:5099
;Filament used: 5.75797m, 0m
;Layer height: 0.2
;POSTPROCESSED
;Generated with Cura_SteamEngine 3.4.1
T0
M190 S75
M104 S248
M109 S248
M82 ;absolute extrusion mode
; Printer start settings begin
M92 X160 Y160 Z1600; Steps per unit
M201 X1000 Y1000 Z50 E1500 E1500 ; Max Accelleration
M203 X800 Y800 Z2 E90 E90 ; Max Feed
M205 X3.0 Y3.0 Z0.3 E5.0 ; Default Jerk
G28
G0 X0 Y0 Z15 F1200
G92 E-35
G1 E0 F200 ;Home
G92 E5
G1 F1000 E0
G29 ;Auto Bed Level
G92 F400 E-5
G1 E0
G0 X0 Y0 Z15.0 F6000 ;Move the platform down 15mm
G92 E0
G1 F200 E3
G92 E0
G92 E0
G1 F1200 E-6.5
;LAYER_COUNT:71
;LAYER:0
M107
G0 F1542.9 X60.446 Y32.648 Z0.16
;TYPE:SKIRT
G1 F1200 E0
G1 F900 X60.796 Y32.117 E0.01692
G1 X61.575 Y31.092 E0.05118
G1 X61.981 Y30.624 E0.06766
G1 X62.456 Y30.202 E0.08457
G1 X63.492 Y29.399 E0.11945
G1 X64.005 Y29.052 E0.13593
G1 X64.569 Y28.77 E0.1527
G1 X65.76 Y28.268 E0.18709
G1 X66.345 Y28.065 E0.20357
G1 X67.055 Y27.925 E0.22283
G1 X68.646 Y27.735 E0.26546
G1 X69.222 Y27.701 E0.28081
G1 X91.191 Y27.733 E0.86537
G1 X91.842 Y27.778 E0.88273
G1 X92.868 Y27.92 E0.91029
G1 X93.475 Y28.045 E0.92678
G1 X94.026 Y28.232 E0.94226
G1 X95.237 Y28.727 E0.97707
G1 X95.794 Y28.998 E0.99356
G1 X96.323 Y29.347 E1.01042
G1 X97.352 Y30.128 E1.04479
G1 X97.82 Y30.533 E1.06126
G1 X98.305 Y31.092 E1.08095
G1 X103.22 Y37.719 E1.30049
G1 X106.66 Y41.829 E1.4431
G1 X110.356 Y45.771 E1.58688
G1 X114.246 Y49.478 E1.72986
G1 X118.354 Y52.969 E1.8733
G1 X122.646 Y56.218 E2.01653
G1 X127.139 Y59.237 E2.16056
G1 X130.49 Y61.288 E2.2651
G1 X130.996 Y61.645 E2.28158
G1 X131.422 Y62.032 E2.2969
G1 X131.574 Y62.188 E2.30269
G1 X131.977 Y62.659 E2.31918
G1 X132.315 Y63.177 E2.33564
G1 X132.585 Y63.735 E2.35214
G1 X132.78 Y64.323 E2.36862
G1 X132.884 Y64.835 E2.38252
G1 X133.76 Y70.754 E2.54173
G1 X134.864 Y76.052 E2.68573
G1 X135.503 Y78.572 E2.7549
G1 X137.067 Y83.814 E2.90046
G1 X138.884 Y88.832 E3.04246
G1 X141.235 Y94.432 E3.20407
G1 X141.437 Y95.017 E3.22053
G1 X141.579 Y95.758 E3.24061
G1 X141.77 Y97.471 E3.28647
G1 X141.8 Y98.005 E3.3007
G1 X141.79 Y123.611 E3.98203
G1 X141.782 Y123.878 E3.98914
G1 X141.638 Y126.449 E4.05765
G1 X141.561 Y131.908 E4.20292
G1 X141.796 Y137.748 E4.35844
G1 X141.8 Y137.947 E4.36373
G1 X141.767 Y164.855 E5.07971
G1 X141.722 Y165.508 E5.09712
G1 X141.58 Y166.533 E5.12466
G1 X141.455 Y167.139 E5.14112
G1 X141.269 Y167.689 E5.15657
G1 X140.774 Y168.901 E5.1914
G1 X140.503 Y169.458 E5.20789
G1 X140.154 Y169.988 E5.22477
G1 X139.37 Y171.021 E5.25928
G1 X138.964 Y171.489 E5.27576
G1 X138.485 Y171.914 E5.2928
G1 X137.457 Y172.71 E5.3274
G1 X136.944 Y173.057 E5.34387
G1 X136.379 Y173.34 E5.36069
G1 X135.176 Y173.846 E5.39541
G1 X134.591 Y174.048 E5.41188
G1 X133.894 Y174.186 E5.43079
G1 X132.354 Y174.373 E5.47207
G1 X131.773 Y174.408 E5.48755
G1 X109.964 Y174.398 E6.06785
G1 X109.338 Y174.357 E6.08454
G1 X108.102 Y174.194 E6.11771
G1 X107.495 Y174.073 E6.13418
G1 X106.91 Y173.877 E6.1506
G1 X105.709 Y173.385 E6.18513
G1 X105.153 Y173.113 E6.2016
G1 X104.628 Y172.767 E6.21833
G1 X103.593 Y171.982 E6.2529
G1 X103.125 Y171.577 E6.26936
G1 X102.583 Y170.941 E6.2916
G1 X98.29 Y164.908 E6.48862
G1 X94.944 Y160.67 E6.63229
G1 X91.372 Y156.64 E6.77558
G1 X87.561 Y152.801 E6.91952
G1 X85.619 Y151.005 E6.9899
G1 X81.5 Y147.506 E7.13371
G1 X77.216 Y144.266 E7.27662
G1 X71.593 Y140.558 E7.45584
G1 X71.516 Y140.507 E7.4583
G1 X70.09 Y139.527 E7.50434
G1 X69.604 Y139.144 E7.52081
G1 X69.17 Y138.701 E7.53731
G1 X68.797 Y138.207 E7.55378
G1 X68.491 Y137.668 E7.57027
G1 X68.257 Y137.095 E7.58674
G1 X68.057 Y136.251 E7.60982
G1 X67.786 Y134.356 E7.66075
G1 X66.818 Y128.982 E7.80605
G1 X66.238 Y126.396 E7.87656
G1 X65.587 Y123.829 E7.94703
G1 X64.02 Y118.607 E8.0921
G1 X62.19 Y113.56 E8.23494
G1 X59.714 Y107.687 E8.40453
G1 X59.511 Y107.102 E8.42101
G1 X59.371 Y106.392 E8.44026
G1 X59.181 Y104.802 E8.48287
G1 X59.147 Y104.229 E8.49815
G1 X59.161 Y77.383 E9.21247
G1 X59.165 Y77.186 E9.21771
G1 X59.385 Y71.919 E9.35798
G1 X59.308 Y66.472 E9.50293
G1 X59.162 Y63.747 E9.57554
G1 X59.155 Y63.489 E9.5824
G1 X59.159 Y37.465 E10.27485
G1 X59.2 Y36.839 E10.29155
G1 X59.362 Y35.61 E10.32453
G1 X59.483 Y35.002 E10.34103
G1 X59.678 Y34.421 E10.35733
G1 X60.175 Y33.205 E10.39229
G1 X60.446 Y32.648 E10.40877
G0 F1542.9 X60.806 Y32.824
G1 F900 X61.115 Y32.359 E10.42362
G1 X61.894 Y31.334 E10.45788
G1 X62.284 Y30.887 E10.47366
G1 X62.701 Y30.518 E10.48848
G1 X63.737 Y29.715 E10.52336
G1 X64.23 Y29.384 E10.53916
G1 X64.724 Y29.138 E10.55384
G1 X65.915 Y28.636 E10.58823
G1 X66.476 Y28.443 E10.60402
G1 X67.102 Y28.322 E10.62098
G1 X68.693 Y28.132 E10.66362
G1 X69.221 Y28.101 E10.67769
G1 X91.19 Y28.133 E11.26224
G1 X91.787 Y28.175 E11.27817
G1 X92.813 Y28.317 E11.30573
G1 X93.394 Y28.437 E11.32151
G1 X93.875 Y28.602 E11.33504
G1 X95.086 Y29.097 E11.36985
G1 X95.618 Y29.358 E11.38562
G1 X96.081 Y29.665 E11.4004
G1 X97.11 Y30.446 E11.43478
G1 X97.557 Y30.836 E11.45056
G1 X97.984 Y31.33 E11.46794
G1 X102.914 Y37.977 E11.68814
G1 X106.353 Y42.086 E11.83071
G1 X110.079 Y46.061 E11.97568
G1 X113.976 Y49.773 E12.11888
G1 X118.099 Y53.278 E12.26287
G1 X122.416 Y56.545 E12.40692
G1 X126.923 Y59.574 E12.55141
G1 X130.281 Y61.629 E12.65617
G1 X130.765 Y61.972 E12.67195
G1 X131.135 Y62.311 E12.6853
G1 X131.287 Y62.467 E12.6911
G1 X131.672 Y62.919 E12.7069
G1 X131.992 Y63.418 E12.72267
G1 X132.242 Y63.956 E12.73845
G1 X132.417 Y64.522 E12.75422
G1 X132.489 Y64.894 E12.7643
G1 X133.369 Y70.839 E12.92421
G1 X134.474 Y76.14 E13.06829
G1 X135.119 Y78.687 E13.1382
G1 X136.683 Y83.927 E13.2837
G1 X138.514 Y88.985 E13.42684
G1 X140.866 Y94.587 E13.5885
G1 X141.058 Y95.148 E13.60428
G1 X141.182 Y95.802 E13.62199
G1 X141.373 Y97.515 E13.66785
G1 X141.4 Y98.005 E13.68091
G1 X141.39 Y123.611 E14.36223
G1 X141.383 Y123.855 E14.36873
G1 X141.238 Y126.444 E14.43773
G1 X141.16 Y131.919 E14.58342
G1 X141.396 Y137.764 E14.73907
G1 X141.4 Y137.946 E14.74392
G1 X141.367 Y164.854 E15.45989
G1 X141.325 Y165.453 E15.47586
G1 X141.183 Y166.478 E15.5034
G1 X141.063 Y167.058 E15.51916
G1 X140.898 Y167.538 E15.53266
G1 X140.403 Y168.75 E15.5675
G1 X140.143 Y169.282 E15.58325
G1 X139.835 Y169.746 E15.59807
G1 X139.051 Y170.779 E15.63258
G1 X138.661 Y171.226 E15.64836
G1 X138.24 Y171.598 E15.66331
G1 X137.212 Y172.394 E15.69791
G1 X136.72 Y172.725 E15.71368
G1 X136.224 Y172.971 E15.72842
G1 X135.021 Y173.477 E15.76314
G1 X134.46 Y173.669 E15.77892
G1 X133.845 Y173.789 E15.79559
G1 X132.305 Y173.976 E15.83687
G1 X131.773 Y174.008 E15.85105
G1 X109.964 Y173.998 E16.43135
G1 X109.391 Y173.96 E16.44663
G1 X108.155 Y173.797 E16.4798
G1 X107.573 Y173.68 E16.49559
G1 X107.062 Y173.507 E16.50995
G1 X105.861 Y173.015 E16.54448
G1 X105.329 Y172.753 E16.56026
G1 X104.87 Y172.449 E16.57491
G1 X103.835 Y171.664 E16.60947
G1 X103.388 Y171.274 E16.62526
G1 X102.909 Y170.709 E16.64497
G1 X98.611 Y164.668 E16.84224
G1 X95.257 Y160.421 E16.98623
G1 X91.664 Y156.367 E17.13037
G1 X87.822 Y152.497 E17.27547
G1 X85.892 Y150.712 E17.34542
G1 X81.746 Y147.191 E17.49015
G1 X77.453 Y143.943 E17.63339
G1 X71.813 Y140.224 E17.81315
G1 X71.743 Y140.177 E17.81539
G1 X70.317 Y139.197 E17.86143
G1 X69.852 Y138.829 E17.87721
G1 X69.441 Y138.402 E17.89298
G1 X69.091 Y137.923 E17.90877
G1 X68.808 Y137.402 E17.92454
G1 X68.598 Y136.848 E17.94031
G1 X68.453 Y136.194 E17.95813
G1 X68.18 Y134.285 E18.00944
G1 X67.214 Y128.921 E18.15446
G1 X66.627 Y126.303 E18.22585
G1 X65.968 Y123.707 E18.29712
G1 X64.4 Y118.482 E18.44227
G1 X62.56 Y113.407 E18.58591
G1 X60.083 Y107.532 E18.75556
G1 X59.89 Y106.971 E18.77134
G1 X59.768 Y106.344 E18.78834
G1 X59.578 Y104.754 E18.83095
G1 X59.547 Y104.23 E18.84492
G1 X59.561 Y77.384 E19.55924
G1 X59.565 Y77.202 E19.56408
G1 X59.785 Y71.93 E19.70448
G1 X59.708 Y66.471 E19.84975
G1 X59.561 Y63.726 E19.92289
G1 X59.555 Y63.489 E19.9292
G1 X59.559 Y37.465 E20.62165
G1 X59.597 Y36.891 E20.63696
G1 X59.759 Y35.662 E20.66994
G1 X59.876 Y35.081 E20.68571
G1 X60.048 Y34.572 E20.70001
G1 X60.545 Y33.356 E20.73496
G1 X60.806 Y32.824 E20.75073
G0 F1542.9 X61.166 Y33.001
G1 F900 X61.433 Y32.601 E20.76352
G1 X62.212 Y31.576 E20.79778
G1 X62.585 Y31.151 E20.81283
G1 X62.947 Y30.834 E20.82563
G1 X63.983 Y30.031 E20.86051
G1 X64.453 Y29.718 E20.87553
G1 X64.879 Y29.507 E20.88818
G1 X66.07 Y29.005 E20.92257
G1 X66.606 Y28.823 E20.93763
G1 X67.15 Y28.719 E20.95237
G1 X68.741 Y28.529 E20.995
G1 X69.221 Y28.501 E21.0078
G1 X91.19 Y28.533 E21.59235
G1 X91.732 Y28.571 E21.60681
G1 X92.758 Y28.713 E21.63437
G1 X93.311 Y28.83 E21.64941
G1 X93.723 Y28.972 E21.661
G1 X94.934 Y29.467 E21.69581
G1 X95.441 Y29.718 E21.71087
G1 X95.839 Y29.984 E21.72361
G1 X96.868 Y30.765 E21.75798
G1 X97.293 Y31.138 E21.77302
G1 X97.663 Y31.568 E21.78812
G1 X102.608 Y38.235 E22.00898
G1 X106.053 Y42.352 E22.15182
G1 X109.785 Y46.332 E22.297
G1 X113.715 Y50.077 E22.44144
G1 X117.852 Y53.593 E22.58591
G1 X122.177 Y56.867 E22.73024
G1 X126.707 Y59.911 E22.87546
G1 X130.072 Y61.97 E22.98043
G1 X130.532 Y62.299 E22.99548
G1 X130.849 Y62.591 E23.00694
G1 X131.001 Y62.747 E23.01274
G1 X131.366 Y63.178 E23.02777
G1 X131.666 Y63.657 E23.04281
G1 X131.896 Y64.174 E23.05786
G1 X132.093 Y64.952 E23.07922
G1 X132.973 Y70.897 E23.23913
G1 X134.088 Y76.245 E23.38449
G1 X134.73 Y78.78 E23.45407
G1 X136.305 Y84.056 E23.60057
G1 X138.144 Y89.138 E23.74438
G1 X140.497 Y94.742 E23.9061
G1 X140.679 Y95.277 E23.92113
G1 X140.784 Y95.847 E23.93656
G1 X140.975 Y97.56 E23.98242
G1 X141 Y98.005 E23.99428
G1 X140.99 Y123.611 E24.67561
G1 X140.984 Y123.833 E24.68151
G1 X140.838 Y126.44 E24.75099
G1 X140.761 Y131.911 E24.89658
G1 X140.997 Y137.78 E25.05287
G1 X141 Y137.946 E25.05728
G1 X140.967 Y164.854 E25.77326
G1 X140.929 Y165.398 E25.78777
G1 X140.787 Y166.423 E25.8153
G1 X140.67 Y166.976 E25.83034
G1 X140.528 Y167.386 E25.84189
G1 X140.033 Y168.598 E25.87672
G1 X139.783 Y169.105 E25.89176
G1 X139.516 Y169.504 E25.90454
G1 X138.732 Y170.537 E25.93904
G1 X138.36 Y170.962 E25.95407
G1 X137.995 Y171.282 E25.96699
G1 X136.967 Y172.078 E26.00158
G1 X136.497 Y172.391 E26.01661
G1 X136.069 Y172.602 E26.0293
G1 X134.866 Y173.108 E26.06403
G1 X134.331 Y173.29 E26.07907
G1 X133.797 Y173.392 E26.09353
G1 X132.257 Y173.579 E26.13481
G1 X131.773 Y173.608 E26.14771
G1 X109.964 Y173.598 E26.72801
G1 X109.443 Y173.564 E26.7419
G1 X108.207 Y173.401 E26.77507
G1 X107.653 Y173.287 E26.79012
G1 X107.214 Y173.136 E26.80247
G1 X106.013 Y172.644 E26.83701
G1 X105.506 Y172.394 E26.85205
G1 X105.112 Y172.13 E26.86467
G1 X104.077 Y171.345 E26.89923
G1 X103.652 Y170.972 E26.91428
G1 X103.235 Y170.477 E26.9315
G1 X98.931 Y164.428 E27.12904
G1 X95.555 Y160.153 E27.27398
G1 X91.965 Y156.102 E27.418
G1 X88.096 Y152.204 E27.56414
G1 X86.177 Y150.431 E27.63366
G1 X81.991 Y146.874 E27.77982
G1 X77.682 Y143.615 E27.92357
G1 X72.033 Y139.89 E28.10362
G1 X71.969 Y139.848 E28.10566
G1 X70.543 Y138.868 E28.1517
G1 X70.101 Y138.515 E28.16675
G1 X69.713 Y138.104 E28.18179
G1 X69.387 Y137.642 E28.19683
G1 X69.129 Y137.139 E28.21187
G1 X68.945 Y136.605 E28.2269
G1 X68.849 Y136.138 E28.23959
G1 X68.577 Y134.237 E28.29069
G1 X67.6 Y128.814 E28.43731
G1 X67.021 Y126.227 E28.50784
G1 X66.351 Y123.591 E28.58021
G1 X64.786 Y118.373 E28.72516
G1 X62.934 Y113.264 E28.86976
G1 X60.451 Y107.376 E29.03979
G1 X60.269 Y106.841 E29.05483
G1 X60.165 Y106.297 E29.06956
G1 X59.975 Y104.707 E29.11217
G1 X59.947 Y104.23 E29.12489
G1 X59.961 Y77.384 E29.83921
G1 X59.964 Y77.219 E29.8436
G1 X60.185 Y71.923 E29.98464
G1 X60.108 Y66.443 E30.13046
G1 X59.961 Y63.704 E30.20345
G1 X59.955 Y63.489 E30.20917
G1 X59.959 Y37.465 E30.90162
G1 X59.993 Y36.943 E30.91554
G1 X60.155 Y35.714 E30.94852
G1 X60.269 Y35.16 E30.96357
G1 X60.418 Y34.724 E30.97583
G1 X60.915 Y33.508 E31.01079
G1 X61.166 Y33.001 E31.02584
G0 F1542.9 X61.525 Y33.179
G1 F900 X61.752 Y32.843 E31.03663
G1 X62.531 Y31.818 E31.07089
G1 X62.886 Y31.416 E31.08516
G1 X63.192 Y31.151 E31.09593
G1 X64.228 Y30.348 E31.1308
G1 X64.675 Y30.052 E31.14507
G1 X65.035 Y29.876 E31.15573
G1 X66.226 Y29.374 E31.19012
G1 X66.734 Y29.203 E31.20438
G1 X67.197 Y29.116 E31.21692
G1 X68.788 Y28.926 E31.25955
G1 X69.22 Y28.901 E31.27107
G1 X91.189 Y28.933 E31.85562
G1 X91.678 Y28.967 E31.86866
G1 X92.704 Y29.109 E31.89622
G1 X93.228 Y29.222 E31.91049
G1 X93.572 Y29.343 E31.92019
G1 X94.783 Y29.838 E31.955
G1 X95.263 Y30.077 E31.96927
G1 X95.597 Y30.302 E31.97998
G1 X96.626 Y31.083 E32.01436
G1 X97.028 Y31.439 E32.02864
G1 X97.342 Y31.806 E32.0415
G1 X102.287 Y38.474 E32.26238
G1 X105.771 Y42.637 E32.40683
G1 X109.5 Y46.613 E32.55187
G1 X113.444 Y50.372 E32.69684
G1 X117.597 Y53.901 E32.84185
G1 X121.946 Y57.194 E32.987
G1 X126.491 Y60.248 E33.1327
G1 X129.863 Y62.311 E33.23788
G1 X130.299 Y62.625 E33.25218
G1 X130.562 Y62.87 E33.26174
G1 X130.714 Y63.026 E33.26754
G1 X131.059 Y63.437 E33.28182
G1 X131.339 Y63.894 E33.29608
G1 X131.547 Y64.388 E33.31034
G1 X131.697 Y65.011 E33.32739
G1 X132.578 Y70.966 E33.48757
G1 X133.692 Y76.311 E33.63284
G1 X134.349 Y78.902 E33.70397
G1 X135.926 Y84.186 E33.85069
G1 X137.769 Y89.277 E33.99476
G1 X140.128 Y94.896 E34.15691
G1 X140.299 Y95.405 E34.1712
G1 X140.387 Y95.891 E34.18434
G1 X140.578 Y97.604 E34.2302
G1 X140.6 Y98.004 E34.24086
G1 X140.59 Y123.61 E34.92219
G1 X140.584 Y123.81 E34.92751
G1 X140.438 Y126.411 E34.99683
G1 X140.36 Y131.921 E35.14345
G1 X140.597 Y137.796 E35.2999
G1 X140.6 Y137.945 E35.30387
G1 X140.567 Y164.853 E36.01984
G1 X140.533 Y165.343 E36.03291
G1 X140.391 Y166.368 E36.06044
G1 X140.278 Y166.892 E36.0747
G1 X140.158 Y167.235 E36.08437
G1 X139.663 Y168.447 E36.11921
G1 X139.424 Y168.927 E36.13348
G1 X139.198 Y169.262 E36.14423
G1 X138.414 Y170.295 E36.17873
G1 X138.058 Y170.697 E36.19302
G1 X137.75 Y170.965 E36.20389
G1 X136.722 Y171.761 E36.23848
G1 X136.275 Y172.057 E36.25275
G1 X135.914 Y172.233 E36.26343
G1 X134.711 Y172.739 E36.29816
G1 X134.202 Y172.91 E36.31245
G1 X133.749 Y172.995 E36.32471
G1 X132.209 Y173.182 E36.36599
G1 X131.773 Y173.208 E36.37761
G1 X109.964 Y173.198 E36.9579
G1 X109.495 Y173.167 E36.97041
G1 X108.259 Y173.004 E37.00358
G1 X107.734 Y172.895 E37.01785
G1 X107.365 Y172.766 E37.02825
G1 X106.164 Y172.274 E37.06279
G1 X105.685 Y172.035 E37.07703
G1 X105.354 Y171.811 E37.08766
G1 X104.319 Y171.026 E37.12223
G1 X103.917 Y170.671 E37.1365
G1 X103.561 Y170.245 E37.15127
G1 X99.251 Y164.188 E37.34907
G1 X95.869 Y159.904 E37.4943
G1 X92.248 Y155.819 E37.63955
G1 X88.38 Y151.922 E37.78565
G1 X86.438 Y150.127 E37.85601
G1 X82.245 Y146.565 E38.00241
G1 X77.911 Y143.287 E38.147
G1 X72.253 Y139.556 E38.32733
G1 X72.196 Y139.518 E38.32915
G1 X70.77 Y138.538 E38.37519
G1 X70.352 Y138.202 E38.38946
G1 X69.988 Y137.808 E38.40373
G1 X69.687 Y137.364 E38.41801
G1 X69.456 Y136.88 E38.43228
G1 X69.298 Y136.368 E38.44653
G1 X69.245 Y136.081 E38.4543
G1 X68.971 Y134.166 E38.50577
G1 X67.995 Y128.747 E38.65228
G1 X67.407 Y126.121 E38.72389
G1 X66.739 Y123.491 E38.79609
G1 X65.165 Y118.242 E38.9419
G1 X63.306 Y113.117 E39.08696
G1 X60.82 Y107.221 E39.25721
G1 X60.649 Y106.712 E39.2715
G1 X60.562 Y106.249 E39.28404
G1 X60.372 Y104.659 E39.32664
G1 X60.347 Y104.23 E39.33808
G1 X60.361 Y77.384 E40.0524
G1 X60.364 Y77.236 E40.05634
G1 X60.586 Y71.934 E40.19754
G1 X60.508 Y66.442 E40.34369
G1 X60.36 Y63.683 E40.4172
G1 X60.355 Y63.489 E40.42237
G1 X60.359 Y37.465 E41.11482
G1 X60.39 Y36.996 E41.12732
G1 X60.552 Y35.767 E41.16031
G1 X60.661 Y35.242 E41.17457
G1 X60.789 Y34.875 E41.18492
G1 X61.286 Y33.659 E41.21987
G1 X61.525 Y33.179 E41.23414
G0 F1542.9 X61.884 Y33.359
G1 F900 X62.07 Y33.085 E41.24295
G1 X62.849 Y32.06 E41.2772
G1 X63.186 Y31.683 E41.29066
G1 X63.437 Y31.467 E41.29947
G1 X64.473 Y30.664 E41.33435
G1 X64.895 Y30.387 E41.34778
G1 X65.19 Y30.244 E41.3565
G1 X66.381 Y29.742 E41.39089
G1 X66.861 Y29.583 E41.40435
G1 X67.245 Y29.514 E41.41473
G1 X68.836 Y29.324 E41.45736
G1 X69.22 Y29.301 E41.4676
G1 X91.189 Y29.333 E42.05215
G1 X91.623 Y29.363 E42.06373
G1 X92.649 Y29.505 E42.09129
G1 X93.142 Y29.614 E42.10472
G1 X93.421 Y29.713 E42.1126
G1 X94.632 Y30.208 E42.14741
G1 X95.083 Y30.436 E42.16086
