;FLAVOR:Marlin
;TIME:4146
;Filament used: 5.42443m, 0m
;Layer height: 0.2
;POSTPROCESSED
;Generated with Cura_SteamEngine 3.4.1
T0
M190 S75
M104 S248
M109 S248
M82 ;absolute extrusion mode
; Printer start settings begin
M92 X160 Y160 Z1600; Steps per unit
M201 X1000 Y1000 Z50 E1500 E1500 ; Max Accelleration
M203 X800 Y800 Z2 E90 E90 ; Max Feed
M205 X3.0 Y3.0 Z0.3 E5.0 ; Default Jerk
G28
G0 X0 Y0 Z15 F1200
G92 E-35
G1 E0 F200 ;Home
G92 E5
G1 F1000 E0
G29 ;Auto Bed Level
G92 F400 E-5
G1 E0
G0 X0 Y0 Z15.0 F6000 ;Move the platform down 15mm
G92 E0
G1 F200 E3
G92 E0
G92 E0
G1 F1200 E-6.5
;LAYER_COUNT:81
;LAYER:0
M107
G0 F1542.9 X71.541 Y91.235 Z0.16
;TYPE:SKIRT
G1 F1200 E0
G1 F900 X72.052 Y90.884 E0.0165
G1 X72.438 Y90.677 E0.02815
G1 X78.56 Y87.748 E0.20873
G1 X83.253 Y85.135 E0.35165
G1 X88.883 Y81.524 E0.52962
G1 X89.61 Y81.141 E0.55148
G1 X90.576 Y80.734 E0.57938
G1 X91.161 Y80.53 E0.59586
G1 X91.88 Y80.39 E0.61535
G1 X93.207 Y80.234 E0.6509
G1 X93.768 Y80.201 E0.66586
G1 X135.492 Y80.21 E1.77605
G1 X136.11 Y80.25 E1.79253
G1 X136.718 Y80.369 E1.80902
G1 X137.305 Y80.566 E1.82549
G1 X137.862 Y80.837 E1.84197
G1 X138.38 Y81.177 E1.85846
G1 X138.849 Y81.581 E1.87493
G1 X139.263 Y82.042 E1.89142
G1 X139.614 Y82.552 E1.90789
G1 X139.896 Y83.103 E1.92436
G1 X140.105 Y83.686 E1.94084
G1 X140.237 Y84.292 E1.95734
G1 X140.291 Y85.01 E1.9765
G1 X140.291 Y126.991 E3.09354
G1 X140.251 Y127.609 E3.11001
G1 X140.132 Y128.217 E3.1265
G1 X139.935 Y128.804 E3.14297
G1 X139.665 Y129.361 E3.15944
G1 X139.325 Y129.879 E3.17593
G1 X138.921 Y130.349 E3.19242
G1 X138.46 Y130.762 E3.20889
G1 X137.95 Y131.113 E3.22536
G1 X137.399 Y131.396 E3.24185
G1 X136.816 Y131.605 E3.25832
G1 X136.21 Y131.737 E3.27483
G1 X135.491 Y131.791 E3.29401
G1 X74.509 Y131.791 E4.91663
G1 X73.891 Y131.751 E4.93311
G1 X73.283 Y131.632 E4.94959
G1 X72.696 Y131.435 E4.96607
G1 X72.139 Y131.165 E4.98254
G1 X71.621 Y130.825 E4.99902
G1 X71.151 Y130.421 E5.01551
G1 X70.738 Y129.96 E5.03198
G1 X70.387 Y129.45 E5.04846
G1 X70.104 Y128.899 E5.06494
G1 X69.895 Y128.316 E5.08142
G1 X69.763 Y127.71 E5.09792
G1 X69.709 Y126.998 E5.11692
G1 X69.7 Y120.714 E5.28413
G1 X69.708 Y120.423 E5.29187
G1 X70.025 Y115.081 E5.43426
G1 X70.102 Y109.662 E5.57847
G1 X69.874 Y104.239 E5.72289
G1 X69.724 Y102.365 E5.77291
G1 X69.709 Y101.982 E5.78311
G1 X69.71 Y95.006 E5.96873
G1 X69.75 Y94.388 E5.98521
G1 X69.869 Y93.78 E6.00169
G1 X70.066 Y93.193 E6.01817
G1 X70.336 Y92.636 E6.03464
G1 X70.676 Y92.118 E6.05112
G1 X71.08 Y91.649 E6.06759
G1 X71.541 Y91.235 E6.08408
G0 F1542.9 X71.93 Y91.443
G1 F900 X72.611 Y91.038 E6.10516
G1 X78.749 Y88.101 E6.28622
G1 X83.441 Y85.489 E6.4291
G1 X89.099 Y81.86 E6.60796
G1 X89.766 Y81.509 E6.62801
G1 X90.732 Y81.102 E6.65591
G1 X91.292 Y80.909 E6.67167
G1 X91.926 Y80.787 E6.68885
G1 X93.253 Y80.631 E6.7244
G1 X93.768 Y80.601 E6.73812
G1 X135.492 Y80.61 E7.84832
G1 X136.084 Y80.65 E7.86411
G1 X136.664 Y80.769 E7.87986
G1 X137.224 Y80.966 E7.89566
G1 X137.752 Y81.235 E7.91143
G1 X138.239 Y81.574 E7.92721
G1 X138.676 Y81.974 E7.94298
G1 X139.055 Y82.43 E7.95875
G1 X139.37 Y82.933 E7.97455
G1 X139.614 Y83.473 E7.99031
G1 X139.783 Y84.042 E8.00611
G1 X139.874 Y84.627 E8.02186
G1 X139.891 Y85.01 E8.03206
G1 X139.891 Y126.991 E9.1491
G1 X139.851 Y127.583 E9.16488
G1 X139.732 Y128.163 E9.18064
G1 X139.536 Y128.723 E9.19642
G1 X139.266 Y129.251 E9.2122
G1 X138.928 Y129.738 E9.22798
G1 X138.527 Y130.175 E9.24376
G1 X138.072 Y130.555 E9.25953
G1 X137.569 Y130.869 E9.27531
G1 X137.029 Y131.114 E9.29109
G1 X136.46 Y131.283 E9.30688
G1 X135.875 Y131.374 E9.32263
G1 X135.491 Y131.391 E9.33286
G1 X74.509 Y131.391 E10.95548
G1 X73.917 Y131.351 E10.97127
G1 X73.337 Y131.232 E10.98702
G1 X72.777 Y131.036 E11.00281
G1 X72.249 Y130.766 E11.01859
G1 X71.762 Y130.428 E11.03436
G1 X71.325 Y130.027 E11.05014
G1 X70.945 Y129.572 E11.06591
G1 X70.631 Y129.069 E11.08169
G1 X70.386 Y128.529 E11.09747
G1 X70.217 Y127.96 E11.11326
G1 X70.126 Y127.375 E11.12902
G1 X70.109 Y126.997 E11.13908
G1 X70.1 Y120.713 E11.30629
G1 X70.108 Y120.447 E11.31337
G1 X70.424 Y115.11 E11.45563
G1 X70.502 Y109.651 E11.6009
G1 X70.274 Y104.217 E11.74561
G1 X70.123 Y102.333 E11.7959
G1 X70.109 Y101.982 E11.80525
G1 X70.11 Y95.006 E11.99087
G1 X70.15 Y94.415 E12.00663
G1 X70.269 Y93.834 E12.02241
G1 X70.465 Y93.274 E12.0382
G1 X70.735 Y92.746 E12.05397
G1 X71.073 Y92.259 E12.06975
G1 X71.474 Y91.822 E12.08553
G1 X71.93 Y91.443 E12.10131
G0 F1542.9 X71.867 Y92.005
G1 F900 X72.316 Y91.662 E12.11634
G1 X72.783 Y91.399 E12.1306
G1 X78.924 Y88.461 E12.31174
G1 X83.66 Y85.824 E12.45597
G1 X89.315 Y82.197 E12.63473
G1 X89.921 Y81.878 E12.65295
G1 X90.887 Y81.471 E12.68085
G1 X91.422 Y81.289 E12.69588
G1 X91.973 Y81.184 E12.71081
G1 X93.3 Y81.028 E12.74636
G1 X93.768 Y81.001 E12.75883
G1 X135.492 Y81.01 E13.86903
G1 X136.056 Y81.05 E13.88407
G1 X136.608 Y81.169 E13.8991
G1 X137.139 Y81.365 E13.91416
G1 X137.636 Y81.634 E13.9292
G1 X138.091 Y81.97 E13.94425
G1 X138.493 Y82.367 E13.95928
G1 X138.836 Y82.816 E13.97431
G1 X139.112 Y83.31 E13.98937
G1 X139.315 Y83.837 E14.0044
G1 X139.442 Y84.388 E14.01944
G1 X139.491 Y85.01 E14.03604
G1 X139.491 Y126.991 E15.15308
G1 X139.451 Y127.555 E15.16812
G1 X139.332 Y128.108 E15.18317
G1 X139.136 Y128.638 E15.19821
G1 X138.868 Y129.135 E15.21324
G1 X138.532 Y129.59 E15.22829
G1 X138.135 Y129.993 E15.24334
G1 X137.685 Y130.335 E15.25838
G1 X137.192 Y130.611 E15.27341
G1 X136.664 Y130.815 E15.28847
G1 X136.114 Y130.942 E15.30349
G1 X135.491 Y130.991 E15.32012
G1 X74.509 Y130.991 E16.94273
G1 X73.945 Y130.951 E16.95778
G1 X73.392 Y130.832 E16.97283
G1 X72.862 Y130.636 E16.98787
G1 X72.365 Y130.368 E17.00289
G1 X71.91 Y130.032 E17.01794
G1 X71.507 Y129.635 E17.03299
G1 X71.165 Y129.185 E17.04803
G1 X70.889 Y128.692 E17.06307
G1 X70.685 Y128.164 E17.07813
G1 X70.558 Y127.614 E17.09315
G1 X70.509 Y126.997 E17.10962
G1 X70.5 Y120.713 E17.27682
G1 X70.507 Y120.47 E17.28329
G1 X70.824 Y115.116 E17.426
G1 X70.903 Y109.64 E17.57172
G1 X70.673 Y104.197 E17.71668
G1 X70.522 Y102.302 E17.76726
G1 X70.509 Y101.982 E17.77578
G1 X70.51 Y95.006 E17.9614
G1 X70.55 Y94.443 E17.97642
G1 X70.669 Y93.89 E17.99147
G1 X70.865 Y93.36 E18.0065
G1 X71.134 Y92.862 E18.02156
G1 X71.47 Y92.408 E18.03659
G1 X71.867 Y92.005 E18.05164
G0 F1542.9 X72.258 Y92.199
G1 F900 X72.7 Y91.895 E18.06592
G1 X72.956 Y91.76 E18.07362
G1 X79.113 Y88.814 E18.25523
G1 X83.861 Y86.171 E18.39982
G1 X89.531 Y82.534 E18.57906
G1 X90.076 Y82.246 E18.59546
G1 X91.042 Y81.839 E18.62335
G1 X91.551 Y81.669 E18.63763
G1 X92.02 Y81.582 E18.65033
G1 X93.347 Y81.426 E18.68588
G1 X93.768 Y81.401 E18.6971
G1 X135.492 Y81.41 E19.8073
G1 X136.027 Y81.45 E19.82157
G1 X136.549 Y81.569 E19.83582
G1 X137.049 Y81.765 E19.85011
G1 X137.514 Y82.032 E19.86437
G1 X137.934 Y82.366 E19.87865
G1 X138.299 Y82.758 E19.8929
G1 X138.603 Y83.2 E19.90718
G1 X138.837 Y83.682 E19.92143
G1 X138.997 Y84.194 E19.93571
G1 X139.08 Y84.724 E19.94998
G1 X139.091 Y85.01 E19.9576
G1 X139.091 Y126.991 E21.07463
G1 X139.051 Y127.526 E21.08891
G1 X138.932 Y128.049 E21.10318
G1 X138.737 Y128.548 E21.11743
G1 X138.469 Y129.013 E21.13172
G1 X138.136 Y129.433 E21.14598
G1 X137.744 Y129.799 E21.16025
G1 X137.302 Y130.102 E21.17451
G1 X136.819 Y130.337 E21.1888
G1 X136.308 Y130.497 E21.20305
G1 X135.778 Y130.58 E21.21732
G1 X135.491 Y130.591 E21.22496
G1 X74.509 Y130.591 E22.84758
G1 X73.974 Y130.551 E22.86185
G1 X73.451 Y130.432 E22.87612
G1 X72.952 Y130.237 E22.89038
G1 X72.487 Y129.969 E22.90466
G1 X72.067 Y129.636 E22.91892
G1 X71.701 Y129.244 E22.93319
G1 X71.398 Y128.802 E22.94745
G1 X71.163 Y128.319 E22.96174
G1 X71.003 Y127.808 E22.97599
G1 X70.92 Y127.278 E22.99027
G1 X70.909 Y126.996 E22.99777
G1 X70.9 Y120.712 E23.16498
G1 X70.906 Y120.494 E23.17078
G1 X71.224 Y115.124 E23.31392
G1 X71.303 Y109.646 E23.45969
G1 X71.072 Y104.175 E23.6054
G1 X70.92 Y102.27 E23.65624
G1 X70.909 Y101.982 E23.66391
G1 X70.91 Y95.006 E23.84953
G1 X70.95 Y94.472 E23.86378
G1 X71.069 Y93.949 E23.87805
G1 X71.264 Y93.449 E23.89233
G1 X71.532 Y92.985 E23.90659
G1 X71.865 Y92.565 E23.92085
G1 X72.258 Y92.199 E23.93514
G0 F1542.9 X72.646 Y92.406
G1 F900 X73.129 Y92.12 E23.95008
G1 X79.295 Y89.17 E24.13195
G1 X84.06 Y86.516 E24.27708
G1 X89.746 Y82.87 E24.45681
G1 X90.232 Y82.615 E24.47141
G1 X91.198 Y82.208 E24.4993
G1 X91.677 Y82.049 E24.51273
G1 X92.066 Y81.979 E24.52325
G1 X93.393 Y81.823 E24.5588
G1 X93.768 Y81.801 E24.56879
G1 X135.492 Y81.81 E25.67899
G1 X135.996 Y81.85 E25.69244
G1 X136.487 Y81.969 E25.70589
G1 X136.954 Y82.164 E25.71935
G1 X137.384 Y82.43 E25.73281
G1 X137.766 Y82.76 E25.74624
G1 X138.092 Y83.146 E25.75968
G1 X138.353 Y83.579 E25.77313
G1 X138.543 Y84.048 E25.7866
G1 X138.656 Y84.541 E25.80006
G1 X138.691 Y85.01 E25.81257
G1 X138.691 Y126.991 E26.9296
G1 X138.651 Y127.495 E26.94306
G1 X138.532 Y127.986 E26.9565
G1 X138.338 Y128.453 E26.96996
G1 X138.072 Y128.883 E26.98341
G1 X137.742 Y129.266 E26.99686
G1 X137.355 Y129.592 E27.01033
G1 X136.922 Y129.853 E27.02378
G1 X136.454 Y130.043 E27.03722
G1 X135.961 Y130.156 E27.05068
G1 X135.491 Y130.191 E27.06322
G1 X74.509 Y130.191 E28.68583
G1 X74.005 Y130.151 E28.69928
G1 X73.514 Y130.032 E28.71273
G1 X73.047 Y129.838 E28.72618
G1 X72.617 Y129.572 E28.73964
G1 X72.234 Y129.242 E28.75309
G1 X71.908 Y128.855 E28.76655
G1 X71.647 Y128.422 E28.78
G1 X71.457 Y127.954 E28.79344
G1 X71.344 Y127.461 E28.8069
G1 X71.309 Y126.996 E28.81931
G1 X71.3 Y120.712 E28.98652
G1 X71.306 Y120.518 E28.99168
G1 X71.624 Y115.154 E29.13466
G1 X71.703 Y109.636 E29.2815
G1 X71.472 Y104.151 E29.42757
G1 X71.319 Y102.238 E29.47863
G1 X71.309 Y101.983 E29.48542
G1 X71.31 Y95.007 E29.67104
G1 X71.35 Y94.503 E29.6845
G1 X71.469 Y94.011 E29.69796
G1 X71.664 Y93.545 E29.7114
G1 X71.93 Y93.115 E29.72486
G1 X72.26 Y92.732 E29.73831
G1 X72.646 Y92.406 E29.75175
G1 F1200 E23.25175
G0 F1542.9 X75.114 Y119.335
G0 X75.114 Y120.614
G0 X75.5 Y126
;TYPE:WALL-INNER
G1 F1200 E29.75175
G1 F900 X75.5 Y121 E29.88479
G1 X84.652 Y121 E30.12831
G1 X84.652 Y101 E30.66047
G1 X75.5 Y101 E30.90399
G1 X75.5 Y96 E31.03703
G1 X94.498 Y96 E31.54253
G1 X94.5 Y92.123 E31.64569
G1 X94.247 Y92.09 E31.65248
G1 X93.566 Y92 E31.67076
G1 X94.27 Y91.908 E31.67542
G1 X94.39 Y91.859 E31.67681
G1 X94.991 Y91.611 E31.69411
G1 X95.616 Y91.137 E31.71498
G1 X96.096 Y90.517 E31.73584
G1 X96.4 Y89.793 E31.75673
G1 X96.509 Y88.988 E31.77835
G1 X96.401 Y88.207 E31.79933
G1 X96.097 Y87.485 E31.82017
G1 X95.617 Y86.863 E31.84108
G1 X95.005 Y86.4 E31.8615
G1 X94.992 Y86.39 E31.86193
G1 X94.268 Y86.092 E31.88277
G1 X93.557 Y86.002 E31.90183
G1 X94.268 Y86.002 E31.90394
G1 X94.991 Y86.002 E31.9159
G1 X95.008 Y86.002 E31.91635
G1 X134.3 Y86 E32.96184
G1 X134.5 Y86 E32.96716
G1 X134.5 Y86.2 E32.9706
G1 X134.5 Y126 E34.02961
G1 X131.011 Y126 E34.12244
G1 X130.432 Y126 E34.13785
G1 X129.696 Y126 E34.15743
G1 X130.432 Y125.859 E34.16117
G1 X130.956 Y125.613 E34.17169
G1 X131.112 Y125.539 E34.17629
G1 X131.693 Y125.059 E34.19634
G1 X132.138 Y124.449 E34.21643
G1 X132.412 Y123.747 E34.23648
G1 X132.508 Y123 E34.25652
G1 X132.412 Y122.253 E34.27656
G1 X132.138 Y121.551 E34.29661
G1 X131.693 Y120.941 E34.3167
G1 X131.112 Y120.46 E34.33677
G1 X130.428 Y120.14 E34.35687
G1 X129.691 Y119.999 E34.37683
G1 X128.937 Y120.045 E34.39693
G1 X128.218 Y120.278 E34.41704
G1 X127.582 Y120.682 E34.43709
G1 X127.067 Y121.231 E34.45712
G1 X126.703 Y121.894 E34.47725
G1 X126.516 Y122.624 E34.4973
G1 X126.516 Y123.376 E34.51731
G1 X126.703 Y124.106 E34.53736
G1 X127.067 Y124.769 E34.55748
G1 X127.582 Y125.318 E34.57751
G1 X128.042 Y125.61 E34.59201
G1 X128.218 Y125.722 E34.59756
G1 X128.937 Y125.955 E34.61767
G1 X129.675 Y126 E34.63734
G1 X128.937 Y126 E34.63845
G1 X128.218 Y126 E34.64603
G1 X128.009 Y126 E34.65078
G1 X75.5 Y126 E36.04795
G0 F1542.9 X80.477 Y122.955
G0 X126.946 Y94.089
G1 F900 X127.793 Y94.626 E36.07463
G1 X128.748 Y94.937 E36.10135
G1 X129.751 Y94.999 E36.12809
G1 X130.739 Y94.811 E36.15485
G1 X131.647 Y94.383 E36.18156
G1 X132.422 Y93.744 E36.20829
G1 X133.012 Y92.93 E36.23504
G1 X133.381 Y91.996 E36.26176
G1 X133.508 Y91 E36.28848
G1 X133.381 Y90.004 E36.31519
G1 X133.012 Y89.07 E36.34192
G1 X132.422 Y88.256 E36.36867
G1 X131.647 Y87.617 E36.39539
G1 X130.739 Y87.189 E36.4221
G1 X129.751 Y87.001 E36.44886
G1 X128.748 Y87.063 E36.4756
G1 X127.793 Y87.374 E36.50233
G1 X126.946 Y87.911 E36.52901
G1 X126.258 Y88.645 E36.55578
G1 X125.774 Y89.526 E36.58253
G1 X125.524 Y90.497 E36.6092
G1 X125.524 Y91.503 E36.63597
G1 X125.774 Y92.474 E36.66265
G1 X126.258 Y93.355 E36.6894
G1 X126.946 Y94.089 E36.71617
G0 F1542.9 X126.112 Y92.34
G0 X125.885 Y91.457
G0 X125.885 Y90.543
G0 X126.112 Y89.66
G0 X126.552 Y88.859
G0 X127.178 Y88.192
G0 X127.948 Y87.703
G0 X128.651 Y87.475
G0 X129.732 Y87.304
G0 X129.726 Y87.403
G1 F900 X128.824 Y87.459 E36.74021
G1 X127.965 Y87.739 E36.76425
G1 X127.203 Y88.222 E36.78826
G1 X126.584 Y88.882 E36.81233
G1 X126.149 Y89.674 E36.83638
G1 X125.924 Y90.548 E36.86039
G1 X125.924 Y91.452 E36.88444
G1 X126.149 Y92.326 E36.90846
G1 X126.584 Y93.118 E36.9325
G1 X127.203 Y93.778 E36.95658
G1 X127.965 Y94.261 E36.98058
G1 X128.824 Y94.541 E37.00462
G1 X129.726 Y94.597 E37.02867
G1 X130.614 Y94.428 E37.05272
G1 X131.431 Y94.043 E37.07675
G1 X132.128 Y93.468 E37.1008
G1 X132.659 Y92.736 E37.12486
G1 X132.991 Y91.896 E37.14889
G1 X133.105 Y91 E37.17292
G1 X132.991 Y90.104 E37.19696
G1 X132.659 Y89.264 E37.22099
G1 X132.128 Y88.532 E37.24505
G1 X131.431 Y87.957 E37.2691
G1 X130.614 Y87.572 E37.29313
G1 X129.726 Y87.403 E37.31718
G0 F1542.9 X129.732 Y87.304
G0 X130.626 Y87.534
G0 X131.452 Y87.924
G0 X132.157 Y88.505
G0 X132.694 Y89.245
G0 X133.029 Y90.095
G0 X133.122 Y90.827
G0 X132.118 Y122.329
G0 X132.022 Y122.353
G1 F900 X131.784 Y121.745 E37.33455
G1 X131.399 Y121.217 E37.35194
G1 X130.896 Y120.801 E37.36931
G1 X130.304 Y120.523 E37.38671
G1 X129.665 Y120.401 E37.40402
G1 X129.012 Y120.441 E37.42143
G1 X128.39 Y120.643 E37.43883
G1 X127.839 Y120.993 E37.4562
G1 X127.393 Y121.468 E37.47353
G1 X127.078 Y122.042 E37.49096
G1 X126.916 Y122.674 E37.50832
G1 X126.916 Y123.326 E37.52566
G1 X127.078 Y123.958 E37.54302
G1 X127.393 Y124.532 E37.56045
G1 X127.839 Y125.007 E37.57778
G1 X128.39 Y125.357 E37.59515
G1 X129.012 Y125.559 E37.61255
G1 X129.665 Y125.599 E37.62996
G1 X130.307 Y125.476 E37.64735
G1 X130.896 Y125.199 E37.66467
G1 X131.399 Y124.783 E37.68204
G1 X131.784 Y124.255 E37.69943
G1 X132.022 Y123.647 E37.7168
G1 X132.105 Y123 E37.73416
G1 X132.022 Y122.353 E37.75151
G0 F1542.9 X132.118 Y122.329
G0 X131.819 Y121.726
G0 X131.428 Y121.19
G0 X94.13 Y92.448
G0 X90.65 Y90.652
G0 X90.564 Y90.702
G1 F900 X90.221 Y89.88 E37.77521
G1 X90.105 Y89 E37.79883
G1 X90.22 Y88.121 E37.82242
G1 X90.563 Y87.299 E37.84612
G1 X91.101 Y86.599 E37.86961
G1 X91.802 Y86.061 E37.89312
G1 X92.624 Y85.72 E37.9168
G1 X93.54 Y85.6 E37.94138
G1 X134.9 Y85.6 E39.04189
G1 X134.9 Y126.4 E40.1275
G1 X75.1 Y126.4 E41.71867
G1 X75.1 Y120.6 E41.873
G1 X84.252 Y120.6 E42.11651
G1 X84.252 Y101.4 E42.62739
G1 X75.1 Y101.4 E42.87091
G1 X75.1 Y95.6 E43.02523
G1 X94.098 Y95.6 E43.53074
G1 X94.1 Y92.474 E43.61391
G1 X92.625 Y92.28 E43.6535
G1 X91.802 Y91.939 E43.6772
G1 X91.102 Y91.402 E43.70068
G1 X90.564 Y90.702 E43.72417
G0 F1542.9 X90.65 Y90.652
G0 X90.889 Y89.707
G0 X90.985 Y89.681
G1 F900 X91.247 Y90.308 E43.74225
G1 X91.662 Y90.846 E43.76033
G1 X92.201 Y91.259 E43.7784
G1 X92.829 Y91.518 E43.79647
G1 X93.504 Y91.605 E43.81458
G1 X94.166 Y91.518 E43.83235
G1 X94.791 Y91.261 E43.85033
G1 X95.332 Y90.85 E43.8684
G1 X95.748 Y90.314 E43.88646
G1 X96.011 Y89.687 E43.90455
G1 X96.105 Y88.989 E43.92329
G1 X96.012 Y88.314 E43.94142
G1 X95.749 Y87.688 E43.95949
G1 X95.333 Y87.15 E43.97758
G1 X94.792 Y86.74 E43.99564
G1 X94.165 Y86.482 E44.01368
G1 X93.49 Y86.396 E44.03179
G1 X92.816 Y86.486 E44.04988
G1 X92.188 Y86.75 E44.06801
G1 X91.653 Y87.164 E44.08601
G1 X91.24 Y87.703 E44.10408
G1 X90.982 Y88.332 E44.12217
G1 X90.895 Y89.006 E44.14025
G1 X90.985 Y89.681 E44.15837
G0 F1542.9 X90.889 Y89.707
G0 X91.851 Y91.853
G0 X91.601 Y92.289
