;FLAVOR:Marlin
;TIME:2610
;Filament used: 2.88814m, 0m
;Layer height: 0.2
;POSTPROCESSED
;Generated with Cura_SteamEngine 3.4.1
T0
M190 S75
M104 S248
M109 S248
M82 ;absolute extrusion mode
; Printer start settings begin
M92 X160 Y160 Z1600; Steps per unit
M201 X1000 Y1000 Z50 E1500 E1500 ; Max Accelleration
M203 X800 Y800 Z2 E90 E90 ; Max Feed
M205 X3.0 Y3.0 Z0.3 E5.0 ; Default Jerk
G28
G0 X0 Y0 Z15 F1200
G92 E-35
G1 E0 F200 ;Home
G92 E5
G1 F1000 E0
G29 ;Auto Bed Level
G92 F400 E-5
G1 E0
G0 X0 Y0 Z15.0 F6000 ;Move the platform down 15mm
G92 E0
G1 F200 E3
G92 E0
G92 E0
G1 F1200 E-6.5
;LAYER_COUNT:71
;LAYER:0
M107
G0 F1542.9 X70.156 Y95.473 Z0.16
;TYPE:SKIRT
G1 F1200 E0
G1 F900 X70.604 Y95.172 E0.01436
G1 X72.319 Y94.155 E0.06741
G1 X76.886 Y91.207 E0.21205
G1 X81.24 Y88.036 E0.35537
G1 X85.406 Y84.623 E0.49867
G1 X89.378 Y80.978 E0.64211
G1 X93.124 Y77.125 E0.7851
G1 X96.656 Y73.055 E0.92849
G1 X99.991 Y68.743 E1.07354
G1 X102.563 Y65.184 E1.19037
G1 X102.957 Y64.706 E1.20686
G1 X103.511 Y64.202 E1.22679
G1 X104.55 Y63.396 E1.26177
G1 X105.063 Y63.049 E1.27825
G1 X105.634 Y62.763 E1.29525
G1 X106.82 Y62.265 E1.32947
G1 X107.405 Y62.063 E1.34594
G1 X108.109 Y61.925 E1.36503
G1 X109.7 Y61.735 E1.40766
G1 X110.272 Y61.701 E1.42291
G1 X132.037 Y61.713 E2.00204
G1 X132.661 Y61.754 E2.01867
G1 X133.891 Y61.916 E2.05169
G1 X134.498 Y62.036 E2.06815
G1 X135.08 Y62.232 E2.08449
G1 X136.291 Y62.727 E2.1193
G1 X136.848 Y62.998 E2.13578
G1 X137.377 Y63.347 E2.15264
G1 X138.406 Y64.128 E2.18702
G1 X138.874 Y64.533 E2.20349
G1 X139.297 Y65.009 E2.22043
G1 X140.096 Y66.039 E2.25511
G1 X140.443 Y66.552 E2.27159
G1 X140.724 Y67.112 E2.28827
G1 X141.23 Y68.309 E2.32284
G1 X141.434 Y68.894 E2.33933
G1 X141.579 Y69.646 E2.35971
G1 X141.77 Y71.36 E2.4056
G1 X141.8 Y71.894 E2.41983
G1 X141.79 Y97.5 E3.10115
G1 X141.782 Y97.767 E3.10826
G1 X141.638 Y100.338 E3.17678
G1 X141.561 Y105.797 E3.32205
G1 X141.796 Y111.637 E3.47756
G1 X141.8 Y111.836 E3.48286
G1 X141.767 Y138.744 E4.19883
G1 X141.722 Y139.397 E4.21625
G1 X141.58 Y140.422 E4.24378
G1 X141.455 Y141.028 E4.26025
G1 X141.268 Y141.58 E4.27575
G1 X140.772 Y142.793 E4.31062
G1 X140.501 Y143.35 E4.3271
G1 X140.152 Y143.878 E4.34394
G1 X139.371 Y144.907 E4.37832
G1 X138.966 Y145.375 E4.39479
G1 X138.488 Y145.799 E4.41179
G1 X137.448 Y146.605 E4.4468
G1 X136.935 Y146.952 E4.46328
G1 X136.366 Y147.237 E4.48021
G1 X135.18 Y147.735 E4.51444
G1 X134.595 Y147.937 E4.5309
G1 X133.975 Y148.064 E4.54774
G1 X132.649 Y148.246 E4.58336
G1 X131.998 Y148.291 E4.60072
G1 X110.71 Y148.3 E5.16715
G1 X110.284 Y148.281 E5.1785
G1 X108.312 Y148.106 E5.23118
G1 X107.7 Y148.012 E5.24765
G1 X106.918 Y147.767 E5.26946
G1 X105.706 Y147.271 E5.3043
G1 X105.149 Y147 E5.32078
G1 X104.622 Y146.652 E5.33759
G1 X103.593 Y145.871 E5.37196
G1 X103.125 Y145.466 E5.38843
G1 X102.583 Y144.83 E5.41066
G1 X98.324 Y138.842 E5.60618
G1 X94.976 Y134.597 E5.75004
G1 X91.406 Y130.565 E5.89333
G1 X87.587 Y126.713 E6.03766
G1 X85.668 Y124.938 E6.10721
G1 X81.539 Y121.425 E6.25146
G1 X77.279 Y118.199 E6.39365
G1 X70.326 Y113.63 E6.61502
G1 X69.832 Y113.257 E6.63149
G1 X69.524 Y112.968 E6.64273
G1 X69.372 Y112.812 E6.64853
G1 X68.969 Y112.341 E6.66502
G1 X68.631 Y111.823 E6.68148
G1 X68.361 Y111.265 E6.69797
G1 X68.166 Y110.677 E6.71446
G1 X68.049 Y110.069 E6.73093
G1 X68.01 Y109.462 E6.74712
G1 X68.01 Y99.539 E7.01115
G1 X68.05 Y98.921 E7.02763
G1 X68.169 Y98.313 E7.04411
G1 X68.366 Y97.726 E7.06059
G1 X68.636 Y97.169 E7.07706
G1 X68.976 Y96.651 E7.09354
G1 X69.444 Y96.117 E7.11244
G1 X69.687 Y95.878 E7.12151
G1 X70.156 Y95.473 E7.13799
G0 F1542.9 X70.417 Y95.777
G1 F900 X70.808 Y95.516 E7.1505
G1 X72.531 Y94.494 E7.20381
G1 X77.105 Y91.542 E7.34866
G1 X81.493 Y88.346 E7.4931
G1 X85.676 Y84.919 E7.63699
G1 X89.643 Y81.277 E7.78028
G1 X93.422 Y77.392 E7.92449
G1 X96.959 Y73.317 E8.06806
G1 X100.319 Y68.971 E8.21423
G1 X102.887 Y65.418 E8.33088
G1 X103.266 Y64.962 E8.34666
G1 X103.756 Y64.518 E8.36425
G1 X104.795 Y63.712 E8.39924
G1 X105.287 Y63.381 E8.41502
G1 X105.789 Y63.132 E8.42993
G1 X106.975 Y62.634 E8.46415
G1 X107.535 Y62.442 E8.47991
G1 X108.156 Y62.322 E8.49673
G1 X109.747 Y62.132 E8.53937
G1 X110.271 Y62.101 E8.55334
G1 X132.036 Y62.113 E9.13246
G1 X132.609 Y62.151 E9.14774
G1 X133.839 Y62.313 E9.18075
G1 X134.42 Y62.43 E9.19652
G1 X134.929 Y62.602 E9.21082
G1 X136.14 Y63.097 E9.24563
G1 X136.672 Y63.358 E9.2614
G1 X137.135 Y63.665 E9.27618
G1 X138.164 Y64.446 E9.31055
G1 X138.611 Y64.836 E9.32633
G1 X138.981 Y65.254 E9.34119
G1 X139.78 Y66.284 E9.37587
G1 X140.111 Y66.776 E9.39165
G1 X140.356 Y67.268 E9.40628
G1 X140.862 Y68.465 E9.44085
G1 X141.055 Y69.025 E9.45662
G1 X141.182 Y69.691 E9.47466
G1 X141.373 Y71.405 E9.52054
G1 X141.4 Y71.894 E9.53358
G1 X141.39 Y97.5 E10.2149
G1 X141.383 Y97.744 E10.2214
G1 X141.238 Y100.333 E10.29039
G1 X141.16 Y105.808 E10.43609
G1 X141.396 Y111.653 E10.59174
G1 X141.4 Y111.835 E10.59658
G1 X141.367 Y138.743 E11.31255
G1 X141.325 Y139.342 E11.32853
G1 X141.183 Y140.367 E11.35607
G1 X141.063 Y140.947 E11.37183
G1 X140.898 Y141.428 E11.38536
G1 X140.402 Y142.641 E11.42023
G1 X140.141 Y143.174 E11.43602
G1 X139.834 Y143.636 E11.45078
G1 X139.053 Y144.665 E11.48515
G1 X138.663 Y145.112 E11.50093
G1 X138.243 Y145.483 E11.51584
G1 X137.203 Y146.289 E11.55085
G1 X136.711 Y146.62 E11.56663
G1 X136.211 Y146.868 E11.58148
G1 X135.025 Y147.366 E11.61571
G1 X134.465 Y147.558 E11.63146
G1 X133.92 Y147.668 E11.64626
G1 X132.594 Y147.85 E11.68187
G1 X131.998 Y147.891 E11.69776
G1 X110.71 Y147.9 E12.2642
G1 X110.319 Y147.883 E12.27461
G1 X108.347 Y147.708 E12.32729
G1 X107.761 Y147.616 E12.34307
G1 X107.069 Y147.397 E12.36239
G1 X105.857 Y146.901 E12.39723
G1 X105.325 Y146.64 E12.413
G1 X104.864 Y146.334 E12.42772
G1 X103.835 Y145.553 E12.46209
G1 X103.388 Y145.163 E12.47788
G1 X102.909 Y144.598 E12.49759
G1 X98.644 Y138.602 E12.69337
G1 X95.281 Y134.338 E12.83787
G1 X91.699 Y130.292 E12.98166
G1 X87.871 Y126.432 E13.1263
G1 X85.929 Y124.634 E13.19672
G1 X81.805 Y121.126 E13.34079
G1 X77.488 Y117.856 E13.48489
G1 X70.546 Y113.295 E13.7059
G1 X70.073 Y112.937 E13.72168
G1 X69.811 Y112.689 E13.73128
G1 X69.659 Y112.533 E13.73708
G1 X69.274 Y112.081 E13.75288
G1 X68.954 Y111.582 E13.76865
G1 X68.704 Y111.044 E13.78444
G1 X68.529 Y110.478 E13.8002
G1 X68.431 Y109.893 E13.81598
G1 X68.41 Y109.462 E13.82746
G1 X68.41 Y99.539 E14.0915
G1 X68.45 Y98.947 E14.10728
G1 X68.569 Y98.367 E14.12304
G1 X68.765 Y97.807 E14.13882
G1 X69.035 Y97.279 E14.1546
G1 X69.373 Y96.792 E14.17038
G1 X69.725 Y96.402 E14.18436
G1 X69.968 Y96.163 E14.19343
G1 X70.417 Y95.777 E14.20918
G0 F1542.9 X70.678 Y96.081
G1 F900 X71.012 Y95.86 E14.21984
G1 X72.742 Y94.834 E14.27336
G1 X77.344 Y91.864 E14.41909
G1 X81.728 Y88.671 E14.5634
G1 X85.925 Y85.232 E14.70778
G1 X89.927 Y81.559 E14.85231
G1 X93.719 Y77.659 E14.99705
G1 X97.278 Y73.559 E15.14151
G1 X100.622 Y69.235 E15.28696
G1 X103.211 Y65.652 E15.40458
G1 X103.574 Y65.218 E15.41963
G1 X104.001 Y64.834 E15.43491
G1 X105.04 Y64.028 E15.4699
G1 X105.51 Y63.714 E15.48494
G1 X105.943 Y63.501 E15.49778
G1 X107.129 Y63.003 E15.53201
G1 X107.665 Y62.821 E15.54707
G1 X108.204 Y62.719 E15.56167
G1 X109.795 Y62.529 E15.6043
G1 X110.271 Y62.501 E15.61699
G1 X132.036 Y62.513 E16.19611
G1 X132.556 Y62.547 E16.20998
G1 X133.786 Y62.709 E16.24299
G1 X134.34 Y62.822 E16.25804
G1 X134.777 Y62.972 E16.27033
G1 X135.988 Y63.467 E16.30514
G1 X136.495 Y63.718 E16.32019
G1 X136.893 Y63.984 E16.33293
G1 X137.922 Y64.765 E16.3673
G1 X138.347 Y65.138 E16.38235
G1 X138.665 Y65.499 E16.39515
G1 X139.464 Y66.529 E16.42983
G1 X139.778 Y66.999 E16.44487
G1 X139.987 Y67.424 E16.45748
G1 X140.493 Y68.621 E16.49206
G1 X140.676 Y69.156 E16.5071
G1 X140.784 Y69.735 E16.52277
G1 X140.975 Y71.449 E16.56866
G1 X141 Y71.894 E16.58052
G1 X140.99 Y97.5 E17.26185
G1 X140.984 Y97.722 E17.26776
G1 X140.838 Y100.329 E17.33723
G1 X140.761 Y105.8 E17.48282
G1 X140.997 Y111.669 E17.63911
G1 X141 Y111.835 E17.64353
G1 X140.967 Y138.743 E18.3595
G1 X140.929 Y139.287 E18.37401
G1 X140.787 Y140.312 E18.40154
G1 X140.67 Y140.865 E18.41658
G1 X140.527 Y141.277 E18.42819
G1 X140.031 Y142.49 E18.46306
G1 X139.781 Y142.997 E18.4781
G1 X139.515 Y143.394 E18.49081
G1 X138.734 Y144.423 E18.52519
G1 X138.361 Y144.848 E18.54023
G1 X137.998 Y145.167 E18.55309
G1 X136.958 Y145.973 E18.5881
G1 X136.488 Y146.287 E18.60314
G1 X136.057 Y146.499 E18.61592
G1 X134.871 Y146.997 E18.65015
G1 X134.335 Y147.179 E18.66521
G1 X133.866 Y147.272 E18.67793
G1 X132.54 Y147.454 E18.71354
G1 X131.998 Y147.491 E18.728
G1 X110.71 Y147.5 E19.29443
G1 X110.354 Y147.484 E19.30391
G1 X108.382 Y147.309 E19.35659
G1 X107.824 Y147.22 E19.37163
G1 X107.221 Y147.027 E19.38847
G1 X106.009 Y146.531 E19.42332
G1 X105.502 Y146.28 E19.43837
G1 X105.106 Y146.015 E19.45105
G1 X104.077 Y145.234 E19.48542
G1 X103.652 Y144.861 E19.50047
G1 X103.235 Y144.366 E19.51769
G1 X98.965 Y138.362 E19.71373
G1 X95.595 Y134.09 E19.85851
G1 X91.983 Y130.01 E20.0035
G1 X88.156 Y126.151 E20.14811
G1 X86.201 Y124.342 E20.21898
G1 X82.041 Y120.802 E20.36432
G1 X77.731 Y117.538 E20.50818
G1 X70.765 Y112.961 E20.72996
G1 X70.316 Y112.618 E20.745
G1 X70.097 Y112.409 E20.75305
G1 X69.945 Y112.253 E20.75885
G1 X69.58 Y111.822 E20.77387
G1 X69.28 Y111.343 E20.78891
G1 X69.05 Y110.826 E20.80397
G1 X68.895 Y110.283 E20.81899
G1 X68.81 Y109.462 E20.84096
G1 X68.81 Y99.539 E21.10499
G1 X68.85 Y98.975 E21.12003
G1 X68.969 Y98.422 E21.13508
G1 X69.165 Y97.892 E21.15012
G1 X69.433 Y97.395 E21.16514
G1 X69.769 Y96.94 E21.18019
G1 X70.005 Y96.687 E21.1894
G1 X70.248 Y96.448 E21.19847
G1 X70.678 Y96.081 E21.21351
G0 F1542.9 X70.938 Y96.387
G1 F900 X71.217 Y96.204 E21.22239
G1 X72.942 Y95.181 E21.27575
G1 X77.562 Y92.199 E21.42207
G1 X81.98 Y88.981 E21.5675
G1 X86.196 Y85.528 E21.7125
G1 X90.202 Y81.85 E21.85721
G1 X94.008 Y77.936 E22.00247
G1 X97.588 Y73.812 E22.14778
G1 X100.938 Y69.479 E22.29351
G1 X103.535 Y65.886 E22.41147
G1 X103.881 Y65.476 E22.42575
G1 X104.246 Y65.151 E22.43875
G1 X105.285 Y64.345 E22.47374
G1 X105.732 Y64.048 E22.48802
G1 X106.098 Y63.87 E22.49885
G1 X107.284 Y63.372 E22.53308
G1 X107.793 Y63.202 E22.54736
G1 X108.251 Y63.116 E22.55976
G1 X109.842 Y62.926 E22.60239
G1 X110.271 Y62.901 E22.61382
G1 X132.036 Y62.913 E23.19295
G1 X132.504 Y62.944 E23.20543
G1 X133.734 Y63.106 E23.23844
G1 X134.259 Y63.215 E23.25271
G1 X134.626 Y63.343 E23.26305
G1 X135.837 Y63.838 E23.29786
G1 X136.317 Y64.077 E23.31213
G1 X136.651 Y64.302 E23.32284
G1 X137.68 Y65.083 E23.35722
G1 X138.082 Y65.439 E23.3715
G1 X138.348 Y65.744 E23.38227
G1 X139.147 Y66.774 E23.41696
G1 X139.444 Y67.221 E23.43124
G1 X139.619 Y67.579 E23.44184
G1 X140.125 Y68.776 E23.47642
G1 X140.296 Y69.284 E23.49068
G1 X140.387 Y69.779 E23.50407
G1 X140.578 Y71.493 E23.54996
G1 X140.6 Y71.893 E23.56062
G1 X140.59 Y97.499 E24.24195
G1 X140.584 Y97.699 E24.24727
G1 X140.438 Y100.3 E24.31659
G1 X140.36 Y105.81 E24.46321
G1 X140.597 Y111.685 E24.61966
G1 X140.6 Y111.834 E24.62363
G1 X140.567 Y138.742 E25.3396
G1 X140.533 Y139.232 E25.35267
G1 X140.391 Y140.257 E25.3802
G1 X140.278 Y140.781 E25.39447
G1 X140.157 Y141.126 E25.4042
G1 X139.661 Y142.339 E25.43906
G1 X139.422 Y142.818 E25.45331
G1 X139.197 Y143.152 E25.46402
G1 X138.416 Y144.181 E25.4984
G1 X138.06 Y144.583 E25.51268
G1 X137.753 Y144.85 E25.52351
G1 X136.713 Y145.656 E25.55852
G1 X136.266 Y145.953 E25.5728
G1 X135.902 Y146.13 E25.58357
G1 X134.716 Y146.628 E25.6178
G1 X134.207 Y146.798 E25.63208
G1 X133.812 Y146.876 E25.64279
G1 X132.486 Y147.058 E25.6784
G1 X131.998 Y147.091 E25.69142
G1 X110.71 Y147.1 E26.25785
G1 X110.39 Y147.086 E26.26637
G1 X108.418 Y146.911 E26.31905
G1 X107.889 Y146.824 E26.33331
G1 X107.372 Y146.657 E26.34777
G1 X106.16 Y146.161 E26.38262
G1 X105.681 Y145.921 E26.39687
G1 X105.348 Y145.697 E26.40755
G1 X104.319 Y144.916 E26.44192
G1 X103.917 Y144.56 E26.45621
G1 X103.561 Y144.134 E26.47098
G1 X99.292 Y138.132 E26.66696
G1 X95.893 Y133.823 E26.81299
G1 X92.284 Y129.746 E26.95787
G1 X88.417 Y125.847 E27.10399
G1 X86.474 Y124.048 E27.17444
G1 X82.296 Y120.494 E27.32039
G1 X77.96 Y117.21 E27.46512
G1 X70.985 Y112.627 E27.68719
G1 X70.384 Y112.13 E27.70794
G1 X70.232 Y111.974 E27.71374
G1 X69.887 Y111.563 E27.72802
G1 X69.607 Y111.106 E27.74228
G1 X69.399 Y110.612 E27.75654
G1 X69.266 Y110.092 E27.77082
G1 X69.21 Y109.462 E27.78765
G1 X69.21 Y99.539 E28.05168
G1 X69.25 Y99.004 E28.06596
G1 X69.369 Y98.481 E28.08023
G1 X69.564 Y97.982 E28.09448
G1 X69.832 Y97.517 E28.10876
G1 X70.286 Y96.972 E28.12764
G1 X70.529 Y96.733 E28.13671
G1 X70.938 Y96.387 E28.15096
G0 F1542.9 X71.196 Y96.694
G1 F900 X71.421 Y96.548 E28.1581
G1 X73.154 Y95.52 E28.21171
G1 X77.789 Y92.529 E28.35849
G1 X82.226 Y89.297 E28.50455
G1 X86.455 Y85.833 E28.65001
G1 X90.485 Y82.133 E28.79558
G1 X94.298 Y78.212 E28.94111
G1 X97.899 Y74.063 E29.08728
G1 X101.263 Y69.713 E29.2336
G1 X103.859 Y66.121 E29.35153
G1 X104.187 Y65.736 E29.36498
G1 X104.492 Y65.467 E29.3758
G1 X105.531 Y64.661 E29.41079
G1 X105.953 Y64.383 E29.42424
G1 X106.253 Y64.239 E29.43309
G1 X107.439 Y63.741 E29.46732
G1 X107.919 Y63.582 E29.48077
G1 X108.299 Y63.514 E29.49105
G1 X109.89 Y63.324 E29.53368
G1 X110.271 Y63.301 E29.54384
G1 X132.036 Y63.313 E30.12296
G1 X132.452 Y63.34 E30.13405
G1 X133.682 Y63.502 E30.16707
G1 X134.176 Y63.608 E30.18051
G1 X134.475 Y63.713 E30.18894
G1 X135.686 Y64.208 E30.22375
G1 X136.137 Y64.436 E30.2372
G1 X136.41 Y64.621 E30.24597
G1 X137.439 Y65.402 E30.28035
G1 X137.816 Y65.739 E30.2938
G1 X138.032 Y65.99 E30.30261
G1 X138.831 Y67.02 E30.3373
G1 X139.109 Y67.442 E30.35074
G1 X139.25 Y67.735 E30.3594
G1 X139.756 Y68.932 E30.39397
G1 X139.916 Y69.412 E30.40744
G1 X139.989 Y69.824 E30.41857
G1 X140.18 Y71.538 E30.46446
G1 X140.2 Y71.893 E30.47392
G1 X140.19 Y97.499 E31.15525
G1 X140.185 Y97.677 E31.15998
G1 X140.038 Y100.297 E31.22981
G1 X139.96 Y105.82 E31.37678
G1 X140.197 Y111.701 E31.53339
G1 X140.2 Y111.834 E31.53693
G1 X140.167 Y138.742 E32.2529
G1 X140.137 Y139.177 E32.2645
G1 X139.995 Y140.202 E32.29204
G1 X139.886 Y140.696 E32.3055
G1 X139.787 Y140.974 E32.31335
G1 X139.291 Y142.187 E32.34822
G1 X139.063 Y142.639 E32.36169
G1 X138.878 Y142.911 E32.37044
G1 X138.097 Y143.94 E32.40481
G1 X137.76 Y144.317 E32.41827
G1 X137.508 Y144.534 E32.42712
G1 X136.468 Y145.34 E32.46213
G1 X136.045 Y145.617 E32.47558
G1 X135.747 Y145.761 E32.48439
G1 X134.561 Y146.259 E32.51861
G1 X134.081 Y146.418 E32.53207
G1 X133.757 Y146.479 E32.54084
G1 X132.431 Y146.661 E32.57645
G1 X131.997 Y146.691 E32.58803
G1 X110.709 Y146.7 E33.15446
G1 X110.425 Y146.687 E33.16203
G1 X108.453 Y146.512 E33.2147
G1 X107.955 Y146.428 E33.22814
G1 X107.524 Y146.287 E33.24021
G1 X106.312 Y145.791 E33.27505
G1 X105.861 Y145.563 E33.2885
G1 X105.589 Y145.378 E33.29725
G1 X104.56 Y144.597 E33.33163
G1 X104.183 Y144.26 E33.34508
G1 X103.887 Y143.903 E33.35742
G1 X99.596 Y137.87 E33.55441
G1 X96.209 Y133.575 E33.69995
G1 X92.575 Y129.472 E33.84579
G1 X88.714 Y125.577 E33.99172
G1 X86.721 Y123.733 E34.06396
G1 X82.543 Y120.179 E34.20991
G1 X78.187 Y116.88 E34.35531
G1 X71.205 Y112.292 E34.5776
G1 X70.67 Y111.851 E34.59605
G1 X70.518 Y111.695 E34.60185
G1 X70.195 Y111.306 E34.6153
G1 X69.937 Y110.871 E34.62876
G1 X69.751 Y110.401 E34.64221
G1 X69.641 Y109.908 E34.65565
G1 X69.61 Y109.462 E34.66754
G1 X69.61 Y99.539 E34.93158
G1 X69.65 Y99.035 E34.94503
G1 X69.769 Y98.544 E34.95847
G1 X69.963 Y98.077 E34.97193
G1 X70.229 Y97.647 E34.98538
G1 X70.566 Y97.258 E34.99908
G1 X70.809 Y97.019 E35.00814
G1 X71.196 Y96.694 E35.02159
G0 F1542.9 X73.116 Y99.5
;TYPE:SUPPORT
G1 F900 X104 Y99.5 E35.84336
G1 X104 Y109.5 E36.10944
G1 X73.116 Y109.5 E36.9312
G1 X73 Y109.384 E36.93557
G1 X73 Y99.616 E37.19548
G1 X73.116 Y99.5 E37.19984
G0 F1542.9 X73.16 Y100
G1 F900 X103.84 Y100 E38.01618
G0 F1542.9 X102 Y99.66
G1 F900 X102 Y109.34 E38.27374
G0 F1542.9 X100 Y109.34
G1 F900 X100 Y99.66 E38.53131
G0 F1542.9 X98 Y99.66
G1 F900 X98 Y109.34 E38.78888
G0 F1542.9 X96 Y109.34
G1 F900 X96 Y99.66 E39.04644
G0 F1542.9 X94 Y99.66
