;FLAVOR:Marlin
;TIME:5913
;Filament used: 8.49144m, 0m
;Layer height: 0.2
;POSTPROCESSED
;Generated with Cura_SteamEngine 3.4.1
T0
M190 S75
M104 S248
M109 S248
M82 ;absolute extrusion mode
; Printer start settings begin
M92 X160 Y160 Z1600; Steps per unit
M201 X1000 Y1000 Z50 E1500 E1500 ; Max Accelleration
M203 X800 Y800 Z2 E90 E90 ; Max Feed
M205 X3.0 Y3.0 Z0.3 E5.0 ; Default Jerk
G28
G0 X0 Y0 Z15 F1200
G92 E-35
G1 E0 F200 ;Home
G92 E5
G1 F1000 E0
G29 ;Auto Bed Level
G92 F400 E-5
G1 E0
G0 X0 Y0 Z15.0 F6000 ;Move the platform down 15mm
G92 E0
G1 F200 E3
G92 E0
G92 E0
G1 F1200 E-6.5
;LAYER_COUNT:106
;LAYER:0
M107
G0 F1542.9 X76.079 Y69.151 Z0.16
;TYPE:SKIRT
G1 F1200 E0
G1 F900 X76.54 Y68.738 E0.01647
G1 X77.05 Y68.387 E0.03294
G1 X77.601 Y68.104 E0.04942
G1 X78.184 Y67.895 E0.0659
G1 X78.789 Y67.763 E0.08238
G1 X79.509 Y67.709 E0.10159
G1 X121.49 Y67.71 E1.21863
G1 X122.108 Y67.75 E1.2351
G1 X122.716 Y67.869 E1.25159
G1 X123.303 Y68.066 E1.26806
G1 X123.86 Y68.336 E1.28453
G1 X124.378 Y68.676 E1.30102
G1 X124.848 Y69.08 E1.31751
G1 X125.262 Y69.541 E1.334
G1 X125.612 Y70.051 E1.35046
G1 X125.895 Y70.603 E1.36696
G1 X126.104 Y71.186 E1.38344
G1 X126.247 Y71.872 E1.40209
G1 X126.53 Y73.983 E1.45876
G1 X127.458 Y79.349 E1.60366
G1 X128.674 Y84.599 E1.74705
G1 X129.38 Y87.151 E1.8175
G1 X131.045 Y92.301 E1.96152
G1 X133.001 Y97.357 E2.10577
G1 X134.872 Y101.543 E2.22777
G1 X135.088 Y102.123 E2.24424
G1 X135.227 Y102.727 E2.26073
G1 X135.29 Y103.501 E2.28139
G1 X135.291 Y137.491 E3.1858
G1 X135.251 Y138.109 E3.20228
G1 X135.132 Y138.717 E3.21876
G1 X134.935 Y139.304 E3.23524
G1 X134.665 Y139.861 E3.25171
G1 X134.325 Y140.379 E3.26819
G1 X133.921 Y140.849 E3.28468
G1 X133.46 Y141.262 E3.30115
G1 X132.95 Y141.613 E3.31763
G1 X132.399 Y141.896 E3.33411
G1 X131.816 Y142.105 E3.35059
G1 X131.211 Y142.237 E3.36706
G1 X130.491 Y142.291 E3.38628
G1 X95.506 Y142.29 E4.31716
G1 X94.888 Y142.25 E4.33364
G1 X94.28 Y142.131 E4.35012
G1 X93.693 Y141.934 E4.3666
G1 X93.136 Y141.664 E4.38307
G1 X92.618 Y141.324 E4.39956
G1 X92.148 Y140.92 E4.41605
G1 X91.734 Y140.459 E4.43253
G1 X91.283 Y139.772 E4.4544
G1 X88.826 Y135.225 E4.59192
G1 X86.01 Y130.619 E4.73557
G1 X82.948 Y126.19 E4.87884
G1 X79.645 Y121.949 E5.02187
G1 X75.894 Y117.653 E5.17362
G1 X75.518 Y117.161 E5.19009
G1 X75.208 Y116.625 E5.20657
G1 X74.97 Y116.053 E5.22305
G1 X74.807 Y115.456 E5.23952
G1 X74.723 Y114.842 E5.25601
G1 X74.71 Y114.496 E5.26522
G1 X74.709 Y72.509 E6.38242
G1 X74.749 Y71.891 E6.3989
G1 X74.868 Y71.283 E6.41538
G1 X75.065 Y70.696 E6.43186
G1 X75.335 Y70.139 E6.44833
G1 X75.675 Y69.621 E6.46481
G1 X76.079 Y69.151 E6.4813
G0 F1542.9 X76.473 Y69.325
G1 F900 X76.928 Y68.945 E6.49708
G1 X77.431 Y68.631 E6.51286
G1 X77.971 Y68.386 E6.52863
G1 X78.539 Y68.217 E6.5444
G1 X79.125 Y68.126 E6.56018
G1 X79.509 Y68.109 E6.57041
G1 X121.49 Y68.11 E7.68744
G1 X122.082 Y68.15 E7.70323
G1 X122.663 Y68.269 E7.71901
G1 X123.222 Y68.465 E7.73477
G1 X123.75 Y68.735 E7.75055
G1 X124.237 Y69.073 E7.76633
G1 X124.674 Y69.474 E7.78211
G1 X125.054 Y69.929 E7.79788
G1 X125.368 Y70.432 E7.81366
G1 X125.613 Y70.972 E7.82944
G1 X125.782 Y71.541 E7.84523
G1 X125.851 Y71.925 E7.85561
G1 X126.136 Y74.051 E7.91269
G1 X127.067 Y79.436 E8.0581
G1 X128.282 Y84.682 E8.20138
G1 X128.996 Y87.262 E8.27261
G1 X130.671 Y92.441 E8.41744
G1 X132.631 Y97.509 E8.56202
G1 X134.507 Y101.706 E8.68434
G1 X134.712 Y102.262 E8.70011
G1 X134.84 Y102.841 E8.71589
G1 X134.89 Y103.501 E8.7335
G1 X134.891 Y137.491 E9.63791
G1 X134.851 Y138.082 E9.65367
G1 X134.732 Y138.663 E9.66945
G1 X134.536 Y139.223 E9.68524
G1 X134.266 Y139.751 E9.70102
G1 X133.928 Y140.238 E9.71679
G1 X133.527 Y140.675 E9.73257
G1 X133.072 Y141.055 E9.74835
G1 X132.569 Y141.369 E9.76412
G1 X132.029 Y141.614 E9.7799
G1 X131.461 Y141.783 E9.79567
G1 X130.875 Y141.874 E9.81145
G1 X130.491 Y141.891 E9.82168
G1 X95.506 Y141.89 E10.75256
G1 X94.914 Y141.85 E10.76835
G1 X94.333 Y141.731 E10.78413
G1 X93.774 Y141.535 E10.79989
G1 X93.246 Y141.265 E10.81567
G1 X92.759 Y140.927 E10.83144
G1 X92.321 Y140.526 E10.84725
G1 X91.942 Y140.071 E10.863
G1 X91.635 Y139.582 E10.87837
G1 X89.17 Y135.021 E11.01631
G1 X86.351 Y130.409 E11.16014
G1 X83.27 Y125.954 E11.30427
G1 X79.945 Y121.684 E11.44827
G1 X76.196 Y117.39 E11.59994
G1 X75.837 Y116.918 E11.61572
G1 X75.544 Y116.402 E11.63151
G1 X75.324 Y115.852 E11.64727
G1 X75.18 Y115.277 E11.66304
G1 X75.11 Y114.496 E11.68391
G1 X75.109 Y72.509 E12.8011
G1 X75.149 Y71.917 E12.81689
G1 X75.268 Y71.337 E12.83264
G1 X75.464 Y70.777 E12.84843
G1 X75.734 Y70.249 E12.86421
G1 X76.072 Y69.762 E12.87998
G1 X76.473 Y69.325 E12.89576
G0 F1542.9 X76.468 Y69.91
G1 F900 X76.865 Y69.507 E12.91082
G1 X77.315 Y69.165 E12.92585
G1 X77.808 Y68.889 E12.94089
G1 X78.335 Y68.685 E12.95592
G1 X78.886 Y68.558 E12.97097
G1 X79.509 Y68.509 E12.9876
G1 X121.49 Y68.51 E14.10463
G1 X122.054 Y68.55 E14.11968
G1 X122.607 Y68.669 E14.13473
G1 X123.137 Y68.865 E14.14976
G1 X123.634 Y69.133 E14.16479
G1 X124.089 Y69.469 E14.17984
G1 X124.492 Y69.866 E14.19489
G1 X124.834 Y70.316 E14.20993
G1 X125.11 Y70.809 E14.22496
G1 X125.314 Y71.337 E14.24003
G1 X125.454 Y71.978 E14.25748
G1 X125.738 Y74.094 E14.31429
G1 X126.673 Y79.506 E14.46043
G1 X127.901 Y84.804 E14.60513
G1 X128.615 Y87.386 E14.67641
G1 X130.295 Y92.583 E14.82174
G1 X132.251 Y97.638 E14.96596
G1 X134.142 Y101.869 E15.08928
G1 X134.336 Y102.4 E15.10432
G1 X134.452 Y102.953 E15.11935
G1 X134.49 Y103.501 E15.13397
G1 X134.491 Y137.491 E16.03838
G1 X134.451 Y138.055 E16.05342
G1 X134.332 Y138.607 E16.06845
G1 X134.136 Y139.138 E16.08351
G1 X133.868 Y139.635 E16.09853
G1 X133.532 Y140.09 E16.11358
G1 X133.135 Y140.493 E16.12864
G1 X132.685 Y140.835 E16.14368
G1 X132.192 Y141.111 E16.15871
G1 X131.665 Y141.315 E16.17375
G1 X131.114 Y141.442 E16.18879
G1 X130.491 Y141.491 E16.20542
G1 X95.506 Y141.49 E17.1363
G1 X94.942 Y141.45 E17.15135
G1 X94.389 Y141.331 E17.1664
G1 X93.859 Y141.135 E17.18143
G1 X93.362 Y140.867 E17.19646
G1 X92.907 Y140.531 E17.21151
G1 X92.504 Y140.134 E17.22656
G1 X92.161 Y139.684 E17.24162
G1 X91.987 Y139.392 E17.25066
G1 X89.517 Y134.822 E17.38888
G1 X86.684 Y130.186 E17.53345
G1 X83.591 Y125.715 E17.67811
G1 X80.263 Y121.439 E17.82228
G1 X76.497 Y117.127 E17.97461
G1 X76.156 Y116.676 E17.98966
G1 X75.882 Y116.181 E18.00471
G1 X75.681 Y115.653 E18.01974
G1 X75.556 Y115.102 E18.03478
G1 X75.51 Y114.496 E18.05095
G1 X75.509 Y72.509 E19.16814
G1 X75.549 Y71.945 E19.18319
G1 X75.668 Y71.393 E19.19821
G1 X75.864 Y70.862 E19.21327
G1 X76.132 Y70.365 E19.2283
G1 X76.468 Y69.91 E19.24335
G0 F1542.9 X76.864 Y70.067
G1 F900 X77.256 Y69.701 E19.25762
G1 X77.698 Y69.398 E19.27188
G1 X78.18 Y69.163 E19.28615
G1 X78.692 Y69.003 E19.30042
G1 X79.222 Y68.92 E19.31469
G1 X79.509 Y68.909 E19.32234
G1 X121.49 Y68.91 E20.43937
G1 X122.025 Y68.95 E20.45365
G1 X122.548 Y69.069 E20.46792
G1 X123.047 Y69.264 E20.48217
G1 X123.512 Y69.532 E20.49645
G1 X123.932 Y69.865 E20.51071
G1 X124.298 Y70.257 E20.52498
G1 X124.601 Y70.699 E20.53924
G1 X124.836 Y71.182 E20.55354
G1 X124.996 Y71.693 E20.56778
G1 X125.058 Y72.031 E20.57693
G1 X125.348 Y74.188 E20.63484
G1 X126.278 Y79.575 E20.7803
G1 X127.509 Y84.887 E20.92538
G1 X128.237 Y87.518 E20.99802
G1 X129.915 Y92.708 E21.14315
G1 X131.881 Y97.79 E21.28814
G1 X133.777 Y102.032 E21.41178
G1 X133.958 Y102.537 E21.42605
G1 X134.063 Y103.063 E21.44032
G1 X134.09 Y103.501 E21.452
G1 X134.091 Y137.491 E22.35641
G1 X134.051 Y138.026 E22.37068
G1 X133.932 Y138.549 E22.38495
G1 X133.737 Y139.048 E22.39921
G1 X133.47 Y139.513 E22.41348
G1 X133.136 Y139.933 E22.42775
G1 X132.744 Y140.299 E22.44202
G1 X132.302 Y140.602 E22.45628
G1 X131.82 Y140.837 E22.47055
G1 X131.308 Y140.997 E22.48483
G1 X130.778 Y141.08 E22.4991
G1 X130.491 Y141.091 E22.50674
G1 X95.506 Y141.09 E23.43763
G1 X94.971 Y141.05 E23.4519
G1 X94.448 Y140.931 E23.46617
G1 X93.949 Y140.736 E23.48043
G1 X93.484 Y140.468 E23.49471
G1 X93.064 Y140.135 E23.50897
G1 X92.698 Y139.743 E23.52324
G1 X92.339 Y139.202 E23.54052
G1 X89.865 Y134.624 E23.67898
G1 X87.021 Y129.971 E23.82408
G1 X83.92 Y125.487 E23.96914
G1 X80.563 Y121.176 E24.11453
G1 X76.798 Y116.864 E24.26684
G1 X76.477 Y116.435 E24.2811
G1 X76.222 Y115.963 E24.29537
G1 X76.041 Y115.458 E24.30965
G1 X75.936 Y114.932 E24.32392
G1 X75.91 Y114.496 E24.33554
G1 X75.909 Y72.509 E25.45274
G1 X75.949 Y71.974 E25.46701
G1 X76.068 Y71.451 E25.48128
G1 X76.263 Y70.952 E25.49554
G1 X76.53 Y70.487 E25.50981
G1 X76.864 Y70.067 E25.52408
G0 F1542.9 X77.258 Y70.234
G1 F900 X77.645 Y69.908 E25.53755
G1 X78.078 Y69.647 E25.551
G1 X78.546 Y69.457 E25.56444
G1 X79.039 Y69.344 E25.5779
G1 X79.509 Y69.309 E25.59044
G1 X121.49 Y69.31 E26.70747
G1 X121.994 Y69.35 E26.72093
G1 X122.485 Y69.469 E26.73437
G1 X122.952 Y69.664 E26.74783
G1 X123.382 Y69.929 E26.76127
G1 X123.765 Y70.26 E26.77474
G1 X124.091 Y70.646 E26.78819
G1 X124.352 Y71.079 E26.80164
G1 X124.542 Y71.547 E26.81508
G1 X124.662 Y72.084 E26.82972
G1 X124.954 Y74.257 E26.88806
G1 X125.888 Y79.666 E27.03411
G1 X127.121 Y84.988 E27.17947
G1 X127.846 Y87.607 E27.25178
G1 X129.541 Y92.849 E27.39837
G1 X131.512 Y97.943 E27.5437
G1 X133.412 Y102.195 E27.66762
G1 X133.581 Y102.672 E27.68109
G1 X133.673 Y103.169 E27.69454
G1 X133.69 Y103.501 E27.70338
G1 X133.691 Y137.491 E28.60779
G1 X133.651 Y137.995 E28.62124
G1 X133.532 Y138.486 E28.63469
G1 X133.338 Y138.953 E28.64814
G1 X133.072 Y139.383 E28.6616
G1 X132.742 Y139.766 E28.67505
G1 X132.355 Y140.092 E28.68851
G1 X131.922 Y140.353 E28.70196
G1 X131.454 Y140.543 E28.7154
G1 X130.961 Y140.656 E28.72886
G1 X130.491 Y140.691 E28.7414
G1 X95.506 Y140.69 E29.67229
G1 X95.002 Y140.65 E29.68574
G1 X94.511 Y140.531 E29.69918
G1 X94.044 Y140.336 E29.71265
G1 X93.614 Y140.071 E29.72609
G1 X93.231 Y139.74 E29.73956
G1 X92.905 Y139.354 E29.753
G1 X92.691 Y139.011 E29.76376
G1 X90.214 Y134.427 E29.9024
G1 X87.357 Y129.753 E30.04816
G1 X84.241 Y125.248 E30.19391
G1 X80.872 Y120.921 E30.33982
G1 X77.1 Y116.601 E30.49242
G1 X76.798 Y116.195 E30.50589
G1 X76.564 Y115.747 E30.51933
G1 X76.404 Y115.267 E30.5328
G1 X76.322 Y114.768 E30.54625
G1 X76.31 Y114.496 E30.5535
G1 X76.309 Y72.509 E31.67069
G1 X76.349 Y72.005 E31.68414
G1 X76.468 Y71.514 E31.69759
G1 X76.662 Y71.047 E31.71104
G1 X76.928 Y70.617 E31.7245
G1 X77.258 Y70.234 E31.73795
G1 F1200 E25.23795
G0 F1542.9 X80.114 Y71.835
G0 X80.114 Y73.114
G0 X102.68 Y106.499
;TYPE:WALL-INNER
G1 F1200 E31.73795
G1 F900 X101.927 Y106.547 E31.75802
G1 X101.211 Y106.783 E31.77808
G1 X100.576 Y107.188 E31.79812
G1 X100.061 Y107.739 E31.81819
G1 X99.701 Y108.402 E31.83827
G1 X99.516 Y109.131 E31.85828
G1 X99.517 Y109.887 E31.87839
G1 X99.708 Y110.615 E31.89842
G1 X100.071 Y111.275 E31.91846
G1 X100.59 Y111.822 E31.93853
G1 X101.229 Y112.225 E31.95863
G1 X101.946 Y112.455 E31.97866
G1 X102.699 Y112.5 E31.99873
G1 X103.437 Y112.357 E32.01874
G1 X104.119 Y112.035 E32.0388
G1 X104.699 Y111.551 E32.0589
G1 X105.14 Y110.941 E32.07893
G1 X105.415 Y110.238 E32.09902
G1 X105.507 Y109.491 E32.11905
G1 X105.41 Y108.743 E32.13911
G1 X105.131 Y108.042 E32.15919
G1 X104.686 Y107.437 E32.17917
G1 X104.105 Y106.955 E32.19926
G1 X103.42 Y106.637 E32.21936
G1 X102.68 Y106.499 E32.23938
G0 F1542.9 X103.911 Y107.263
G0 X104.422 Y107.686
G0 X104.812 Y108.219
G0 X105.058 Y108.834
G0 X105.144 Y109.492
G0 X101.934 Y128.545
G1 F900 X101.213 Y128.782 E32.25958
G1 X100.576 Y129.188 E32.27968
G1 X100.067 Y129.732 E32.2995
G1 X99.701 Y130.396 E32.31968
G1 X99.516 Y131.129 E32.33979
G1 X99.516 Y131.877 E32.35969
G1 X99.704 Y132.61 E32.37983
G1 X100.07 Y133.274 E32.4
G1 X100.591 Y133.823 E32.42014
G1 X101.221 Y134.222 E32.43998
G1 X101.941 Y134.455 E32.46012
G1 X102.697 Y134.5 E32.48027
G1 X103.428 Y134.36 E32.50007
G1 X104.115 Y134.038 E32.52026
G1 X104.696 Y133.555 E32.54037
G1 X105.138 Y132.95 E32.5603
G1 X105.414 Y132.244 E32.58047
G1 X105.508 Y131.494 E32.60058
G1 X105.41 Y130.744 E32.62071
G1 X105.133 Y130.045 E32.64072
G1 X104.694 Y129.442 E32.66056
G1 X104.111 Y128.958 E32.68072
G1 X103.422 Y128.637 E32.70095
G1 X102.681 Y128.499 E32.72101
G1 X101.934 Y128.545 E32.74092
G0 F1542.9 X100.809 Y129.468
G0 X100.447 Y129.855
G0 X96.5 Y136.5
G1 F900 X96.5 Y113.5 E33.35291
G1 X80.5 Y113.5 E33.77864
G1 X80.5 Y73.5 E34.84296
G1 X120.5 Y73.5 E35.90728
G1 X120.5 Y104.5 E36.73214
G1 X129.5 Y104.5 E36.97161
G1 X129.5 Y136.5 E37.82307
G1 X96.5 Y136.5 E38.70114
G0 F1542.9 X122.586 Y133.82
G1 F900 X123.218 Y134.222 E38.72107
G1 X123.939 Y134.455 E38.74123
G1 X124.694 Y134.501 E38.76135
G1 X125.43 Y134.36 E38.78129
G1 X126.113 Y134.038 E38.80138
G1 X126.695 Y133.557 E38.82147
G1 X127.138 Y132.949 E38.84149
G1 X127.414 Y132.246 E38.86159
G1 X127.508 Y131.496 E38.8817
G1 X127.411 Y130.747 E38.90179
G1 X127.134 Y130.047 E38.92183
G1 X126.693 Y129.441 E38.94177
G1 X126.111 Y128.959 E38.96188
G1 X125.426 Y128.637 E38.98201
G1 X124.684 Y128.499 E39.0021
G1 X123.936 Y128.545 E39.02204
G1 X123.216 Y128.779 E39.04218
G1 X122.577 Y129.186 E39.06234
G1 X122.067 Y129.732 E39.08222
G1 X121.701 Y130.395 E39.10237
G1 X121.516 Y131.127 E39.12246
G1 X121.516 Y131.875 E39.14236
G1 X121.703 Y132.607 E39.16247
G1 X122.069 Y133.273 E39.18269
G1 X122.586 Y133.82 E39.20271
G0 F1542.9 X122.041 Y132.473
G0 X121.877 Y131.829
G0 X121.877 Y131.298
G0 X127.411 Y108.747
G1 F900 X127.134 Y108.047 E39.22274
G1 X126.693 Y107.441 E39.24269
G1 X126.111 Y106.959 E39.26279
G1 X125.426 Y106.637 E39.28293
G1 X124.684 Y106.499 E39.30302
G1 X123.936 Y106.545 E39.32296
G1 X123.216 Y106.779 E39.3431
G1 X122.577 Y107.186 E39.36326
G1 X122.067 Y107.732 E39.38314
G1 X121.701 Y108.395 E39.40329
G1 X121.516 Y109.127 E39.42338
G1 X121.516 Y109.875 E39.44328
G1 X121.703 Y110.607 E39.46338
G1 X122.069 Y111.273 E39.4836
G1 X122.586 Y111.82 E39.50363
G1 X123.218 Y112.222 E39.52356
G1 X123.939 Y112.455 E39.54372
G1 X124.694 Y112.501 E39.56385
G1 X125.43 Y112.36 E39.58379
G1 X126.113 Y112.038 E39.60388
G1 X126.695 Y111.557 E39.62397
G1 X127.138 Y110.949 E39.64399
G1 X127.414 Y110.246 E39.66408
G1 X127.508 Y109.496 E39.68419
G1 X127.411 Y108.747 E39.70429
G0 F1542.9 X127.061 Y110.155
G0 X126.819 Y110.774
G0 X126.599 Y111.076
G0 X125.95 Y111.782
G0 X125.897 Y111.698
G1 F900 X126.401 Y111.281 E39.7217
G1 X126.784 Y110.755 E39.73901
G1 X127.023 Y110.146 E39.75642
G1 X127.105 Y109.497 E39.77382
G1 X127.021 Y108.848 E39.79124
G1 X126.781 Y108.241 E39.8086
G1 X126.399 Y107.717 E39.82586
G1 X125.895 Y107.299 E39.84328
G1 X125.302 Y107.021 E39.86071
G1 X124.659 Y106.901 E39.87811
G1 X124.011 Y106.941 E39.89539
G1 X123.388 Y107.144 E39.91282
G1 X122.835 Y107.496 E39.93026
G1 X122.393 Y107.969 E39.94749
G1 X122.076 Y108.543 E39.96494
G1 X121.916 Y109.177 E39.98233
G1 X121.916 Y109.825 E39.99958
G1 X122.078 Y110.459 E40.01699
G1 X122.395 Y111.035 E40.03448
G1 X122.843 Y111.509 E40.05184
G1 X123.39 Y111.857 E40.06909
G1 X124.014 Y112.059 E40.08654
G1 X124.668 Y112.099 E40.10397
G1 X125.305 Y111.977 E40.12123
G1 X125.897 Y111.698 E40.13864
G0 F1542.9 X125.95 Y111.782
G0 X121.877 Y131.173
G0 X121.877 Y131.829
G0 X121.969 Y132.193
G0 X122.315 Y133.093
G0 X122.395 Y133.035
G1 F900 X122.843 Y133.509 E40.156
G1 X123.39 Y133.857 E40.17325
G1 X124.014 Y134.059 E40.1907
G1 X124.668 Y134.099 E40.20813
G1 X125.305 Y133.977 E40.22539
G1 X125.897 Y133.698 E40.2428
G1 X126.401 Y133.281 E40.26021
G1 X126.784 Y132.755 E40.27752
G1 X127.023 Y132.146 E40.29493
G1 X127.105 Y131.497 E40.31234
G1 X127.021 Y130.848 E40.32975
G1 X126.781 Y130.241 E40.34712
G1 X126.399 Y129.717 E40.36437
G1 X125.895 Y129.299 E40.38179
G1 X125.302 Y129.021 E40.39922
G1 X124.659 Y128.901 E40.41663
G1 X124.011 Y128.941 E40.4339
G1 X123.388 Y129.144 E40.45133
G1 X122.835 Y129.496 E40.46878
G1 X122.393 Y129.969 E40.486
G1 X122.076 Y130.543 E40.50345
G1 X121.916 Y131.177 E40.52085
G1 X121.916 Y131.825 E40.53809
G1 X122.078 Y132.459 E40.5555
G1 X122.395 Y133.035 E40.573
G0 F1542.9 X122.315 Y133.093
G0 X102.677 Y134.197
G0 X102.671 Y134.098
G1 F900 X103.304 Y133.977 E40.59014
G1 X103.899 Y133.698 E40.60763
G1 X104.402 Y133.279 E40.62505
G1 X104.784 Y132.756 E40.64228
