;FLAVOR:Marlin
;TIME:3758
;Filament used: 3.70407m, 0m
;Layer height: 0.2
;POSTPROCESSED
;Generated with Cura_SteamEngine 3.4.1
T0
M190 S75
M104 S248
M109 S248
M82 ;absolute extrusion mode
; Printer start settings begin
M92 X160 Y160 Z1600; Steps per unit
M201 X1000 Y1000 Z50 E1500 E1500 ; Max Accelleration
M203 X800 Y800 Z2 E90 E90 ; Max Feed
M205 X3.0 Y3.0 Z0.3 E5.0 ; Default Jerk
G28
G0 X0 Y0 Z15 F1200
G92 E-35
G1 E0 F200 ;Home
G92 E5
G1 F1000 E0
G29 ;Auto Bed Level
G92 F400 E-5
G1 E0
G0 X0 Y0 Z15.0 F6000 ;Move the platform down 15mm
G92 E0
G1 F200 E3
G92 E0
G92 E0
G1 F1200 E-6.5
;LAYER_COUNT:103
;LAYER:0
M107
G0 F1542.9 X60.722 Y52.649 Z0.16
;TYPE:SKIRT
G1 F1200 E0
G1 F900 X61.183 Y52.235 E0.01649
G1 X61.693 Y51.885 E0.03295
G1 X62.245 Y51.602 E0.04945
G1 X62.828 Y51.393 E0.06593
G1 X63.21 Y51.3 E0.07639
G1 X69.203 Y50.101 E0.23901
G1 X69.817 Y50.019 E0.2555
G1 X70.135 Y50.008 E0.26396
G1 X93.211 Y49.958 E0.87797
G1 X98.588 Y49.654 E1.02127
G1 X103.93 Y49.047 E1.16433
G1 X109.239 Y48.137 E1.30765
G1 X115.499 Y46.675 E1.4787
G1 X116.11 Y46.573 E1.49518
G1 X116.559 Y46.549 E1.50715
G1 X117.605 Y46.542 E1.53498
G1 X118.223 Y46.578 E1.55145
G1 X118.858 Y46.7 E1.56866
G1 X119.9 Y46.974 E1.59732
G1 X120.251 Y47.081 E1.60709
G1 X125.425 Y48.875 E1.7528
G1 X129.967 Y50.194 E1.87865
G1 X130.549 Y50.405 E1.89512
G1 X131.1 Y50.689 E1.91161
G1 X131.609 Y51.042 E1.92809
G1 X132.068 Y51.457 E1.94456
G1 X132.471 Y51.928 E1.96105
G1 X132.809 Y52.446 E1.97751
G1 X133.078 Y53.004 E1.99399
G1 X133.273 Y53.592 E2.01048
G1 X133.411 Y54.405 E2.03242
G1 X133.931 Y60.644 E2.199
G1 X134.696 Y65.984 E2.34254
G1 X135.764 Y71.29 E2.48655
G1 X136.391 Y73.841 E2.55645
G1 X137.909 Y79.043 E2.70064
G1 X139.709 Y84.128 E2.84417
G1 X141.787 Y89.085 E2.98719
G1 X144.151 Y93.936 E3.13077
G1 X146.775 Y98.627 E3.27379
G1 X149.664 Y103.17 E3.41704
G1 X152.805 Y107.539 E3.56022
G1 X156.198 Y111.737 E3.70384
G1 X159.833 Y115.748 E3.84787
G1 X161.675 Y117.616 E3.91768
G1 X165.668 Y121.333 E4.06283
G1 X167.34 Y122.769 E4.12148
G1 X167.783 Y123.202 E4.13796
G1 X168.167 Y123.688 E4.15444
G1 X168.484 Y124.22 E4.17092
G1 X168.731 Y124.788 E4.1874
G1 X168.902 Y125.383 E4.20387
G1 X168.995 Y125.996 E4.22037
G1 X169.013 Y126.404 E4.23124
G1 X169.021 Y133.199 E4.41204
G1 X168.982 Y133.817 E4.42852
G1 X168.863 Y134.425 E4.445
G1 X168.667 Y135.013 E4.46149
G1 X168.398 Y135.57 E4.47795
G1 X168.058 Y136.089 E4.49446
G1 X167.655 Y136.559 E4.51093
G1 X167.195 Y136.973 E4.5274
G1 X166.685 Y137.324 E4.54387
G1 X166.134 Y137.607 E4.56036
G1 X165.574 Y137.81 E4.57621
G1 X160.457 Y139.314 E4.71812
G1 X154.812 Y141.212 E4.87658
G1 X154.214 Y141.371 E4.89305
G1 X153.314 Y141.462 E4.91712
G1 X152.267 Y141.469 E4.94498
G1 X151.649 Y141.433 E4.96145
G1 X151.128 Y141.34 E4.97553
G1 X145.583 Y140.026 E5.12716
G1 X143.043 Y139.533 E5.196
G1 X137.679 Y138.721 E5.34036
G1 X132.292 Y138.216 E5.48432
G1 X129.623 Y138.079 E5.55543
G1 X126.075 Y138.014 E5.64986
G1 X105.737 Y138.004 E6.19101
G1 X105.119 Y137.964 E6.20749
G1 X104.797 Y137.911 E6.21617
G1 X98.797 Y136.71 E6.37899
G1 X98.199 Y136.549 E6.39547
G1 X97.626 Y136.313 E6.41195
G1 X97.089 Y136.005 E6.42843
G1 X96.596 Y135.63 E6.44491
G1 X96.155 Y135.195 E6.46139
G1 X95.773 Y134.707 E6.47788
G1 X95.458 Y134.174 E6.49435
G1 X95.143 Y133.386 E6.51693
G1 X93.852 Y129.098 E6.63609
G1 X92.039 Y124.003 E6.77998
G1 X89.947 Y119.035 E6.92342
G1 X87.578 Y114.196 E7.06677
G1 X84.944 Y109.506 E7.2099
G1 X82.043 Y104.958 E7.35344
G1 X80.522 Y102.785 E7.42401
G1 X77.234 Y98.487 E7.568
G1 X73.722 Y94.399 E7.7114
G1 X69.994 Y90.526 E7.85444
G1 X66.011 Y86.83 E7.99902
G1 X63.981 Y85.099 E8.07001
G1 X61.154 Y82.839 E8.16631
G1 X60.696 Y82.422 E8.18279
G1 X60.296 Y81.95 E8.19925
G1 X59.96 Y81.43 E8.21573
G1 X59.693 Y80.87 E8.23223
G1 X59.501 Y80.282 E8.24869
G1 X59.387 Y79.673 E8.26518
G1 X59.351 Y79.09 E8.28072
G1 X59.352 Y56.007 E8.89491
G1 X59.392 Y55.389 E8.91139
G1 X59.511 Y54.781 E8.92788
G1 X59.708 Y54.194 E8.94435
G1 X59.978 Y53.636 E8.96085
G1 X60.318 Y53.119 E8.97731
G1 X60.722 Y52.649 E8.9938
G0 F1542.9 X61.116 Y52.822
G1 F900 X61.572 Y52.443 E9.00958
G1 X62.074 Y52.129 E9.02533
G1 X62.615 Y51.884 E9.04114
G1 X63.289 Y51.693 E9.05978
G1 X69.282 Y50.494 E9.2224
G1 X70.136 Y50.408 E9.24524
G1 X93.217 Y50.358 E9.85938
G1 X98.62 Y50.052 E10.00337
G1 X103.988 Y49.443 E10.14712
G1 X109.316 Y48.529 E10.29096
G1 X115.59 Y47.064 E10.46239
G1 X116.176 Y46.969 E10.47819
G1 X116.562 Y46.949 E10.48847
G1 X117.608 Y46.942 E10.5163
G1 X118.199 Y46.978 E10.53206
G1 X118.756 Y47.087 E10.54716
G1 X119.798 Y47.361 E10.57583
G1 X120.12 Y47.459 E10.58478
G1 X125.32 Y49.262 E10.73123
G1 X129.855 Y50.579 E10.85688
G1 X130.412 Y50.782 E10.87266
G1 X130.937 Y51.058 E10.88844
G1 X131.419 Y51.403 E10.90421
G1 X131.851 Y51.809 E10.91998
G1 X132.225 Y52.27 E10.93578
G1 X132.533 Y52.776 E10.95154
G1 X132.77 Y53.32 E10.96733
G1 X132.932 Y53.89 E10.9831
G1 X133.013 Y54.439 E10.99786
G1 X133.535 Y60.7 E11.16503
G1 X134.303 Y66.066 E11.30927
G1 X135.368 Y71.351 E11.45272
G1 X136.007 Y73.952 E11.52398
G1 X137.527 Y79.162 E11.66839
G1 X139.339 Y84.279 E11.81283
G1 X141.422 Y89.251 E11.95627
G1 X143.792 Y94.114 E12.10021
G1 X146.431 Y98.831 E12.24403
G1 X149.334 Y103.396 E12.38797
G1 X152.49 Y107.787 E12.53186
G1 X155.891 Y111.994 E12.6758
G1 X159.546 Y116.027 E12.82063
G1 X161.377 Y117.884 E12.89002
G1 X165.406 Y121.634 E13.03647
G1 X167.08 Y123.072 E13.09519
G1 X167.503 Y123.488 E13.11098
G1 X167.866 Y123.957 E13.12676
G1 X168.162 Y124.47 E13.14252
G1 X168.387 Y125.019 E13.1583
G1 X168.536 Y125.593 E13.17408
G1 X168.613 Y126.405 E13.19578
G1 X168.621 Y133.2 E13.37659
G1 X168.582 Y133.791 E13.39235
G1 X168.463 Y134.372 E13.40813
G1 X168.268 Y134.932 E13.4239
G1 X167.999 Y135.461 E13.4397
G1 X167.661 Y135.948 E13.45547
G1 X167.261 Y136.386 E13.47125
G1 X166.806 Y136.766 E13.48703
G1 X166.304 Y137.081 E13.50279
G1 X165.764 Y137.326 E13.51857
G1 X165.461 Y137.427 E13.52707
G1 X160.303 Y138.943 E13.67012
G1 X154.685 Y140.832 E13.82783
G1 X154.111 Y140.983 E13.84362
G1 X153.311 Y141.062 E13.86501
G1 X152.264 Y141.069 E13.89287
G1 X151.673 Y141.033 E13.90863
G1 X151.22 Y140.95 E13.92088
G1 X145.677 Y139.636 E14.07246
G1 X143.105 Y139.137 E14.14217
G1 X137.741 Y138.326 E14.28652
G1 X132.301 Y137.816 E14.4319
G1 X129.651 Y137.68 E14.5025
G1 X126.083 Y137.614 E14.59746
G1 X105.737 Y137.604 E15.13883
G1 X104.875 Y137.518 E15.16188
G1 X98.875 Y136.317 E15.32469
G1 X98.303 Y136.162 E15.34046
G1 X97.757 Y135.931 E15.35624
G1 X97.247 Y135.629 E15.37201
G1 X96.782 Y135.261 E15.38778
G1 X96.371 Y134.834 E15.40355
G1 X96.021 Y134.355 E15.41934
G1 X95.738 Y133.834 E15.43512
G1 X95.526 Y133.271 E15.45112
G1 X94.231 Y128.969 E15.57066
G1 X92.409 Y123.85 E15.71524
G1 X90.317 Y118.882 E15.85867
G1 X87.935 Y114.017 E16.0028
G1 X85.284 Y109.295 E16.14689
G1 X82.364 Y104.719 E16.29133
G1 X80.851 Y102.556 E16.36157
G1 X77.548 Y98.239 E16.5062
G1 X74.013 Y94.125 E16.65053
G1 X70.272 Y90.237 E16.79409
G1 X66.286 Y86.539 E16.93876
G1 X64.241 Y84.795 E17.01028
G1 X61.404 Y82.527 E17.10692
G1 X60.967 Y82.126 E17.1227
G1 X60.587 Y81.671 E17.13848
G1 X60.273 Y81.168 E17.15425
G1 X60.028 Y80.628 E17.17003
G1 X59.859 Y80.059 E17.18583
G1 X59.768 Y79.474 E17.20158
G1 X59.751 Y79.09 E17.21181
G1 X59.752 Y56.007 E17.826
G1 X59.792 Y55.415 E17.84179
G1 X59.911 Y54.834 E17.85757
G1 X60.107 Y54.275 E17.87333
G1 X60.377 Y53.747 E17.88911
G1 X60.715 Y53.26 E17.90488
G1 X61.116 Y52.822 E17.92069
G0 F1542.9 X61.112 Y53.408
G1 F900 X61.508 Y53.005 E17.93572
G1 X61.958 Y52.662 E17.95077
G1 X62.451 Y52.387 E17.96579
G1 X62.979 Y52.183 E17.98086
G1 X63.367 Y52.085 E17.9915
G1 X69.36 Y50.886 E18.15413
G1 X70.136 Y50.808 E18.17488
G1 X93.222 Y50.758 E18.78915
G1 X98.67 Y50.45 E18.93435
G1 X104.049 Y49.839 E19.07839
G1 X109.39 Y48.923 E19.22258
G1 X115.681 Y47.454 E19.39448
G1 X116.24 Y47.364 E19.40954
G1 X116.564 Y47.349 E19.41817
G1 X117.61 Y47.342 E19.446
G1 X118.174 Y47.378 E19.46104
G1 X118.654 Y47.474 E19.47407
G1 X119.696 Y47.748 E19.50273
G1 X119.989 Y47.837 E19.51088
G1 X125.192 Y49.641 E19.65741
G1 X129.744 Y50.963 E19.78353
G1 X130.274 Y51.158 E19.79856
G1 X130.772 Y51.427 E19.81362
G1 X131.226 Y51.763 E19.82865
G1 X131.629 Y52.159 E19.84368
G1 X131.972 Y52.609 E19.85874
G1 X132.248 Y53.102 E19.87377
G1 X132.452 Y53.63 E19.88883
G1 X132.579 Y54.18 E19.90385
G1 X132.614 Y54.472 E19.91168
G1 X133.136 Y60.74 E20.07904
G1 X133.908 Y66.13 E20.22392
G1 X134.98 Y71.451 E20.36834
G1 X135.618 Y74.046 E20.43945
G1 X137.147 Y79.287 E20.58471
G1 X138.964 Y84.419 E20.72957
G1 X141.055 Y89.409 E20.87353
G1 X143.441 Y94.305 E21.01845
G1 X146.09 Y99.041 E21.16284
G1 X149.007 Y103.626 E21.30744
G1 X152.163 Y108.018 E21.45134
G1 X155.591 Y112.259 E21.59644
G1 X159.259 Y116.306 E21.74177
G1 X161.102 Y118.175 E21.81161
G1 X165.142 Y121.936 E21.95848
G1 X166.819 Y123.376 E22.0173
G1 X167.221 Y123.773 E22.03233
G1 X167.563 Y124.224 E22.04739
G1 X167.837 Y124.718 E22.06242
G1 X168.04 Y125.246 E22.07747
G1 X168.166 Y125.797 E22.09251
G1 X168.213 Y126.405 E22.10874
G1 X168.221 Y133.2 E22.28954
G1 X168.182 Y133.764 E22.30458
G1 X168.063 Y134.317 E22.31964
G1 X167.868 Y134.848 E22.33469
G1 X167.6 Y135.345 E22.34971
G1 X167.265 Y135.8 E22.36475
G1 X166.868 Y136.204 E22.37982
G1 X166.419 Y136.547 E22.39485
G1 X165.926 Y136.823 E22.40988
G1 X165.349 Y137.043 E22.42632
G1 X160.182 Y138.561 E22.56961
G1 X154.557 Y140.453 E22.72752
G1 X154.01 Y140.595 E22.74256
G1 X153.309 Y140.662 E22.76129
G1 X152.262 Y140.669 E22.78915
G1 X151.698 Y140.633 E22.80419
G1 X151.312 Y140.561 E22.81464
G1 X145.771 Y139.248 E22.96616
G1 X143.168 Y138.742 E23.03671
G1 X137.785 Y137.928 E23.18157
G1 X132.338 Y137.417 E23.32715
G1 X129.648 Y137.279 E23.39882
G1 X126.09 Y137.214 E23.4935
G1 X105.737 Y137.204 E24.03506
G1 X104.954 Y137.126 E24.056
G1 X98.954 Y135.925 E24.21881
G1 X98.409 Y135.775 E24.23385
G1 X97.89 Y135.55 E24.2489
G1 X97.409 Y135.254 E24.26393
G1 X96.974 Y134.893 E24.27897
G1 X96.594 Y134.474 E24.29402
G1 X96.277 Y134.006 E24.30906
G1 X96.029 Y133.498 E24.3241
G1 X95.909 Y133.156 E24.33375
G1 X94.608 Y128.834 E24.45385
G1 X92.789 Y123.724 E24.59817
G1 X90.677 Y118.708 E24.74299
G1 X88.286 Y113.824 E24.88768
G1 X85.632 Y109.098 E25.0319
G1 X82.703 Y104.507 E25.1768
G1 X81.17 Y102.316 E25.24795
G1 X77.845 Y97.97 E25.39355
G1 X74.322 Y93.87 E25.53739
G1 X70.549 Y89.95 E25.68216
G1 X66.546 Y86.234 E25.82749
G1 X64.504 Y84.493 E25.89889
G1 X61.654 Y82.215 E25.99597
G1 X61.238 Y81.831 E26.01103
G1 X60.881 Y81.393 E26.02607
G1 X60.589 Y80.909 E26.04111
G1 X60.368 Y80.389 E26.05614
G1 X60.222 Y79.842 E26.07121
G1 X60.151 Y79.09 E26.09131
G1 X60.152 Y56.007 E26.7055
G1 X60.192 Y55.443 E26.72055
G1 X60.311 Y54.89 E26.7356
G1 X60.507 Y54.36 E26.75063
G1 X60.775 Y53.862 E26.76568
G1 X61.112 Y53.408 E26.78072
G0 F1542.9 X61.507 Y53.565
G1 F900 X61.899 Y53.199 E26.79499
G1 X62.341 Y52.895 E26.80927
G1 X62.824 Y52.661 E26.82355
G1 X63.446 Y52.477 E26.84081
G1 X69.439 Y51.278 E27.00343
G1 X70.137 Y51.208 E27.0221
G1 X93.245 Y51.158 E27.63696
G1 X98.685 Y50.85 E27.78194
G1 X104.111 Y50.234 E27.92724
G1 X109.464 Y49.316 E28.07175
G1 X115.772 Y47.843 E28.24411
G1 X116.567 Y47.749 E28.26541
G1 X117.613 Y47.742 E28.29325
G1 X118.148 Y47.778 E28.30751
G1 X118.553 Y47.86 E28.31851
G1 X119.595 Y48.134 E28.34718
G1 X119.858 Y48.215 E28.3545
G1 X125.07 Y50.022 E28.50128
G1 X129.632 Y51.347 E28.62768
G1 X130.134 Y51.534 E28.64193
G1 X130.603 Y51.794 E28.6562
G1 X131.029 Y52.121 E28.67049
G1 X131.401 Y52.508 E28.68478
G1 X131.711 Y52.945 E28.69903
G1 X131.953 Y53.424 E28.71331
G1 X132.121 Y53.933 E28.72757
G1 X132.216 Y54.505 E28.743
G1 X132.74 Y60.797 E28.911
G1 X133.514 Y66.195 E29.0561
G1 X134.589 Y71.534 E29.20101
G1 X135.233 Y74.156 E29.27285
G1 X136.765 Y79.406 E29.41837
G1 X138.594 Y84.571 E29.56416
G1 X140.693 Y89.582 E29.70872
G1 X143.083 Y94.484 E29.85383
G1 X145.742 Y99.238 E29.99877
G1 X148.677 Y103.853 E30.14429
G1 X151.849 Y108.266 E30.2889
G1 X155.284 Y112.515 E30.43428
G1 X158.961 Y116.573 E30.57999
G1 X160.828 Y118.466 E30.65074
G1 X164.866 Y122.225 E30.79753
G1 X166.559 Y123.679 E30.85691
G1 X166.938 Y124.058 E30.87117
G1 X167.257 Y124.489 E30.88544
G1 X167.509 Y124.962 E30.8997
G1 X167.688 Y125.468 E30.91398
G1 X167.789 Y125.995 E30.92826
G1 X167.813 Y126.406 E30.93921
G1 X167.821 Y133.201 E31.12002
G1 X167.782 Y133.736 E31.13429
G1 X167.663 Y134.259 E31.14856
G1 X167.469 Y134.758 E31.16281
G1 X167.202 Y135.224 E31.1771
G1 X166.869 Y135.644 E31.19136
G1 X166.477 Y136.01 E31.20563
G1 X166.035 Y136.314 E31.2199
G1 X165.553 Y136.549 E31.23417
G1 X165.236 Y136.659 E31.2431
G1 X160.076 Y138.175 E31.3862
G1 X154.43 Y140.074 E31.5447
G1 X153.91 Y140.207 E31.55898
G1 X153.306 Y140.262 E31.57512
G1 X152.259 Y140.269 E31.60298
G1 X151.724 Y140.233 E31.61724
G1 X151.405 Y140.172 E31.62589
G1 X145.848 Y138.855 E31.77784
G1 X143.234 Y138.348 E31.84869
G1 X137.828 Y137.53 E31.99417
G1 X132.37 Y137.018 E32.14004
G1 X129.677 Y136.88 E32.21179
G1 X126.098 Y136.814 E32.30704
G1 X105.737 Y136.804 E32.8488
G1 X105.032 Y136.734 E32.86765
G1 X99.032 Y135.533 E33.03047
G1 X98.516 Y135.389 E33.04472
G1 X98.026 Y135.17 E33.059
G1 X97.575 Y134.88 E33.07327
G1 X97.172 Y134.527 E33.08753
G1 X96.825 Y134.117 E33.10182
G1 X96.544 Y133.661 E33.11607
G1 X96.292 Y133.041 E33.13388
G1 X94.992 Y128.723 E33.25387
G1 X93.155 Y123.561 E33.39966
G1 X91.038 Y118.534 E33.54479
G1 X88.648 Y113.652 E33.68942
G1 X85.971 Y108.884 E33.83492
G1 X83.039 Y104.29 E33.97993
G1 X81.49 Y102.076 E34.05183
G1 X78.166 Y97.731 E34.19739
G1 X74.606 Y93.587 E34.34276
G1 X70.836 Y89.67 E34.48741
G1 X66.807 Y85.932 E34.63365
G1 X64.76 Y84.185 E34.70525
G1 X61.903 Y81.902 E34.80256
G1 X61.51 Y81.537 E34.81684
G1 X61.176 Y81.118 E34.83109
G1 X60.908 Y80.653 E34.84537
G1 X60.712 Y80.154 E34.85964
G1 X60.592 Y79.631 E34.87392
G1 X60.551 Y79.09 E34.88835
G1 X60.552 Y56.007 E35.50255
G1 X60.592 Y55.472 E35.51682
G1 X60.711 Y54.949 E35.53109
G1 X60.906 Y54.45 E35.54535
G1 X61.174 Y53.985 E35.55963
G1 X61.507 Y53.565 E35.57389
G0 F1542.9 X61.902 Y53.732
G1 F900 X62.288 Y53.406 E35.58734
G1 X62.721 Y53.145 E35.60079
G1 X63.189 Y52.955 E35.61423
G1 X63.524 Y52.869 E35.62343
G1 X69.517 Y51.67 E35.78605
G1 X70.138 Y51.608 E35.80266
G1 X93.251 Y51.558 E36.41765
G1 X98.716 Y51.248 E36.5633
G1 X104.169 Y50.63 E36.70932
G1 X109.557 Y49.706 E36.85478
G1 X115.863 Y48.233 E37.02709
G1 X116.57 Y48.149 E37.04603
G1 X117.616 Y48.142 E37.07386
G1 X118.12 Y48.179 E37.08731
G1 X118.451 Y48.247 E37.0963
G1 X119.493 Y48.521 E37.12497
G1 X119.727 Y48.593 E37.13149
G1 X124.948 Y50.403 E37.27852
G1 X129.52 Y51.731 E37.4052
G1 X129.993 Y51.91 E37.41865
G1 X130.432 Y52.161 E37.43211
G1 X130.826 Y52.478 E37.44557
G1 X131.165 Y52.853 E37.45902
G1 X131.44 Y53.277 E37.47246
G1 X131.646 Y53.739 E37.48592
G1 X131.776 Y54.228 E37.49939
G1 X131.817 Y54.538 E37.50771
G1 X132.342 Y60.835 E37.67584
G1 X133.119 Y66.262 E37.82171
G1 X134.201 Y71.634 E37.96752
G1 X134.844 Y74.251 E38.03923
G1 X136.389 Y79.546 E38.18599
G1 X138.212 Y84.695 E38.33133
G1 X140.326 Y89.739 E38.47685
G1 X142.732 Y94.676 E38.62299
G1 X145.405 Y99.455 E38.76869
G1 X148.331 Y104.055 E38.91375
G1 X151.538 Y108.517 E39.05996
G1 X154.984 Y112.78 E39.20581
G1 X158.662 Y116.839 E39.35156
G1 X160.565 Y118.768 E39.42366
G1 X164.589 Y122.514 E39.56994
G1 X166.298 Y123.982 E39.62989
G1 X166.654 Y124.341 E39.64334
G1 X166.95 Y124.751 E39.6568
G1 X167.177 Y125.203 E39.67025
G1 X167.33 Y125.685 E39.68371
G1 X167.413 Y126.406 E39.70302
G1 X167.421 Y133.201 E39.88382
G1 X167.382 Y133.705 E39.89727
G1 X167.263 Y134.197 E39.91074
G1 X167.069 Y134.664 E39.9242
G1 X166.804 Y135.094 E39.93764
G1 X166.474 Y135.477 E39.95109
G1 X166.088 Y135.804 E39.96455
G1 X165.656 Y136.065 E39.97798
G1 X165.123 Y136.275 E39.99322
G1 X159.962 Y137.791 E40.13635
G1 X154.302 Y139.695 E40.29524
G1 X153.812 Y139.818 E40.30869
G1 X153.303 Y139.862 E40.32228
G1 X152.256 Y139.869 E40.35014
G1 X151.752 Y139.832 E40.36359
G1 X151.497 Y139.783 E40.3705
G1 X145.919 Y138.461 E40.52303
G1 X143.319 Y137.956 E40.5935
