;FLAVOR:Marlin
;TIME:2287
;Filament used: 2.88547m, 0m
;Layer height: 0.2
;POSTPROCESSED
;Generated with Cura_SteamEngine 3.4.1
T0
M190 S75
M104 S248
M109 S248
M82 ;absolute extrusion mode
; Printer start settings begin
M92 X160 Y160 Z1600; Steps per unit
M201 X1000 Y1000 Z50 E1500 E1500 ; Max Accelleration
M203 X800 Y800 Z2 E90 E90 ; Max Feed
M205 X3.0 Y3.0 Z0.3 E5.0 ; Default Jerk
G28
G0 X0 Y0 Z15 F1200
G92 E-35
G1 E0 F200 ;Home
G92 E5
G1 F1000 E0
G29 ;Auto Bed Level
G92 F400 E-5
G1 E0
G0 X0 Y0 Z15.0 F6000 ;Move the platform down 15mm
G92 E0
G1 F200 E3
G92 E0
G92 E0
G1 F1200 E-6.5
;LAYER_COUNT:71
;LAYER:0
M107
G0 F1542.9 X81.58 Y81.651 Z0.16
;TYPE:SKIRT
G1 F1200 E0
G1 F900 X82.041 Y81.237 E0.01649
G1 X82.551 Y80.887 E0.03295
G1 X83.103 Y80.604 E0.04945
G1 X83.686 Y80.395 E0.06593
G1 X84.291 Y80.263 E0.08241
G1 X85.012 Y80.209 E0.10164
G1 X120.231 Y80.223 E1.03876
G1 X121.064 Y80.296 E1.061
G1 X122.378 Y80.528 E1.09651
G1 X122.979 Y80.675 E1.11297
G1 X123.507 Y80.875 E1.12799
G1 X124.437 Y81.292 E1.15511
G1 X124.984 Y81.581 E1.17158
G1 X125.369 Y81.844 E1.18398
G1 X126.416 Y82.636 E1.21891
G1 X126.885 Y83.041 E1.2354
G1 X127.163 Y83.338 E1.24623
G1 X127.671 Y83.93 E1.26698
G1 X128.114 Y84.538 E1.287
G1 X128.525 Y85.205 E1.30784
G1 X128.868 Y85.872 E1.3278
G1 X129.168 Y86.59 E1.34851
G1 X129.437 Y87.459 E1.37271
G1 X129.655 Y88.502 E1.40106
G1 X129.743 Y89.115 E1.41754
G1 X129.757 Y89.477 E1.42718
G1 X129.8 Y119.286 E2.22034
G1 X129.794 Y119.525 E2.2267
G1 X129.722 Y121.013 E2.26634
G1 X129.596 Y121.9 E2.29018
G1 X129.416 Y122.651 E2.31073
G1 X129.131 Y123.488 E2.33426
G1 X128.711 Y124.429 E2.36168
G1 X128.423 Y124.977 E2.37815
G1 X128.148 Y125.379 E2.39111
G1 X127.341 Y126.44 E2.42658
G1 X126.935 Y126.908 E2.44306
G1 X126.64 Y127.183 E2.45379
G1 X126.055 Y127.683 E2.47427
G1 X125.451 Y128.122 E2.49414
G1 X124.783 Y128.533 E2.51501
G1 X124.102 Y128.881 E2.53536
G1 X123.374 Y129.182 E2.55632
G1 X122.662 Y129.413 E2.57623
G1 X121.905 Y129.595 E2.59695
G1 X121.038 Y129.721 E2.62026
G1 X119.687 Y129.793 E2.65626
G1 X119.431 Y129.8 E2.66308
G1 X85.008 Y129.79 E3.57901
G1 X84.39 Y129.75 E3.59548
G1 X83.782 Y129.63 E3.61197
G1 X83.195 Y129.434 E3.62844
G1 X82.637 Y129.163 E3.64495
G1 X82.12 Y128.823 E3.66141
G1 X81.65 Y128.419 E3.6779
G1 X81.237 Y127.958 E3.69437
G1 X80.886 Y127.448 E3.71084
G1 X80.604 Y126.896 E3.72734
G1 X80.395 Y126.313 E3.74382
G1 X80.263 Y125.708 E3.76029
G1 X80.209 Y124.99 E3.77945
G1 X80.21 Y85.009 E4.84327
G1 X80.25 Y84.391 E4.85975
G1 X80.369 Y83.783 E4.87623
G1 X80.566 Y83.196 E4.89271
G1 X80.836 Y82.639 E4.90918
G1 X81.176 Y82.121 E4.92567
G1 X81.58 Y81.651 E4.94216
G0 F1542.9 X81.974 Y81.825
G1 F900 X82.429 Y81.445 E4.95793
G1 X82.932 Y81.131 E4.97371
G1 X83.472 Y80.886 E4.98949
G1 X84.041 Y80.717 E5.00528
G1 X84.627 Y80.626 E5.02106
G1 X85.012 Y80.609 E5.03131
G1 X120.231 Y80.623 E5.96842
G1 X120.994 Y80.69 E5.9888
G1 X122.308 Y80.922 E6.02431
G1 X122.884 Y81.064 E6.04009
G1 X123.343 Y81.24 E6.05317
G1 X124.273 Y81.657 E6.08029
G1 X124.797 Y81.936 E6.09609
G1 X125.127 Y82.163 E6.10675
G1 X126.174 Y82.955 E6.14168
G1 X126.622 Y83.344 E6.15746
G1 X126.859 Y83.599 E6.16673
G1 X127.367 Y84.191 E6.18748
G1 X127.774 Y84.748 E6.20584
G1 X128.185 Y85.415 E6.22669
G1 X128.499 Y86.027 E6.24499
G1 X128.799 Y86.745 E6.26569
G1 X129.046 Y87.541 E6.28787
G1 X129.264 Y88.584 E6.31622
G1 X129.346 Y89.171 E6.33199
G1 X129.357 Y89.478 E6.34017
G1 X129.4 Y119.287 E7.13333
G1 X129.395 Y119.506 E7.13916
G1 X129.323 Y120.994 E7.1788
G1 X129.207 Y121.807 E7.20065
G1 X129.027 Y122.558 E7.2212
G1 X128.766 Y123.325 E7.24275
G1 X128.346 Y124.266 E7.27017
G1 X128.068 Y124.79 E7.28596
G1 X127.83 Y125.137 E7.29715
G1 X127.023 Y126.198 E7.33262
G1 X126.633 Y126.644 E7.34839
G1 X126.38 Y126.879 E7.35757
G1 X125.795 Y127.379 E7.37805
G1 X125.242 Y127.781 E7.39624
G1 X124.574 Y128.192 E7.41711
G1 X123.949 Y128.511 E7.43578
G1 X123.221 Y128.812 E7.45674
G1 X122.569 Y129.024 E7.47499
G1 X121.812 Y129.206 E7.4957
G1 X121.017 Y129.322 E7.51708
G1 X119.666 Y129.394 E7.55308
G1 X119.431 Y129.4 E7.55933
G1 X85.008 Y129.39 E8.47526
G1 X84.416 Y129.35 E8.49105
G1 X83.835 Y129.231 E8.50683
G1 X83.276 Y129.034 E8.5226
G1 X82.748 Y128.764 E8.53838
G1 X82.261 Y128.426 E8.55416
G1 X81.824 Y128.025 E8.56994
G1 X81.444 Y127.57 E8.58571
G1 X81.13 Y127.067 E8.60149
G1 X80.886 Y126.526 E8.61728
G1 X80.717 Y125.958 E8.63305
G1 X80.626 Y125.372 E8.64883
G1 X80.609 Y124.99 E8.659
G1 X80.61 Y85.009 E9.72282
G1 X80.65 Y84.417 E9.73861
G1 X80.769 Y83.836 E9.75439
G1 X80.965 Y83.277 E9.77015
G1 X81.235 Y82.749 E9.78593
G1 X81.573 Y82.262 E9.8017
G1 X81.974 Y81.825 E9.81748
G0 F1542.9 X81.969 Y82.41
G1 F900 X82.366 Y82.007 E9.83254
G1 X82.816 Y81.664 E9.84759
G1 X83.309 Y81.389 E9.86261
G1 X83.837 Y81.185 E9.87767
G1 X84.387 Y81.058 E9.89269
G1 X85.012 Y81.009 E9.90937
G1 X120.231 Y81.023 E10.84649
G1 X120.924 Y81.084 E10.865
G1 X122.238 Y81.316 E10.9005
G1 X122.787 Y81.453 E10.91556
G1 X123.18 Y81.605 E10.92677
G1 X124.11 Y82.022 E10.95389
G1 X124.608 Y82.289 E10.96892
G1 X124.886 Y82.482 E10.97793
G1 X125.933 Y83.274 E11.01286
G1 X126.359 Y83.646 E11.02791
G1 X126.556 Y83.859 E11.03563
G1 X127.064 Y84.451 E11.05638
G1 X127.433 Y84.958 E11.07307
G1 X127.844 Y85.625 E11.09391
G1 X128.13 Y86.181 E11.11055
G1 X128.43 Y86.899 E11.13126
G1 X128.654 Y87.623 E11.15142
G1 X128.872 Y88.666 E11.17977
G1 X128.957 Y89.478 E11.2015
G1 X129 Y119.287 E11.99466
G1 X128.995 Y119.486 E11.99996
G1 X128.923 Y120.974 E12.03959
G1 X128.818 Y121.713 E12.05946
G1 X128.638 Y122.464 E12.08
G1 X128.401 Y123.162 E12.09962
G1 X127.981 Y124.103 E12.12704
G1 X127.714 Y124.602 E12.1421
G1 X127.512 Y124.895 E12.15157
G1 X126.705 Y125.956 E12.18703
G1 X126.332 Y126.38 E12.20206
G1 X126.12 Y126.575 E12.20973
G1 X125.535 Y127.075 E12.2302
G1 X125.032 Y127.441 E12.24675
G1 X124.364 Y127.852 E12.26762
G1 X123.796 Y128.142 E12.28459
G1 X123.068 Y128.443 E12.30555
G1 X122.475 Y128.635 E12.32214
G1 X121.718 Y128.817 E12.34285
G1 X120.996 Y128.922 E12.36227
G1 X119.645 Y128.994 E12.39827
G1 X119.431 Y129 E12.40396
G1 X85.008 Y128.99 E13.31989
G1 X84.444 Y128.95 E13.33494
G1 X83.891 Y128.831 E13.34999
G1 X83.361 Y128.635 E13.36503
G1 X82.864 Y128.366 E13.38006
G1 X82.409 Y128.03 E13.39511
G1 X82.007 Y127.633 E13.41015
G1 X81.664 Y127.183 E13.4252
G1 X81.388 Y126.69 E13.44023
G1 X81.185 Y126.162 E13.45529
G1 X81.058 Y125.611 E13.47033
G1 X81.009 Y124.99 E13.48691
G1 X81.01 Y85.009 E14.55073
G1 X81.05 Y84.445 E14.56577
G1 X81.169 Y83.892 E14.58082
G1 X81.365 Y83.362 E14.59586
G1 X81.633 Y82.865 E14.61088
G1 X81.969 Y82.41 E14.62593
G0 F1542.9 X82.365 Y82.567
G1 F900 X82.757 Y82.201 E14.6402
G1 X83.199 Y81.898 E14.65446
G1 X83.682 Y81.663 E14.66875
G1 X84.193 Y81.503 E14.683
G1 X84.723 Y81.42 E14.69727
G1 X85.011 Y81.409 E14.70494
G1 X120.23 Y81.423 E15.64205
G1 X120.855 Y81.478 E15.65875
G1 X122.169 Y81.71 E15.69425
G1 X122.689 Y81.842 E15.70853
G1 X123.016 Y81.97 E15.71787
G1 X123.946 Y82.387 E15.74499
G1 X124.418 Y82.642 E15.75926
G1 X124.645 Y82.801 E15.76664
G1 X125.692 Y83.593 E15.80157
G1 X126.252 Y84.12 E15.82203
G1 X126.76 Y84.712 E15.84279
G1 X127.093 Y85.167 E15.85779
G1 X127.504 Y85.834 E15.87864
G1 X127.761 Y86.335 E15.89362
G1 X128.061 Y87.053 E15.91432
G1 X128.263 Y87.704 E15.93246
G1 X128.481 Y88.747 E15.96081
G1 X128.557 Y89.479 E15.98039
G1 X128.6 Y119.288 E16.77356
G1 X128.596 Y119.467 E16.77832
G1 X128.524 Y120.955 E16.81796
G1 X128.429 Y121.62 E16.83583
G1 X128.249 Y122.371 E16.85638
G1 X128.035 Y122.999 E16.87404
G1 X127.615 Y123.94 E16.90145
G1 X127.361 Y124.412 E16.91572
G1 X127.193 Y124.652 E16.92351
G1 X126.386 Y125.713 E16.95898
G1 X125.86 Y126.271 E16.97939
G1 X125.275 Y126.771 E16.99986
G1 X124.822 Y127.1 E17.01476
G1 X124.154 Y127.511 E17.03563
G1 X123.644 Y127.772 E17.05087
G1 X122.916 Y128.073 E17.07183
G1 X122.382 Y128.246 E17.08677
G1 X121.625 Y128.428 E17.10749
G1 X120.975 Y128.523 E17.12496
G1 X119.624 Y128.595 E17.16096
G1 X119.431 Y128.6 E17.1661
G1 X85.008 Y128.59 E18.08203
G1 X84.473 Y128.55 E18.09631
G1 X83.95 Y128.431 E18.11058
G1 X83.451 Y128.235 E18.12484
G1 X82.986 Y127.968 E18.13911
G1 X82.566 Y127.634 E18.15339
G1 X82.2 Y127.242 E18.16766
G1 X81.897 Y126.8 E18.18192
G1 X81.663 Y126.317 E18.1962
G1 X81.503 Y125.806 E18.21045
G1 X81.42 Y125.276 E18.22472
G1 X81.409 Y124.99 E18.23234
G1 X81.41 Y85.009 E19.29615
G1 X81.45 Y84.474 E19.31043
G1 X81.569 Y83.951 E19.3247
G1 X81.764 Y83.452 E19.33896
G1 X82.032 Y82.987 E19.35324
G1 X82.365 Y82.567 E19.3675
G0 F1542.9 X82.76 Y82.734
G1 F900 X83.146 Y82.408 E19.38094
G1 X83.579 Y82.147 E19.39439
G1 X84.047 Y81.957 E19.40783
G1 X84.54 Y81.844 E19.42129
G1 X85.011 Y81.809 E19.43386
G1 X120.23 Y81.823 E20.37097
G1 X120.785 Y81.872 E20.3858
G1 X122.099 Y82.104 E20.4213
G1 X122.589 Y82.231 E20.43477
G1 X122.852 Y82.335 E20.44229
G1 X123.782 Y82.752 E20.46941
G1 X124.404 Y83.12 E20.48864
G1 X125.451 Y83.912 E20.52357
G1 X125.948 Y84.38 E20.54174
G1 X126.456 Y84.972 E20.56249
G1 X126.752 Y85.377 E20.57584
G1 X127.163 Y86.044 E20.59669
G1 X127.392 Y86.489 E20.61
G1 X127.692 Y87.207 E20.63071
G1 X127.871 Y87.786 E20.64684
G1 X128.089 Y88.829 E20.67519
G1 X128.157 Y89.479 E20.69258
G1 X128.2 Y119.288 E21.48574
G1 X128.196 Y119.448 E21.49
G1 X128.124 Y120.936 E21.52964
G1 X128.04 Y121.527 E21.54552
G1 X127.86 Y122.278 E21.56607
G1 X127.67 Y122.836 E21.58175
G1 X127.25 Y123.777 E21.60917
G1 X126.875 Y124.41 E21.62875
G1 X126.068 Y125.471 E21.66422
G1 X125.6 Y125.967 E21.68236
G1 X125.015 Y126.467 E21.70284
G1 X124.613 Y126.759 E21.71606
G1 X123.945 Y127.17 E21.73693
G1 X123.491 Y127.402 E21.7505
G1 X122.763 Y127.703 E21.77146
G1 X122.288 Y127.857 E21.78474
G1 X121.531 Y128.039 E21.80546
G1 X120.953 Y128.123 E21.821
G1 X119.602 Y128.195 E21.857
G1 X119.431 Y128.2 E21.86155
G1 X85.008 Y128.19 E22.77748
G1 X84.504 Y128.15 E22.79093
G1 X84.013 Y128.031 E22.80438
G1 X83.546 Y127.836 E22.81784
G1 X83.116 Y127.57 E22.8313
G1 X82.733 Y127.24 E22.84475
G1 X82.408 Y126.853 E22.8582
G1 X82.147 Y126.42 E22.87165
G1 X81.957 Y125.952 E22.88509
G1 X81.844 Y125.459 E22.89855
G1 X81.809 Y124.99 E22.91106
G1 X81.81 Y85.009 E23.97488
G1 X81.85 Y84.505 E23.98833
G1 X81.969 Y84.014 E24.00177
G1 X82.164 Y83.547 E24.01524
G1 X82.429 Y83.117 E24.02868
G1 X82.76 Y82.734 E24.04215
G1 F1200 E17.54215
G0 F1542.9 X85.614 Y84.335
G0 X85.614 Y85.614
G0 X88.971 Y86
;TYPE:WALL-INNER
G1 F1200 E24.04215
G1 F900 X88.257 Y86.085 E24.06128
G1 X87.526 Y86.376 E24.08222
G1 X87.499 Y86.397 E24.08313
G1 X86.899 Y86.848 E24.1031
G1 X86.414 Y87.463 E24.12394
G1 X86.388 Y87.524 E24.1257
G1 X86.106 Y88.183 E24.14478
G1 X86 Y88.894 E24.1639
G1 X86 Y88.183 E24.16638
G1 X86 Y87.466 E24.17859
G1 X86 Y86 E24.2176
G1 X87.491 Y86 E24.25727
G1 X87.526 Y86 E24.25817
G1 X88.257 Y86 E24.26923
G1 X88.971 Y86 E24.27122
G0 F1542.9 X87.705 Y86.694
G0 X87.154 Y87.108
G0 X86.727 Y87.649
G0 X86.509 Y88.162
G0 X86 Y90.469
G1 F900 X86 Y89.742 E24.29056
G1 X86 Y89.043 E24.30916
G1 X86.085 Y89.742 E24.31125
G1 X86.375 Y90.469 E24.32369
G1 X86.397 Y90.498 E24.32466
G1 X86.845 Y91.1 E24.34462
G1 X87.46 Y91.583 E24.36543
G1 X88.178 Y91.894 E24.38625
G1 X88.954 Y92.007 E24.40712
G1 X89.732 Y91.918 E24.42795
G1 X90.462 Y91.63 E24.44883
G1 X91.093 Y91.163 E24.46972
G1 X91.58 Y90.546 E24.49064
G1 X91.893 Y89.826 E24.51153
G1 X92.003 Y89.086 E24.53143
G1 X91.989 Y88.72 E24.54118
G1 X91.927 Y88.334 E24.55158
G1 X91.862 Y88.097 E24.55812
G1 X91.767 Y87.842 E24.56536
G1 X91.647 Y87.583 E24.57296
G1 X91.415 Y87.215 E24.58453
G1 X91.063 Y86.817 E24.59867
G1 X90.635 Y86.48 E24.61316
G1 X90.466 Y86.39 E24.61826
G1 X90.178 Y86.238 E24.62692
G1 X89.86 Y86.125 E24.6359
G1 X89.532 Y86.046 E24.64488
G1 X89.064 Y86 E24.65739
G1 X89.532 Y86 E24.6581
G1 X89.86 Y86 E24.65992
G1 X90.178 Y86 E24.66369
G1 X90.504 Y86 E24.67066
G1 X119.509 Y86 E25.44243
G1 X119.717 Y86 E25.44797
G1 X119.912 Y86 E25.45316
G1 X120.442 Y86.041 E25.4673
G1 X120.466 Y86.043 E25.46794
G1 X120.441 Y86.044 E25.46796
G1 X119.975 Y86.194 E25.47108
G1 X119.717 Y86.278 E25.47586
G1 X119.542 Y86.39 E25.48058
G1 X119.081 Y86.684 E25.49512
G1 X118.565 Y87.234 E25.51519
G1 X118.204 Y87.895 E25.53523
G1 X118.016 Y88.624 E25.55526
G1 X118.016 Y89.379 E25.57535
G1 X118.205 Y90.109 E25.59542
G1 X118.568 Y90.77 E25.61548
G1 X119.085 Y91.319 E25.63555
G1 X119.72 Y91.723 E25.65557
G1 X120.438 Y91.955 E25.67565
G1 X121.192 Y92.001 E25.69575
G1 X121.931 Y91.86 E25.71577
G1 X122.611 Y91.539 E25.73578
G1 X123.194 Y91.058 E25.75589
G1 X123.604 Y90.495 E25.77442
G1 X123.638 Y90.449 E25.77594
G1 X123.824 Y89.971 E25.78959
G1 X123.911 Y89.749 E25.79593
G1 X123.952 Y89.436 E25.80433
G1 X123.976 Y89.744 E25.80494
G1 X124 Y90.039 E25.80807
G1 X124 Y90.449 E25.81521
G1 X124 Y90.507 E25.81668
G1 X124 Y119.495 E26.588
G1 X124 Y119.556 E26.58962
G1 X124 Y119.961 E26.6004
G1 X123.976 Y120.265 E26.60851
G1 X123.952 Y120.56 E26.61639
G1 X123.915 Y120.26 E26.61711
G1 X123.826 Y120.03 E26.61873
G1 X123.64 Y119.556 E26.6285
G1 X123.605 Y119.507 E26.63002
G1 X123.196 Y118.947 E26.64848
G1 X122.618 Y118.464 E26.66852
G1 X121.934 Y118.142 E26.68863
G1 X121.197 Y118.001 E26.7086
G1 X120.444 Y118.044 E26.72867
G1 X119.724 Y118.275 E26.74879
G1 X119.087 Y118.679 E26.76886
G1 X118.57 Y119.228 E26.78893
G1 X118.207 Y119.888 E26.80897
G1 X118.018 Y120.615 E26.82895
G1 X118.016 Y121.37 E26.84904
G1 X118.201 Y122.1 E26.86908
G1 X118.562 Y122.762 E26.88914
G1 X119.078 Y123.313 E26.90923
G1 X119.545 Y123.61 E26.92396
G1 X119.714 Y123.717 E26.92928
G1 X120.018 Y123.817 E26.93779
G1 X120.431 Y123.953 E26.94936
G1 X120.495 Y123.957 E26.95107
G1 X120.433 Y123.962
G1 X119.958 Y124 E26.95484
G1 X119.714 Y124 E26.95833
G1 X119.513 Y124 E26.96293
G1 X90.561 Y123.97 E27.73328
G1 X90.095 Y123.97 E27.74568
G1 X89.472 Y123.969 E27.76226
G1 X90.095 Y123.799 E27.76628
G1 X90.508 Y123.584 E27.77522
G1 X90.669 Y123.5 E27.78005
G1 X91.153 Y123.095 E27.79684
G1 X91.42 Y122.776 E27.80791
G1 X91.536 Y122.604 E27.81343
G1 X91.674 Y122.361 E27.82087
G1 X91.777 Y122.138 E27.82741
G1 X91.892 Y121.81 E27.83665
G1 X91.959 Y121.499 E27.84512
G1 X92.001 Y121.13 E27.855
G1 X91.99 Y120.717 E27.86599
G1 X91.927 Y120.339 E27.87619
G1 X91.779 Y119.856 E27.88963
G1 X91.414 Y119.204 E27.90951
G1 X90.88 Y118.652 E27.92995
G1 X90.224 Y118.253 E27.95038
G1 X89.49 Y118.032 E27.97078
G1 X88.722 Y118.003 E27.99123
G1 X87.972 Y118.173 E28.01169
G1 X87.29 Y118.525 E28.03211
G1 X86.718 Y119.039 E28.05257
G1 X86.391 Y119.538 E28.06845
G1 X86.298 Y119.681 E28.07298
G1 X86.051 Y120.407 E28.09339
G1 X86 Y121.119 E28.11238
G1 X86 Y120.407 E28.11359
G1 X86 Y119.681 E28.12187
G1 X86 Y119.51 E28.12586
G1 X86 Y90.506 E28.8976
G1 X86 Y90.469 E28.89856
G0 F1542.9 X86.501 Y104.569
G1 F900 X86.539 Y106.205 E28.9421
G1 X86.716 Y107.822 E28.98538
G1 X87.041 Y109.426 E29.02893
G1 X87.504 Y110.993 E29.07241
G1 X88.105 Y112.514 E29.11592
G1 X88.838 Y113.978 E29.15949
G1 X89.699 Y115.368 E29.20299
G1 X90.677 Y116.679 E29.24651
G1 X91.77 Y117.897 E29.29006
G1 X92.958 Y119.008 E29.33334
G1 X94.247 Y120.016 E29.37688
G1 X95.619 Y120.906 E29.42039
G1 X97.065 Y121.672 E29.46393
G1 X98.572 Y122.306 E29.50744
G1 X100.129 Y122.802 E29.55092
G1 X101.725 Y123.161 E29.59444
G1 X103.346 Y123.378 E29.63796
G1 X104.972 Y123.447 E29.68126
G1 X106.606 Y123.377 E29.72478
G1 X108.228 Y123.16 E29.76832
G1 X109.824 Y122.8 E29.81186
G1 X111.381 Y122.303 E29.85535
G1 X112.887 Y121.668 E29.89883
G1 X114.334 Y120.903 E29.94239
G1 X115.706 Y120.012 E29.98591
G1 X116.986 Y119.008 E30.0292
G1 X118.181 Y117.892 E30.07271
G1 X119.273 Y116.674 E30.11623
G1 X120.252 Y115.363 E30.15977
G1 X121.111 Y113.97 E30.20332
G1 X121.843 Y112.507 E30.24684
G1 X122.443 Y110.986 E30.29035
G1 X122.906 Y109.417 E30.33388
G1 X123.229 Y107.822 E30.37718
G1 X123.409 Y106.197 E30.42068
G1 X123.444 Y104.562 E30.4642
G1 X123.336 Y102.931 E30.50769
G1 X123.082 Y101.314 E30.55124
G1 X122.689 Y99.726 E30.59477
G1 X122.155 Y98.181 E30.63827
G1 X121.488 Y96.688 E30.68178
G1 X120.694 Y95.266 E30.72511
G1 X119.774 Y93.913 E30.76865
G1 X118.737 Y92.649 E30.81215
