;FLAVOR:Marlin
;TIME:1823
;Filament used: 1.80999m, 0m
;Layer height: 0.2
;POSTPROCESSED
;Generated with Cura_SteamEngine 3.4.1
T0
M190 S75
M104 S248
M109 S248
M82 ;absolute extrusion mode
; Printer start settings begin
M92 X160 Y160 Z1600; Steps per unit
M201 X1000 Y1000 Z50 E1500 E1500 ; Max Accelleration
M203 X800 Y800 Z2 E90 E90 ; Max Feed
M205 X3.0 Y3.0 Z0.3 E5.0 ; Default Jerk
G28
G0 X0 Y0 Z15 F1200
G92 E-35
G1 E0 F200 ;Home
G92 E5
G1 F1000 E0
G29 ;Auto Bed Level
G92 F400 E-5
G1 E0
G0 X0 Y0 Z15.0 F6000 ;Move the platform down 15mm
G92 E0
G1 F200 E3
G92 E0
G92 E0
G1 F1200 E-6.5
;LAYER_COUNT:98
;LAYER:0
M107
G0 F1542.9 X71.291 Y84.924 Z0.16
;TYPE:SKIRT
G1 F1200 E0
G1 F900 X71.801 Y84.574 E0.01646
G1 X72.353 Y84.291 E0.03296
G1 X72.936 Y84.082 E0.04944
G1 X73.318 Y83.989 E0.0599
G1 X79.311 Y82.79 E0.22253
G1 X79.925 Y82.708 E0.23901
G1 X80.243 Y82.697 E0.24748
G1 X103.317 Y82.647 E0.86143
G1 X108.694 Y82.343 E1.00473
G1 X114.036 Y81.736 E1.14779
G1 X119.345 Y80.826 E1.29111
G1 X125.609 Y79.363 E1.46227
G1 X126.22 Y79.261 E1.47875
G1 X126.673 Y79.237 E1.49082
G1 X127.719 Y79.231 E1.51865
G1 X128.338 Y79.267 E1.53515
G1 X128.962 Y79.387 E1.55206
G1 X129.994 Y79.657 E1.58044
G1 X130.834 Y79.963 E1.60423
G1 X135.281 Y82.07 E1.73517
G1 X137.638 Y83.084 E1.80344
G1 X138.19 Y83.365 E1.81992
G1 X138.701 Y83.715 E1.8364
G1 X139.162 Y84.127 E1.85285
G1 X139.567 Y84.596 E1.86934
G1 X139.908 Y85.113 E1.88582
G1 X140.18 Y85.67 E1.90231
G1 X140.378 Y86.257 E1.9188
G1 X140.499 Y86.864 E1.93527
G1 X140.54 Y87.493 E1.95204
G1 X140.54 Y95.278 E2.15918
G1 X140.5 Y95.896 E2.17566
G1 X140.381 Y96.504 E2.19215
G1 X140.184 Y97.091 E2.20862
G1 X139.914 Y97.648 E2.22509
G1 X139.574 Y98.166 E2.24158
G1 X139.17 Y98.636 E2.25807
G1 X138.709 Y99.049 E2.27454
G1 X138.069 Y99.475 E2.29499
G1 X134.696 Y101.347 E2.39764
G1 X134.329 Y101.531 E2.40856
G1 X128.401 Y104.186 E2.58139
G1 X123.642 Y106.676 E2.72431
G1 X118.99 Y109.455 E2.86849
G1 X116.814 Y110.882 E2.93773
G1 X112.409 Y114.049 E3.08209
G1 X108.206 Y117.446 E3.22588
G1 X104.221 Y121.056 E3.36895
G1 X100.433 Y124.903 E3.51261
G1 X97.744 Y127.91 E3.61995
G1 X97.229 Y128.406 E3.63897
G1 X96.453 Y129.049 E3.66579
G1 X95.951 Y129.413 E3.68228
G1 X95.356 Y129.732 E3.70025
G1 X94.358 Y130.18 E3.72936
G1 X93.778 Y130.397 E3.74583
G1 X93.214 Y130.53 E3.76125
G1 X92.259 Y130.696 E3.78704
G1 X91.643 Y130.763 E3.80353
G1 X91.103 Y130.755 E3.8179
G1 X90.142 Y130.688 E3.84353
G1 X89.528 Y130.606 E3.86002
G1 X88.974 Y130.459 E3.87527
G1 X88.042 Y130.152 E3.90138
G1 X87.468 Y129.921 E3.91784
G1 X86.962 Y129.64 E3.93324
G1 X86.114 Y129.099 E3.96
G1 X85.615 Y128.733 E3.97647
G1 X85.19 Y128.331 E3.99204
G1 X82.708 Y125.678 E4.0887
G1 X78.843 Y121.878 E4.23292
G1 X74.792 Y118.323 E4.37633
G1 X71.279 Y115.542 E4.49555
G1 X70.82 Y115.127 E4.51202
G1 X70.417 Y114.656 E4.52851
G1 X70.079 Y114.138 E4.54497
G1 X69.81 Y113.58 E4.56145
G1 X69.615 Y112.992 E4.57793
G1 X69.497 Y112.384 E4.59441
G1 X69.459 Y111.779 E4.61054
G1 X69.46 Y88.696 E5.22474
G1 X69.5 Y88.078 E5.24122
G1 X69.619 Y87.47 E5.2577
G1 X69.816 Y86.883 E5.27418
G1 X70.086 Y86.325 E5.29067
G1 X70.426 Y85.808 E5.30714
G1 X70.83 Y85.338 E5.32363
G1 X71.291 Y84.924 E5.34011
G0 F1542.9 X71.68 Y85.132
G1 F900 X72.182 Y84.818 E5.35587
G1 X72.723 Y84.573 E5.37167
G1 X73.397 Y84.382 E5.39031
G1 X79.39 Y83.183 E5.55293
G1 X80.244 Y83.097 E5.57577
G1 X103.323 Y83.047 E6.18986
G1 X108.726 Y82.741 E6.33386
G1 X114.094 Y82.132 E6.4776
G1 X119.422 Y81.218 E6.62144
G1 X125.7 Y79.752 E6.79298
G1 X126.286 Y79.657 E6.80878
G1 X126.676 Y79.637 E6.81917
G1 X127.722 Y79.631 E6.847
G1 X128.314 Y79.668 E6.86278
G1 X128.861 Y79.774 E6.87761
G1 X129.893 Y80.044 E6.90599
G1 X130.663 Y80.325 E6.9278
G1 X135.106 Y82.43 E7.05862
G1 X137.479 Y83.451 E7.12736
G1 X138.007 Y83.722 E7.14315
G1 X138.494 Y84.061 E7.15894
G1 X138.93 Y84.462 E7.1747
G1 X139.308 Y84.919 E7.19048
G1 X139.622 Y85.422 E7.20626
G1 X139.865 Y85.963 E7.22204
G1 X140.034 Y86.531 E7.23781
G1 X140.124 Y87.117 E7.25358
G1 X140.14 Y87.493 E7.26359
G1 X140.14 Y95.278 E7.47074
G1 X140.1 Y95.87 E7.48653
G1 X139.981 Y96.45 E7.50228
G1 X139.785 Y97.01 E7.51807
G1 X139.515 Y97.538 E7.53385
G1 X139.177 Y98.025 E7.54962
G1 X138.776 Y98.462 E7.5654
G1 X138.321 Y98.842 E7.58118
G1 X137.875 Y99.125 E7.59523
G1 X134.502 Y100.997 E7.69788
G1 X134.166 Y101.166 E7.70788
G1 X128.225 Y103.827 E7.88109
G1 X123.451 Y106.324 E8.02445
G1 X118.782 Y109.114 E8.16917
G1 X116.578 Y110.559 E8.2393
G1 X112.161 Y113.735 E8.38405
G1 X107.95 Y117.139 E8.52813
G1 X103.941 Y120.771 E8.67207
G1 X100.143 Y124.628 E8.8161
G1 X97.446 Y127.643 E8.92374
G1 X96.973 Y128.098 E8.9412
G1 X96.197 Y128.741 E8.96801
G1 X95.716 Y129.088 E8.98379
G1 X95.192 Y129.367 E8.99959
G1 X94.194 Y129.815 E9.0287
G1 X93.638 Y130.021 E9.04448
G1 X93.146 Y130.136 E9.05792
G1 X92.191 Y130.302 E9.08371
G1 X91.601 Y130.364 E9.0995
G1 X91.131 Y130.356 E9.112
G1 X90.17 Y130.289 E9.13764
G1 X89.583 Y130.208 E9.1534
G1 X89.099 Y130.079 E9.16673
G1 X88.167 Y129.772 E9.19284
G1 X87.618 Y129.549 E9.20861
G1 X87.178 Y129.302 E9.22203
G1 X86.33 Y128.761 E9.2488
G1 X85.852 Y128.41 E9.26458
G1 X85.483 Y128.058 E9.27815
G1 X83.011 Y125.415 E9.37444
G1 X79.122 Y121.592 E9.51954
G1 X75.032 Y118.004 E9.66431
G1 X71.528 Y115.229 E9.78324
G1 X71.089 Y114.83 E9.79903
G1 X70.707 Y114.376 E9.81482
G1 X70.39 Y113.875 E9.83059
G1 X70.144 Y113.336 E9.84635
G1 X69.972 Y112.768 E9.86215
G1 X69.878 Y112.183 E9.87791
G1 X69.859 Y111.779 E9.88867
G1 X69.86 Y88.696 E10.50287
G1 X69.9 Y88.104 E10.51866
G1 X70.019 Y87.523 E10.53444
G1 X70.215 Y86.964 E10.5502
G1 X70.485 Y86.436 E10.56598
G1 X70.823 Y85.949 E10.58175
G1 X71.224 Y85.511 E10.59755
G1 X71.68 Y85.132 E10.61333
G0 F1542.9 X71.616 Y85.694
G1 F900 X72.066 Y85.351 E10.62838
G1 X72.559 Y85.076 E10.6434
G1 X73.087 Y84.872 E10.65847
G1 X73.475 Y84.774 E10.66911
G1 X79.468 Y83.575 E10.83174
G1 X80.244 Y83.497 E10.85249
G1 X103.328 Y83.447 E11.46671
G1 X108.776 Y83.139 E11.6119
G1 X114.155 Y82.528 E11.75595
G1 X119.496 Y81.612 E11.90014
G1 X125.791 Y80.142 E12.07214
G1 X126.35 Y80.052 E12.08721
G1 X126.678 Y80.037 E12.09594
G1 X127.724 Y80.031 E12.12378
G1 X128.288 Y80.068 E12.13882
G1 X128.759 Y80.161 E12.15159
G1 X129.791 Y80.431 E12.17997
G1 X130.491 Y80.686 E12.1998
G1 X134.957 Y82.801 E12.33128
G1 X137.321 Y83.819 E12.39977
G1 X137.824 Y84.078 E12.41482
G1 X138.284 Y84.406 E12.42985
G1 X138.694 Y84.796 E12.44491
G1 X139.045 Y85.239 E12.45995
G1 X139.329 Y85.728 E12.475
G1 X139.542 Y86.251 E12.49002
G1 X139.679 Y86.8 E12.50508
G1 X139.74 Y87.493 E12.52359
G1 X139.74 Y95.278 E12.73073
G1 X139.7 Y95.842 E12.74578
G1 X139.581 Y96.395 E12.76083
G1 X139.385 Y96.925 E12.77586
G1 X139.117 Y97.422 E12.79089
G1 X138.781 Y97.877 E12.80594
G1 X138.384 Y98.28 E12.82099
G1 X137.934 Y98.622 E12.83603
G1 X137.681 Y98.775 E12.8439
G1 X134.308 Y100.647 E12.94654
G1 X134.002 Y100.801 E12.95566
G1 X128.047 Y103.468 E13.12927
G1 X123.267 Y105.969 E13.27282
G1 X118.557 Y108.783 E13.41881
G1 X116.362 Y110.221 E13.48863
G1 X111.918 Y113.417 E13.63428
G1 X107.684 Y116.839 E13.77913
G1 X103.661 Y120.484 E13.92358
G1 X99.852 Y124.353 E14.06804
G1 X97.147 Y127.377 E14.176
G1 X96.718 Y127.79 E14.19184
G1 X95.942 Y128.433 E14.21866
G1 X95.482 Y128.762 E14.23371
G1 X95.028 Y129.002 E14.24737
G1 X94.03 Y129.45 E14.27648
G1 X93.499 Y129.645 E14.29153
G1 X93.077 Y129.742 E14.30305
G1 X92.122 Y129.908 E14.32884
G1 X91.56 Y129.965 E14.34387
G1 X91.159 Y129.957 E14.35455
G1 X90.198 Y129.89 E14.38018
G1 X89.638 Y129.811 E14.39523
G1 X89.225 Y129.699 E14.40661
G1 X88.293 Y129.392 E14.43272
G1 X87.769 Y129.178 E14.44778
G1 X87.393 Y128.965 E14.45928
G1 X86.545 Y128.424 E14.48605
G1 X86.091 Y128.087 E14.50109
G1 X85.775 Y127.784 E14.51274
G1 X83.289 Y125.126 E14.60958
G1 X79.403 Y121.305 E14.75459
G1 X75.292 Y117.699 E14.90009
G1 X71.776 Y114.915 E15.01942
G1 X71.359 Y114.534 E15.03445
G1 X70.999 Y114.097 E15.04952
G1 X70.705 Y113.614 E15.06456
G1 X70.482 Y113.095 E15.07959
G1 X70.334 Y112.549 E15.09464
G1 X70.259 Y111.779 E15.11523
G1 X70.26 Y88.696 E15.72942
G1 X70.3 Y88.132 E15.74447
G1 X70.419 Y87.579 E15.75952
G1 X70.615 Y87.049 E15.77456
G1 X70.883 Y86.551 E15.7896
G1 X71.22 Y86.097 E15.80465
G1 X71.616 Y85.694 E15.81968
G0 F1542.9 X72.007 Y85.888
G1 F900 X72.449 Y85.584 E15.83396
G1 X72.932 Y85.35 E15.84824
G1 X73.554 Y85.166 E15.8655
G1 X79.547 Y83.967 E16.02812
G1 X80.245 Y83.897 E16.04678
G1 X103.351 Y83.847 E16.66159
G1 X108.791 Y83.539 E16.80657
G1 X114.217 Y82.923 E16.95187
G1 X119.57 Y82.005 E17.09639
G1 X125.882 Y80.531 E17.26886
G1 X126.412 Y80.449 E17.28313
G1 X126.68 Y80.437 E17.29026
G1 X127.726 Y80.431 E17.3181
G1 X128.261 Y80.468 E17.33237
G1 X128.658 Y80.548 E17.34314
G1 X129.69 Y80.818 E17.37153
G1 X130.32 Y81.048 E17.38937
G1 X134.772 Y83.157 E17.52045
G1 X137.163 Y84.186 E17.58971
G1 X137.639 Y84.434 E17.60399
G1 X138.072 Y84.75 E17.61826
G1 X138.453 Y85.127 E17.63252
G1 X138.775 Y85.557 E17.64681
G1 X139.029 Y86.029 E17.66107
G1 X139.21 Y86.534 E17.67535
G1 X139.314 Y87.06 E17.68961
G1 X139.34 Y87.493 E17.70116
G1 X139.34 Y95.278 E17.9083
G1 X139.3 Y95.813 E17.92258
G1 X139.181 Y96.336 E17.93685
G1 X138.986 Y96.835 E17.9511
G1 X138.718 Y97.3 E17.96538
G1 X138.385 Y97.72 E17.97965
G1 X137.993 Y98.086 E17.99392
G1 X137.487 Y98.426 E18.01014
G1 X134.114 Y100.298 E18.11278
G1 X133.839 Y100.436 E18.12097
G1 X127.878 Y103.106 E18.29476
G1 X123.055 Y105.628 E18.43958
G1 X118.366 Y108.43 E18.58492
G1 X116.126 Y109.898 E18.65619
G1 X111.67 Y113.102 E18.80222
G1 X107.428 Y116.532 E18.94737
G1 X103.39 Y120.19 E19.09235
G1 X99.552 Y124.088 E19.2379
G1 X96.849 Y127.11 E19.34578
G1 X96.463 Y127.482 E19.36005
G1 X95.687 Y128.125 E19.38686
G1 X95.25 Y128.435 E19.40112
G1 X94.864 Y128.637 E19.41271
G1 X93.866 Y129.085 E19.44182
G1 X93.362 Y129.268 E19.45609
G1 X93.009 Y129.348 E19.46572
G1 X92.054 Y129.514 E19.49151
G1 X91.52 Y129.566 E19.50579
G1 X91.187 Y129.558 E19.51465
G1 X90.226 Y129.491 E19.54028
G1 X89.695 Y129.414 E19.55456
G1 X89.35 Y129.319 E19.56408
G1 X88.418 Y129.012 E19.59019
G1 X87.922 Y128.807 E19.60447
G1 X87.608 Y128.628 E19.61409
G1 X86.76 Y128.087 E19.64085
G1 X86.33 Y127.766 E19.65513
G1 X86.067 Y127.511 E19.66488
G1 X83.578 Y124.85 E19.76183
G1 X79.664 Y121.002 E19.90787
G1 X75.552 Y117.395 E20.05341
G1 X72.024 Y114.601 E20.17316
G1 X71.63 Y114.238 E20.18741
G1 X71.294 Y113.82 E20.20168
G1 X71.023 Y113.357 E20.21596
G1 X70.825 Y112.859 E20.23022
G1 X70.702 Y112.337 E20.24449
G1 X70.659 Y111.779 E20.25938
G1 X70.66 Y88.696 E20.87357
G1 X70.7 Y88.161 E20.88785
G1 X70.819 Y87.638 E20.90212
G1 X71.014 Y87.139 E20.91638
G1 X71.282 Y86.674 E20.93066
G1 X71.615 Y86.254 E20.94492
G1 X72.007 Y85.888 E20.95919
G0 F1542.9 X72.396 Y86.095
G1 F900 X72.829 Y85.834 E20.97264
G1 X73.297 Y85.644 E20.98608
G1 X73.632 Y85.558 E20.99528
G1 X79.625 Y84.359 E21.15791
G1 X80.246 Y84.297 E21.17451
G1 X103.357 Y84.247 E21.78945
G1 X108.822 Y83.937 E21.9351
G1 X114.275 Y83.319 E22.08112
G1 X119.663 Y82.395 E22.22658
G1 X125.973 Y80.921 E22.399
G1 X126.683 Y80.837 E22.41802
G1 X127.729 Y80.831 E22.44585
G1 X128.233 Y80.868 E22.4593
G1 X128.557 Y80.935 E22.4681
G1 X129.589 Y81.205 E22.49649
G1 X130.149 Y81.409 E22.51235
G1 X134.633 Y83.533 E22.64437
G1 X137.005 Y84.554 E22.71308
G1 X137.452 Y84.79 E22.72653
G1 X137.857 Y85.093 E22.73999
G1 X138.208 Y85.456 E22.75342
G1 X138.498 Y85.87 E22.76687
G1 X138.719 Y86.325 E22.78033
G1 X138.866 Y86.809 E22.79379
G1 X138.94 Y87.493 E22.8121
G1 X138.94 Y95.278 E23.01924
G1 X138.9 Y95.782 E23.03269
G1 X138.781 Y96.273 E23.04614
G1 X138.587 Y96.74 E23.05959
G1 X138.321 Y97.17 E23.07304
G1 X137.991 Y97.553 E23.0865
G1 X137.604 Y97.879 E23.09996
G1 X137.293 Y98.076 E23.10976
G1 X133.92 Y99.948 E23.2124
G1 X133.675 Y100.07 E23.21968
G1 X127.72 Y102.737 E23.3933
G1 X122.857 Y105.281 E23.53933
G1 X118.14 Y108.099 E23.68553
G1 X115.905 Y109.564 E23.75664
G1 X111.439 Y112.775 E23.903
G1 X107.163 Y116.232 E24.04931
G1 X103.11 Y119.904 E24.19483
G1 X99.262 Y123.813 E24.34078
G1 X96.551 Y126.843 E24.44896
G1 X96.208 Y127.174 E24.46164
G1 X95.432 Y127.817 E24.48846
G1 X95.018 Y128.108 E24.50192
G1 X94.7 Y128.272 E24.51144
G1 X93.702 Y128.72 E24.54055
G1 X93.226 Y128.89 E24.554
G1 X92.94 Y128.954 E24.5618
G1 X91.985 Y129.12 E24.58759
G1 X91.482 Y129.167 E24.60103
G1 X91.214 Y129.159 E24.60817
G1 X90.253 Y129.092 E24.6338
G1 X89.753 Y129.017 E24.64725
G1 X89.475 Y128.939 E24.65494
G1 X88.543 Y128.632 E24.68104
G1 X88.077 Y128.437 E24.69449
G1 X87.823 Y128.291 E24.70228
G1 X86.975 Y127.75 E24.72905
G1 X86.572 Y127.445 E24.74249
G1 X86.359 Y127.238 E24.7504
G1 X83.857 Y124.563 E24.84785
G1 X79.944 Y120.716 E24.99386
G1 X75.803 Y117.083 E25.14044
G1 X72.273 Y114.288 E25.26025
G1 X71.902 Y113.944 E25.27371
G1 X71.591 Y113.545 E25.28717
G1 X71.346 Y113.103 E25.30061
G1 X71.174 Y112.628 E25.31406
G1 X71.078 Y112.131 E25.32753
G1 X71.059 Y111.779 E25.3369
G1 X71.06 Y88.696 E25.9511
G1 X71.1 Y88.192 E25.96455
G1 X71.219 Y87.7 E25.97802
G1 X71.414 Y87.234 E25.99146
G1 X71.679 Y86.804 E26.0049
G1 X72.01 Y86.421 E26.01837
G1 X72.396 Y86.095 E26.03182
G1 F1200 E19.53182
G0 F1542.9 X126.654 Y83.357
G0 X127.876 Y83.36
G0 X129.057 Y83.682
G0 X135.907 Y86.826
G0 X136.411 Y87.33
G0 X136.411 Y95.444
G0 X135.907 Y95.948
G0 X125.593 Y95.948
G0 X85.25 Y94.287
;TYPE:SUPPORT
G1 F1200 E26.03182
G1 F900 X95.857 Y94.287 E26.31405
G1 X95.973 Y94.403 E26.31841
G1 X95.974 Y106.171 E26.63154
G1 X95.858 Y106.287 E26.6359
G1 X85.25 Y106.287 E26.91816
G1 X85.25 Y94.287 E27.23746
G0 F1542.9 X86 Y94.447
G1 F900 X86 Y106.127 E27.54824
G0 F1542.9 X85.41 Y106
G1 F900 X95.814 Y106 E27.82507
G0 F1542.9 X94 Y106.127
G1 F900 X94 Y94.447 E28.13585
G0 F1542.9 X92 Y94.447
G1 F900 X92 Y106.127 E28.44664
G0 F1542.9 X90 Y106.127
G1 F900 X90 Y94.447 E28.75742
G0 F1542.9 X88 Y94.447
G1 F900 X88 Y106.127 E29.0682
G0 F1542.9 X85.41 Y104
G1 F900 X95.814 Y104 E29.34503
G0 F1542.9 X95.814 Y102
G1 F900 X85.41 Y102 E29.62186
G0 F1542.9 X85.41 Y100
G1 F900 X95.814 Y100 E29.89869
G0 F1542.9 X95.814 Y98
G1 F900 X85.41 Y98 E30.17553
G0 F1542.9 X85.41 Y96
G1 F900 X95.814 Y96 E30.45236
G0 F1542.9 X129.974 Y96.287
G1 F900 X132.516 Y96.287 E30.51999
G1 X132.234 Y96.961 E30.53943
G1 X130.258 Y96.961 E30.59201
G1 X129.974 Y96.287 E30.61147
G0 F1542.9 X132 Y96.447
G1 F900 X132 Y96.801 E30.62089
G1 F1200 E24.12089
G0 F1542.9 X132 Y95.952
G0 X132 Y94.667
G0 X129.985 Y86.794
;TYPE:WALL-INNER
G1 F1200 E30.62089
G1 F900 X130.018 Y86.851 E30.62264
G1 X130.036 Y86.919 E30.62452
G1 X130.01 Y86.856
G1 X129.985 Y86.794 E30.62454
G0 F1542.9 X129.626 Y86.183
G1 F900 X129.585 Y86.129 E30.62634
G1 X129.633 Y86.177 E30.62635
G1 X129.667 Y86.238 E30.62819
G1 X129.626 Y86.183
G0 F1542.9 X129.075 Y85.616
G1 F900 X129.122 Y85.664 E30.62998
G1 X129.07 Y85.624
G1 X129.019 Y85.584 E30.63167
G1 X129.075 Y85.616 E30.63169
G0 F1542.9 X128.397 Y85.223
G1 F900 X128.459 Y85.259 E30.6336
G1 X128.394 Y85.232 E30.63361
G1 X128.33 Y85.205 E30.63544
G1 X128.397 Y85.223 E30.63547
G0 F1542.9 X127.644 Y85.021
G1 F900 X127.706 Y85.038 E30.63718
G1 X127.644 Y85.03
G1 X127.581 Y85.021 E30.63883
G1 X127.644 Y85.021 E30.63885
G0 F1542.9 X126.856 Y85.021
G1 F900 X126.919 Y85.021 E30.64053
G1 X126.858 Y85.029
G1 X126.794 Y85.038 E30.64223
G1 X126.856 Y85.021 E30.64224
G0 F1542.9 X126.041 Y85.259
G1 F900 X126.103 Y85.223 E30.64415
G1 X126.17 Y85.205 E30.646
G1 X126.106 Y85.231 E30.64602
G1 X126.041 Y85.259
G0 F1542.9 X125.425 Y85.616
G1 F900 X125.481 Y85.584 E30.64773
G1 X125.431 Y85.623 E30.64774
G1 X125.378 Y85.664 E30.64951
G1 X125.425 Y85.616 E30.64954
G0 F1542.9 X124.915 Y86.129
G1 F900 X124.875 Y86.182 E30.65131
G1 X124.833 Y86.238 E30.65317
G1 X124.867 Y86.177 E30.65318
G1 X124.915 Y86.129 E30.65321
G0 F1542.9 X124.462 Y86.927
G1 F900 X124.482 Y86.851 E30.65531
G1 X124.517 Y86.79 E30.65718
G1 X124.492 Y86.854
G1 X124.462 Y86.927 E30.65719
G0 F1542.9 X120.002 Y91.756
G0 X84.022 Y91.759
G0 X84.014 Y109.585
G0 X93.688 Y120.261
G1 F900 X93.53 Y120.065 E30.66389
G1 X93.45 Y119.966 E30.66727
G1 X93.539 Y120.055 E30.6673
