;FLAVOR:Marlin
;TIME:4079
;Filament used: 5.32074m, 0m
;Layer height: 0.2
;POSTPROCESSED
;Generated with Cura_SteamEngine 3.4.1
T0
M190 S75
M104 S248
M109 S248
M82 ;absolute extrusion mode
; Printer start settings begin
M92 X160 Y160 Z1600; Steps per unit
M201 X1000 Y1000 Z50 E1500 E1500 ; Max Accelleration
M203 X800 Y800 Z2 E90 E90 ; Max Feed
M205 X3.0 Y3.0 Z0.3 E5.0 ; Default Jerk
G28
G0 X0 Y0 Z15 F1200
G92 E-35
G1 E0 F200 ;Home
G92 E5
G1 F1000 E0
G29 ;Auto Bed Level
G92 F400 E-5
G1 E0
G0 X0 Y0 Z15.0 F6000 ;Move the platform down 15mm
G92 E0
G1 F200 E3
G92 E0
G92 E0
G1 F1200 E-6.5
;LAYER_COUNT:81
;LAYER:0
M107
G0 F1542.9 X72.541 Y91.234 Z0.16
;TYPE:SKIRT
G1 F1200 E0
G1 F900 X73.238 Y90.778 E0.02216
G1 X76.294 Y89.135 E0.11448
G1 X80.998 Y86.326 E0.26027
G1 X83.169 Y84.901 E0.32936
G1 X87.68 Y81.663 E0.47711
G1 X88.205 Y81.335 E0.49359
G1 X88.615 Y81.139 E0.50568
G1 X89.576 Y80.734 E0.53343
G1 X90.161 Y80.531 E0.5499
G1 X90.88 Y80.39 E0.5694
G1 X92.207 Y80.234 E0.60495
G1 X92.768 Y80.201 E0.6199
G1 X134.492 Y80.21 E1.7301
G1 X135.11 Y80.25 E1.74658
G1 X135.718 Y80.369 E1.76306
G1 X136.305 Y80.566 E1.77954
G1 X136.862 Y80.837 E1.79602
G1 X137.38 Y81.177 E1.81251
G1 X137.849 Y81.581 E1.82898
G1 X138.263 Y82.042 E1.84546
G1 X138.614 Y82.552 E1.86194
G1 X138.896 Y83.103 E1.87841
G1 X139.105 Y83.686 E1.89489
G1 X139.237 Y84.292 E1.91139
G1 X139.291 Y85.01 E1.93055
G1 X139.291 Y126.991 E3.04758
G1 X139.251 Y127.609 E3.06406
G1 X139.132 Y128.217 E3.08055
G1 X138.935 Y128.804 E3.09702
G1 X138.665 Y129.361 E3.11349
G1 X138.325 Y129.879 E3.12998
G1 X137.921 Y130.349 E3.14647
G1 X137.46 Y130.762 E3.16294
G1 X136.95 Y131.113 E3.17941
G1 X136.399 Y131.396 E3.19589
G1 X135.816 Y131.605 E3.21237
G1 X135.21 Y131.737 E3.22887
G1 X134.491 Y131.791 E3.24806
G1 X75.509 Y131.791 E4.81746
G1 X74.891 Y131.751 E4.83394
G1 X74.283 Y131.632 E4.85042
G1 X73.696 Y131.435 E4.8669
G1 X73.139 Y131.165 E4.88337
G1 X72.621 Y130.825 E4.89985
G1 X72.151 Y130.421 E4.91634
G1 X71.738 Y129.96 E4.93281
G1 X71.387 Y129.45 E4.94929
G1 X71.104 Y128.899 E4.96577
G1 X70.895 Y128.316 E4.98225
G1 X70.763 Y127.71 E4.99875
G1 X70.709 Y126.998 E5.01775
G1 X70.7 Y120.714 E5.18496
G1 X70.708 Y120.423 E5.1927
G1 X71.025 Y115.081 E5.33509
G1 X71.102 Y109.662 E5.4793
G1 X70.874 Y104.239 E5.62372
G1 X70.724 Y102.365 E5.67374
G1 X70.709 Y101.982 E5.68394
G1 X70.71 Y95.005 E5.86959
G1 X70.75 Y94.387 E5.88606
G1 X70.869 Y93.779 E5.90255
G1 X71.066 Y93.192 E5.91902
G1 X71.336 Y92.635 E5.93549
G1 X71.676 Y92.117 E5.95198
G1 X72.08 Y91.648 E5.96845
G1 X72.541 Y91.234 E5.98494
G0 F1542.9 X72.93 Y91.442
G1 F900 X73.427 Y91.13 E6.00055
G1 X76.509 Y89.473 E6.09366
G1 X81.189 Y86.678 E6.2387
G1 X83.405 Y85.224 E6.30923
G1 X87.913 Y81.988 E6.45688
G1 X88.417 Y81.675 E6.47267
G1 X88.77 Y81.507 E6.48307
G1 X89.731 Y81.102 E6.51082
G1 X90.292 Y80.909 E6.5266
G1 X90.926 Y80.787 E6.54378
G1 X92.253 Y80.631 E6.57933
G1 X92.768 Y80.601 E6.59306
G1 X134.492 Y80.61 E7.70326
G1 X135.084 Y80.65 E7.71904
G1 X135.664 Y80.769 E7.7348
G1 X136.224 Y80.966 E7.75059
G1 X136.752 Y81.235 E7.76636
G1 X137.239 Y81.574 E7.78215
G1 X137.676 Y81.974 E7.79791
G1 X138.055 Y82.43 E7.81369
G1 X138.37 Y82.933 E7.82948
G1 X138.614 Y83.473 E7.84525
G1 X138.783 Y84.042 E7.86104
G1 X138.874 Y84.627 E7.8768
G1 X138.891 Y85.01 E7.887
G1 X138.891 Y126.991 E9.00403
G1 X138.851 Y127.583 E9.01982
G1 X138.732 Y128.163 E9.03557
G1 X138.536 Y128.723 E9.05136
G1 X138.266 Y129.251 E9.06714
G1 X137.928 Y129.738 E9.08291
G1 X137.527 Y130.175 E9.09869
G1 X137.072 Y130.555 E9.11447
G1 X136.569 Y130.869 E9.13025
G1 X136.029 Y131.114 E9.14602
G1 X135.46 Y131.283 E9.16182
G1 X134.875 Y131.374 E9.17757
G1 X134.491 Y131.391 E9.1878
G1 X75.509 Y131.391 E10.7572
G1 X74.917 Y131.351 E10.77298
G1 X74.337 Y131.232 E10.78874
G1 X73.777 Y131.036 E10.80453
G1 X73.249 Y130.766 E10.82031
G1 X72.762 Y130.428 E10.83608
G1 X72.325 Y130.027 E10.85186
G1 X71.945 Y129.572 E10.86763
G1 X71.631 Y129.069 E10.88341
G1 X71.386 Y128.529 E10.89919
G1 X71.217 Y127.96 E10.91498
G1 X71.126 Y127.375 E10.93074
G1 X71.109 Y126.997 E10.9408
G1 X71.1 Y120.713 E11.10801
G1 X71.108 Y120.447 E11.11509
G1 X71.424 Y115.11 E11.25735
G1 X71.502 Y109.651 E11.40262
G1 X71.274 Y104.217 E11.54733
G1 X71.123 Y102.333 E11.59762
G1 X71.109 Y101.982 E11.60697
G1 X71.11 Y95.005 E11.79261
G1 X71.15 Y94.414 E11.80837
G1 X71.269 Y93.833 E11.82415
G1 X71.465 Y93.273 E11.83994
G1 X71.735 Y92.745 E11.85572
G1 X72.073 Y92.258 E11.87149
G1 X72.474 Y91.821 E11.88728
G1 X72.93 Y91.442 E11.90305
G0 F1542.9 X72.867 Y92.004
G1 F900 X73.316 Y91.661 E11.91809
G1 X73.616 Y91.483 E11.92737
G1 X76.701 Y89.825 E12.02056
G1 X81.415 Y87.009 E12.16666
G1 X83.615 Y85.566 E12.23667
G1 X88.146 Y82.313 E12.38509
G1 X88.628 Y82.016 E12.40015
G1 X88.926 Y81.876 E12.40891
G1 X89.887 Y81.471 E12.43666
G1 X90.422 Y81.289 E12.4517
G1 X90.973 Y81.184 E12.46662
G1 X92.3 Y81.028 E12.50217
G1 X92.768 Y81.001 E12.51465
G1 X134.492 Y81.01 E13.62484
G1 X135.056 Y81.05 E13.63989
G1 X135.608 Y81.169 E13.65491
G1 X136.139 Y81.365 E13.66997
G1 X136.636 Y81.634 E13.68501
G1 X137.091 Y81.97 E13.70006
G1 X137.493 Y82.367 E13.71509
G1 X137.836 Y82.816 E13.73013
G1 X138.112 Y83.31 E13.74518
G1 X138.315 Y83.837 E13.76021
G1 X138.442 Y84.388 E13.77526
G1 X138.491 Y85.01 E13.79186
G1 X138.491 Y126.991 E14.90889
G1 X138.451 Y127.555 E14.92394
G1 X138.332 Y128.108 E14.93899
G1 X138.136 Y128.638 E14.95402
G1 X137.868 Y129.135 E14.96905
G1 X137.532 Y129.59 E14.9841
G1 X137.135 Y129.993 E14.99915
G1 X136.685 Y130.335 E15.01419
G1 X136.192 Y130.611 E15.02922
G1 X135.664 Y130.815 E15.04429
G1 X135.114 Y130.942 E15.0593
G1 X134.491 Y130.991 E15.07593
G1 X75.509 Y130.991 E16.64533
G1 X74.945 Y130.951 E16.66038
G1 X74.392 Y130.832 E16.67543
G1 X73.862 Y130.636 E16.69046
G1 X73.365 Y130.368 E16.70549
G1 X72.91 Y130.032 E16.72054
G1 X72.507 Y129.635 E16.73559
G1 X72.165 Y129.185 E16.75063
G1 X71.889 Y128.692 E16.76566
G1 X71.685 Y128.164 E16.78072
G1 X71.558 Y127.614 E16.79574
G1 X71.509 Y126.997 E16.81221
G1 X71.5 Y120.713 E16.97942
G1 X71.507 Y120.47 E16.98589
G1 X71.824 Y115.116 E17.1286
G1 X71.903 Y109.64 E17.27432
G1 X71.673 Y104.197 E17.41927
G1 X71.522 Y102.302 E17.46986
G1 X71.509 Y101.982 E17.47838
G1 X71.51 Y95.005 E17.66402
G1 X71.55 Y94.442 E17.67904
G1 X71.669 Y93.889 E17.69409
G1 X71.865 Y93.359 E17.70913
G1 X72.134 Y92.861 E17.72419
G1 X72.47 Y92.407 E17.73922
G1 X72.867 Y92.004 E17.75427
G0 F1542.9 X73.258 Y92.198
G1 F900 X73.806 Y91.835 E17.77176
G1 X76.89 Y90.177 E17.86493
G1 X81.623 Y87.35 E18.01162
G1 X83.846 Y85.892 E18.08235
G1 X88.38 Y82.637 E18.23086
G1 X88.837 Y82.358 E18.24511
G1 X89.081 Y82.245 E18.25227
G1 X90.042 Y81.84 E18.28001
G1 X90.55 Y81.669 E18.29428
G1 X91.02 Y81.582 E18.30699
G1 X92.347 Y81.426 E18.34255
G1 X92.768 Y81.401 E18.35377
G1 X134.492 Y81.41 E19.46397
G1 X135.027 Y81.45 E19.47824
G1 X135.549 Y81.569 E19.49249
G1 X136.049 Y81.765 E19.50678
G1 X136.514 Y82.032 E19.52104
G1 X136.934 Y82.366 E19.53532
G1 X137.299 Y82.758 E19.54957
G1 X137.603 Y83.2 E19.56385
G1 X137.837 Y83.682 E19.5781
G1 X137.997 Y84.194 E19.59238
G1 X138.08 Y84.724 E19.60665
G1 X138.091 Y85.01 E19.61427
G1 X138.091 Y126.991 E20.7313
G1 X138.051 Y127.526 E20.74558
G1 X137.932 Y128.049 E20.75985
G1 X137.737 Y128.548 E20.7741
G1 X137.469 Y129.013 E20.78838
G1 X137.136 Y129.433 E20.80265
G1 X136.744 Y129.799 E20.81692
G1 X136.302 Y130.102 E20.83118
G1 X135.819 Y130.337 E20.84547
G1 X135.308 Y130.497 E20.85971
G1 X134.778 Y130.58 E20.87399
G1 X134.491 Y130.591 E20.88163
G1 X75.509 Y130.591 E22.45103
G1 X74.974 Y130.551 E22.46531
G1 X74.451 Y130.432 E22.47958
G1 X73.952 Y130.237 E22.49383
G1 X73.487 Y129.969 E22.50811
G1 X73.067 Y129.636 E22.52238
G1 X72.701 Y129.244 E22.53665
G1 X72.398 Y128.802 E22.5509
G1 X72.163 Y128.319 E22.5652
G1 X72.003 Y127.808 E22.57944
G1 X71.92 Y127.278 E22.59372
G1 X71.909 Y126.996 E22.60123
G1 X71.9 Y120.712 E22.76843
G1 X71.906 Y120.494 E22.77424
G1 X72.224 Y115.124 E22.91737
G1 X72.303 Y109.646 E23.06315
G1 X72.072 Y104.175 E23.20885
G1 X71.92 Y102.27 E23.2597
G1 X71.909 Y101.982 E23.26737
G1 X71.91 Y95.005 E23.45301
G1 X71.95 Y94.471 E23.46726
G1 X72.069 Y93.948 E23.48153
G1 X72.264 Y93.448 E23.49581
G1 X72.532 Y92.984 E23.51007
G1 X72.865 Y92.564 E23.52433
G1 X73.258 Y92.198 E23.53862
G0 F1542.9 X73.646 Y92.405
G1 F900 X73.995 Y92.187 E23.54957
G1 X77.105 Y90.515 E23.64352
G1 X81.825 Y87.696 E23.78981
G1 X84.071 Y86.222 E23.86129
G1 X88.613 Y82.962 E24.01005
G1 X89.236 Y82.613 E24.02905
G1 X90.197 Y82.208 E24.0568
G1 X90.677 Y82.049 E24.07025
G1 X91.066 Y81.979 E24.08077
G1 X92.393 Y81.823 E24.11632
G1 X92.768 Y81.801 E24.12632
G1 X134.492 Y81.81 E25.23651
G1 X134.996 Y81.85 E25.24997
G1 X135.487 Y81.969 E25.26341
G1 X135.954 Y82.164 E25.27688
G1 X136.384 Y82.43 E25.29033
G1 X136.766 Y82.76 E25.30376
G1 X137.092 Y83.146 E25.3172
G1 X137.353 Y83.579 E25.33066
G1 X137.543 Y84.048 E25.34412
G1 X137.656 Y84.541 E25.35758
G1 X137.691 Y85.01 E25.37009
G1 X137.691 Y126.991 E26.48713
G1 X137.651 Y127.495 E26.50058
G1 X137.532 Y127.986 E26.51402
G1 X137.338 Y128.453 E26.52748
G1 X137.072 Y128.883 E26.54093
G1 X136.742 Y129.266 E26.55438
G1 X136.355 Y129.592 E26.56785
G1 X135.922 Y129.853 E26.5813
G1 X135.454 Y130.043 E26.59474
G1 X134.961 Y130.156 E26.6082
G1 X134.491 Y130.191 E26.62074
G1 X75.509 Y130.191 E28.19014
G1 X75.005 Y130.151 E28.20359
G1 X74.514 Y130.032 E28.21703
G1 X74.047 Y129.838 E28.23049
G1 X73.617 Y129.572 E28.24394
G1 X73.234 Y129.242 E28.2574
G1 X72.908 Y128.855 E28.27086
G1 X72.647 Y128.422 E28.28431
G1 X72.457 Y127.954 E28.29775
G1 X72.344 Y127.461 E28.31121
G1 X72.309 Y126.996 E28.32362
G1 X72.3 Y120.712 E28.49082
G1 X72.306 Y120.518 E28.49599
G1 X72.624 Y115.154 E28.63896
G1 X72.703 Y109.636 E28.7858
G1 X72.472 Y104.151 E28.93188
G1 X72.319 Y102.238 E28.98294
G1 X72.309 Y101.983 E28.98973
G1 X72.31 Y95.006 E29.17538
G1 X72.35 Y94.502 E29.18883
G1 X72.469 Y94.01 E29.2023
G1 X72.664 Y93.544 E29.21574
G1 X72.93 Y93.114 E29.22919
G1 X73.26 Y92.731 E29.24264
G1 X73.646 Y92.405 E29.25609
G1 F1200 E22.75609
G0 F1542.9 X76.114 Y119.335
G0 X76.114 Y120.614
G0 X76.5 Y126
;TYPE:WALL-INNER
G1 F1200 E29.25609
G1 F900 X76.5 Y121 E29.38913
G1 X85.652 Y121 E29.63265
G1 X85.652 Y101 E30.16481
G1 X76.5 Y101 E30.40833
G1 X76.5 Y96 E30.54137
G1 X93.498 Y96 E30.99365
G1 X93.5 Y92.123 E31.09681
G1 X93.247 Y92.09 E31.1036
G1 X92.566 Y92 E31.12188
G1 X93.27 Y91.908 E31.12654
G1 X93.39 Y91.859 E31.12792
G1 X93.991 Y91.611 E31.14522
G1 X94.616 Y91.137 E31.16609
G1 X95.096 Y90.517 E31.18696
G1 X95.4 Y89.793 E31.20785
G1 X95.509 Y88.988 E31.22947
G1 X95.401 Y88.207 E31.25044
G1 X95.097 Y87.485 E31.27129
G1 X94.617 Y86.863 E31.29219
G1 X94.005 Y86.4 E31.31261
G1 X93.992 Y86.39 E31.31305
G1 X93.268 Y86.092 E31.33388
G1 X92.557 Y86.002 E31.35295
G1 X93.268 Y86.002 E31.35506
G1 X93.991 Y86.002 E31.36702
G1 X94.008 Y86.002 E31.36747
G1 X133.3 Y86 E32.41295
G1 X133.5 Y86 E32.41828
G1 X133.5 Y86.2 E32.42172
G1 X133.5 Y126 E33.48072
G1 X130.011 Y126 E33.57356
G1 X129.432 Y126 E33.58897
G1 X128.696 Y126 E33.60855
G1 X129.432 Y125.859 E33.61228
G1 X129.956 Y125.613 E33.62281
G1 X130.112 Y125.539 E33.62741
G1 X130.693 Y125.059 E33.64746
G1 X131.138 Y124.449 E33.66755
G1 X131.412 Y123.747 E33.6876
G1 X131.508 Y123 E33.70764
G1 X131.412 Y122.253 E33.72768
G1 X131.138 Y121.551 E33.74773
G1 X130.693 Y120.941 E33.76782
G1 X130.112 Y120.46 E33.78789
G1 X129.428 Y120.14 E33.80799
G1 X128.691 Y119.999 E33.82795
G1 X127.937 Y120.045 E33.84805
G1 X127.218 Y120.278 E33.86816
G1 X126.582 Y120.682 E33.88821
G1 X126.067 Y121.231 E33.90824
G1 X125.703 Y121.894 E33.92836
G1 X125.516 Y122.624 E33.94842
G1 X125.516 Y123.376 E33.96842
G1 X125.703 Y124.106 E33.98848
G1 X126.067 Y124.769 E34.0086
G1 X126.582 Y125.318 E34.02863
G1 X127.042 Y125.61 E34.04313
G1 X127.218 Y125.722 E34.04868
G1 X127.937 Y125.955 E34.06879
G1 X128.675 Y126 E34.08846
G1 X127.937 Y126 E34.08957
G1 X127.218 Y126 E34.09715
G1 X127.009 Y126 E34.1019
G1 X76.5 Y126 E35.44585
G0 F1542.9 X84.402 Y121.166
G0 X125.946 Y94.089
G1 F900 X126.793 Y94.626 E35.47253
G1 X127.748 Y94.937 E35.49926
G1 X128.751 Y94.999 E35.52599
G1 X129.739 Y94.811 E35.55275
G1 X130.647 Y94.383 E35.57946
G1 X131.422 Y93.744 E35.60619
G1 X132.012 Y92.93 E35.63294
G1 X132.381 Y91.996 E35.65966
G1 X132.508 Y91 E35.68638
G1 X132.381 Y90.004 E35.7131
G1 X132.012 Y89.07 E35.73982
G1 X131.422 Y88.256 E35.76657
G1 X130.647 Y87.617 E35.79329
G1 X129.739 Y87.189 E35.82
G1 X128.751 Y87.001 E35.84676
G1 X127.748 Y87.063 E35.8735
G1 X126.793 Y87.374 E35.90023
G1 X125.946 Y87.911 E35.92691
G1 X125.258 Y88.645 E35.95368
G1 X124.774 Y89.526 E35.98043
G1 X124.524 Y90.497 E36.00711
G1 X124.524 Y91.503 E36.03387
G1 X124.774 Y92.474 E36.06055
G1 X125.258 Y93.355 E36.0873
G1 X125.946 Y94.089 E36.11407
G0 F1542.9 X125.112 Y92.34
G0 X124.885 Y91.457
G0 X124.885 Y90.543
G0 X125.112 Y89.66
G0 X125.552 Y88.859
G0 X126.178 Y88.192
G0 X126.948 Y87.703
G0 X127.651 Y87.475
G0 X128.732 Y87.304
G0 X128.726 Y87.403
G1 F900 X127.824 Y87.459 E36.13811
G1 X126.965 Y87.739 E36.16215
G1 X126.203 Y88.222 E36.18616
G1 X125.584 Y88.882 E36.21024
G1 X125.149 Y89.674 E36.23428
G1 X124.924 Y90.548 E36.25829
G1 X124.924 Y91.452 E36.28235
G1 X125.149 Y92.326 E36.30636
G1 X125.584 Y93.118 E36.3304
G1 X126.203 Y93.778 E36.35448
G1 X126.965 Y94.261 E36.37848
G1 X127.824 Y94.541 E36.40252
G1 X128.726 Y94.597 E36.42657
G1 X129.614 Y94.428 E36.45062
G1 X130.431 Y94.043 E36.47466
G1 X131.128 Y93.468 E36.4987
G1 X131.659 Y92.736 E36.52276
G1 X131.991 Y91.896 E36.54679
G1 X132.105 Y91 E36.57083
G1 X131.991 Y90.104 E36.59486
G1 X131.659 Y89.264 E36.61889
G1 X131.128 Y88.532 E36.64295
G1 X130.431 Y87.957 E36.667
G1 X129.614 Y87.572 E36.69103
G1 X128.726 Y87.403 E36.71508
G0 F1542.9 X128.732 Y87.304
G0 X129.626 Y87.534
G0 X130.452 Y87.924
G0 X131.157 Y88.505
G0 X131.694 Y89.245
G0 X132.029 Y90.095
G0 X132.122 Y90.827
G0 X131.118 Y122.329
G0 X131.022 Y122.353
G1 F900 X130.784 Y121.745 E36.73245
G1 X130.399 Y121.217 E36.74984
G1 X129.896 Y120.801 E36.76721
G1 X129.304 Y120.523 E36.78461
G1 X128.665 Y120.401 E36.80192
G1 X128.012 Y120.441 E36.81933
G1 X127.39 Y120.643 E36.83673
G1 X126.839 Y120.993 E36.8541
G1 X126.393 Y121.468 E36.87144
G1 X126.078 Y122.042 E36.88886
G1 X125.916 Y122.674 E36.90622
G1 X125.916 Y123.326 E36.92357
G1 X126.078 Y123.958 E36.94093
G1 X126.393 Y124.532 E36.95835
G1 X126.839 Y125.007 E36.97568
G1 X127.39 Y125.357 E36.99305
G1 X128.012 Y125.559 E37.01045
G1 X128.665 Y125.599 E37.02786
G1 X129.307 Y125.476 E37.04525
G1 X129.896 Y125.199 E37.06257
G1 X130.399 Y124.783 E37.07994
G1 X130.784 Y124.255 E37.09733
G1 X131.022 Y123.647 E37.1147
G1 X131.105 Y123 E37.13206
G1 X131.022 Y122.353 E37.14941
G0 F1542.9 X131.118 Y122.329
G0 X130.819 Y121.726
G0 X130.428 Y121.19
G0 X93.13 Y92.448
G0 X89.65 Y90.652
G0 X89.564 Y90.702
G1 F900 X89.221 Y89.88 E37.17311
G1 X89.105 Y89 E37.19673
G1 X89.22 Y88.121 E37.22032
G1 X89.563 Y87.299 E37.24402
G1 X90.101 Y86.599 E37.26751
G1 X90.802 Y86.061 E37.29102
G1 X91.624 Y85.72 E37.3147
G1 X92.54 Y85.6 E37.33928
G1 X133.9 Y85.6 E38.4398
G1 X133.9 Y126.4 E39.52541
G1 X76.1 Y126.4 E41.06335
G1 X76.1 Y120.6 E41.21768
G1 X85.252 Y120.6 E41.4612
G1 X85.252 Y101.4 E41.97207
G1 X76.1 Y101.4 E42.21559
G1 X76.1 Y95.6 E42.36992
G1 X93.098 Y95.6 E42.8222
G1 X93.1 Y92.474 E42.90538
G1 X91.625 Y92.28 E42.94497
G1 X90.802 Y91.939 E42.96867
G1 X90.102 Y91.402 E42.99214
G1 X89.564 Y90.702 E43.01564
G0 F1542.9 X89.65 Y90.652
G0 X89.889 Y89.707
G0 X89.985 Y89.681
G1 F900 X90.247 Y90.308 E43.03372
G1 X90.662 Y90.846 E43.0518
G1 X91.201 Y91.259 E43.06986
G1 X91.829 Y91.518 E43.08794
G1 X92.504 Y91.605 E43.10605
G1 X93.166 Y91.518 E43.12381
G1 X93.791 Y91.261 E43.1418
G1 X94.332 Y90.85 E43.15987
G1 X94.748 Y90.314 E43.17793
G1 X95.011 Y89.687 E43.19602
G1 X95.105 Y88.989 E43.21476
G1 X95.012 Y88.314 E43.23289
G1 X94.749 Y87.688 E43.25096
G1 X94.333 Y87.15 E43.26905
G1 X93.792 Y86.74 E43.28711
G1 X93.165 Y86.482 E43.30515
G1 X92.49 Y86.396 E43.32326
G1 X91.816 Y86.486 E43.34135
G1 X91.188 Y86.75 E43.35948
