;FLAVOR:Marlin
;TIME:3701
;Filament used: 2.30629m, 0.224684m
;Layer height: 0.16
;Generated with Cura_SteamEngine 3.4.1
T0
M190 S70
M104 S248
M104 T1 S200
M109 S248
M109 T1 S200
M82 ;absolute extrusion mode
; Printer start settings begin
; Calibration section to overwrite Firmware values
; Identifier CALIBR, CALRES and CALMPE, surrounded by #, + or - can be used in post processing 
; #CALIBR# M92 X160 Y160 Z3200 ; +CALIBR+ Steps per unit
; #CALRESO# M201 X1000 Y1000 Z50 E1500 E1500 ; +CALRESO+ Max Accelleration
; #CALRESO# M203 X800 Y800 Z2 E90 E90 ; +CALRESO+ Max Feed
; #CALRESO# M205 X3.0 Y3.0 Z0.3 E5.0 ; +CALRESO+ Default Jerk
; #CALMPE# M951 L32 R138 G32 N75 H300 D10 C0 ; +CALMPE+ Parking kinematic values / needs MPE kinematic to be compiled and activated in firmware
M218 T1 X0.70 Y0.20 Z0.25; +CALMPE+ T1 Nozzle offset values
M851 Z-0.95 ; +CALMPE+ System Z Probe Offset
G28 ;Home
G0 X32 Y0 F9000
G92 X0 E5
G1 F1000 E0
; #MPE# G29 ; -MPE- Auto Bed Level, uses this if FW values are set correct.
G29 X3 Y3 L0 R109 F32 B168 ; +MPE+ Auto Bed Leveling, needed if not poroper defined in Firmware 
G92 E-5
G1 E0 F400
G0 Z15.0 F100 ;Move the platform down 15mm
G0 X0 Y0 F9000 ;Move to front
G1 F200 E3
G92 E0
; Printer start settings end
G92 E0
G1 F1200 E-6.5
;LAYER_COUNT:166
;LAYER:0
M107
M104 T1 S210
G0 F1542.9 X25.808 Y81.006 Z0.16
;TYPE:SKIRT
G1 F1200 E0
G1 F900 X26.401 Y80.825 E0.0165
G1 X27.012 Y80.722 E0.03298
G1 X27.496 Y80.697 E0.04588
G1 X59.616 Y80.647 E0.90053
G1 X64.991 Y80.343 E1.04378
G1 X70.365 Y79.732 E1.18769
G1 X73.246 Y79.288 E1.26526
G1 X73.969 Y79.232 E1.28455
G1 X74.994 Y79.23 E1.31183
G1 X75.87 Y79.309 E1.33523
G1 X83.838 Y80.772 E1.55079
G1 X84.439 Y80.923 E1.56727
G1 X84.914 Y81.104 E1.5808
G1 X89.434 Y83.105 E1.71233
G1 X89.983 Y83.392 E1.72881
G1 X90.491 Y83.747 E1.7453
G1 X90.948 Y84.164 E1.76176
G1 X91.348 Y84.637 E1.77824
G1 X91.684 Y85.157 E1.79472
G1 X91.95 Y85.717 E1.81121
G1 X92.142 Y86.306 E1.8277
G1 X92.256 Y86.914 E1.84416
G1 X92.291 Y87.495 E1.85964
G1 X92.29 Y91.987 E1.97917
G1 X92.25 Y92.605 E1.99565
G1 X92.046 Y93.497 E2.01999
G1 X90.553 Y97.997 E2.14615
G1 X89.112 Y103.238 E2.29078
G1 X88.51 Y105.847 E2.36202
G1 X87.998 Y108.419 E2.4318
G1 X87.159 Y113.773 E2.576
G1 X86.628 Y119.142 E2.71955
G1 X86.402 Y124.515 E2.86265
G1 X86.479 Y129.91 E3.00621
G1 X86.862 Y135.279 E3.14943
G1 X87.545 Y140.611 E3.29247
G1 X88.54 Y145.95 E3.43697
G1 X89.129 Y148.504 E3.50671
G1 X89.809 Y151.117 E3.57856
G1 X91.399 Y156.306 E3.72296
G1 X92.287 Y158.819 E3.79388
G1 X93.895 Y162.896 E3.9105
G1 X94.027 Y163.276 E3.9212
G1 X94.443 Y164.661 E3.95968
G1 X94.623 Y165.569 E3.98431
G1 X94.766 Y167.014 E4.02294
G1 X94.787 Y167.633 E4.03942
G1 X94.764 Y167.972 E4.04847
G1 X94.61 Y169.487 E4.08898
G1 X94.428 Y170.397 E4.11368
G1 X94.015 Y171.757 E4.1515
G1 X93.797 Y172.337 E4.16798
G1 X93.653 Y172.629 E4.17665
G1 X92.951 Y173.939 E4.21619
G1 X92.624 Y174.465 E4.23267
G1 X92.43 Y174.718 E4.24115
G1 X91.526 Y175.819 E4.27906
G1 X90.873 Y176.474 E4.30367
G1 X89.718 Y177.428 E4.34353
G1 X89.216 Y177.791 E4.36001
G1 X88.924 Y177.96 E4.36899
G1 X87.628 Y178.653 E4.40809
G1 X87.065 Y178.909 E4.42455
G1 X86.718 Y179.025 E4.43429
G1 X85.234 Y179.461 E4.47544
G1 X84.344 Y179.634 E4.49957
G1 X82.962 Y179.768 E4.53651
G1 X82.343 Y179.787 E4.55299
G1 X82.029 Y179.767 E4.56136
G1 X80.576 Y179.624 E4.60021
G1 X79.965 Y179.524 E4.61668
G1 X79.651 Y179.44 E4.62533
G1 X78.232 Y179.009 E4.66479
G1 X77.652 Y178.791 E4.68128
G1 X77.353 Y178.643 E4.69016
G1 X76.037 Y177.935 E4.72992
G1 X75.511 Y177.607 E4.74641
G1 X75.259 Y177.413 E4.75487
G1 X74.152 Y176.501 E4.79304
G1 X73.7 Y176.077 E4.80953
G1 X73.493 Y175.841 E4.81788
G1 X72.56 Y174.704 E4.85702
G1 X72.199 Y174.201 E4.87349
G1 X72.039 Y173.923 E4.88203
G1 X71.343 Y172.622 E4.92128
G1 X71.215 Y172.366 E4.9289
G1 X69.775 Y169.239 E5.0205
G1 X67.284 Y164.422 E5.1648
G1 X64.552 Y159.797 E5.30773
G1 X61.546 Y155.311 E5.45141
G1 X58.306 Y151.021 E5.59446
G1 X54.827 Y146.918 E5.73759
G1 X51.115 Y143.013 E5.88095
G1 X47.17 Y139.306 E6.02499
G1 X45.157 Y137.571 E6.0957
G1 X40.929 Y134.226 E6.23915
G1 X36.503 Y131.114 E6.38312
G1 X33.353 Y129.092 E6.48271
G1 X32.854 Y128.724 E6.49921
G1 X32.438 Y128.329 E6.51448
G1 X30.031 Y125.753 E6.60828
G1 X26.173 Y121.953 E6.75237
G1 X22.105 Y118.379 E6.89645
G1 X18.526 Y115.54 E7.01801
G1 X18.067 Y115.124 E7.03449
G1 X17.665 Y114.653 E7.05097
G1 X17.327 Y114.134 E7.06745
G1 X17.058 Y113.576 E7.08393
G1 X16.864 Y112.988 E7.1004
G1 X16.747 Y112.38 E7.11688
G1 X16.709 Y111.779 E7.1329
G1 X16.71 Y88.693 E7.74718
G1 X16.75 Y88.075 E7.76365
G1 X16.869 Y87.467 E7.78014
G1 X17.066 Y86.88 E7.79661
G1 X17.336 Y86.322 E7.81311
G1 X17.676 Y85.805 E7.82957
G1 X18.08 Y85.335 E7.84606
G1 X18.541 Y84.921 E7.86255
G1 X19.251 Y84.458 E7.8851
G1 X25.244 Y81.262 E8.06583
G1 X25.808 Y81.006 E8.08231
G0 F1542.9 X25.973 Y81.371
G1 F900 X26.542 Y81.203 E8.09809
G1 X27.128 Y81.113 E8.11387
G1 X27.496 Y81.097 E8.12367
G1 X59.621 Y81.047 E8.97845
G1 X65.023 Y80.741 E9.12242
G1 X70.422 Y80.128 E9.267
G1 X73.307 Y79.683 E9.34467
G1 X73.969 Y79.632 E9.36234
G1 X74.994 Y79.63 E9.38961
G1 X75.798 Y79.702 E9.41109
G1 X83.766 Y81.165 E9.62665
G1 X84.34 Y81.311 E9.64241
G1 X84.752 Y81.47 E9.65416
G1 X89.272 Y83.471 E9.78569
G1 X89.797 Y83.747 E9.80147
G1 X90.28 Y84.091 E9.81725
G1 X90.712 Y84.497 E9.83302
G1 X91.086 Y84.957 E9.8488
G1 X91.394 Y85.463 E9.86456
G1 X91.632 Y86.007 E9.88036
G1 X91.794 Y86.577 E9.89613
G1 X91.879 Y87.164 E9.91191
G1 X91.891 Y87.495 E9.92072
G1 X91.89 Y91.987 E10.04024
G1 X91.85 Y92.579 E10.05603
G1 X91.666 Y93.371 E10.07767
G1 X90.17 Y97.88 E10.20407
G1 X88.732 Y103.111 E10.34842
G1 X88.116 Y105.784 E10.42141
G1 X87.604 Y108.353 E10.49111
G1 X86.762 Y113.726 E10.63582
G1 X86.228 Y119.12 E10.78005
G1 X86.002 Y124.504 E10.92343
G1 X86.079 Y129.926 E11.06772
G1 X86.464 Y135.323 E11.21168
G1 X87.148 Y140.664 E11.35496
G1 X88.151 Y146.044 E11.50058
G1 X88.738 Y148.59 E11.5701
G1 X89.421 Y151.216 E11.6423
G1 X91.021 Y156.437 E11.78759
G1 X91.915 Y158.965 E11.85894
G1 X93.523 Y163.043 E11.97558
G1 X93.644 Y163.391 E11.98538
G1 X94.06 Y164.776 E12.02386
G1 X94.225 Y165.609 E12.04646
G1 X94.368 Y167.054 E12.08509
G1 X94.366 Y167.932 E12.10846
G1 X94.212 Y169.447 E12.14898
G1 X94.045 Y170.281 E12.17161
G1 X93.632 Y171.641 E12.20943
G1 X93.3 Y172.44 E12.23245
G1 X92.598 Y173.75 E12.27199
G1 X92.121 Y174.464 E12.29484
G1 X91.217 Y175.565 E12.33275
G1 X90.618 Y176.165 E12.35531
G1 X89.463 Y177.119 E12.39517
G1 X88.736 Y177.607 E12.41846
G1 X87.44 Y178.3 E12.45757
G1 X86.899 Y178.544 E12.47336
G1 X86.605 Y178.642 E12.48161
G1 X85.121 Y179.078 E12.52276
G1 X84.306 Y179.235 E12.54485
G1 X82.924 Y179.369 E12.58179
G1 X82.068 Y179.369 E12.60457
G1 X80.615 Y179.226 E12.64342
G1 X79.767 Y179.057 E12.66642
G1 X78.348 Y178.626 E12.70588
G1 X77.542 Y178.291 E12.72911
G1 X76.226 Y177.583 E12.76887
G1 X75.513 Y177.104 E12.79173
G1 X74.406 Y176.192 E12.82989
G1 X73.803 Y175.587 E12.85262
G1 X72.87 Y174.45 E12.89175
G1 X72.391 Y173.735 E12.91465
G1 X71.695 Y172.434 E12.95391
G1 X71.578 Y172.199 E12.9609
G1 X70.123 Y169.04 E13.05344
G1 X67.639 Y164.235 E13.19736
G1 X64.894 Y159.589 E13.34095
G1 X61.873 Y155.081 E13.48534
G1 X58.622 Y150.776 E13.62888
G1 X55.114 Y146.639 E13.77321
G1 X51.406 Y142.737 E13.91644
G1 X47.434 Y139.005 E14.06146
G1 X45.422 Y137.271 E14.13213
G1 X41.162 Y133.9 E14.27668
G1 X36.717 Y130.775 E14.42125
G1 X33.569 Y128.755 E14.52078
G1 X33.092 Y128.402 E14.53657
G1 X32.73 Y128.056 E14.54989
G1 X30.309 Y125.465 E14.64424
G1 X26.444 Y121.658 E14.7886
G1 X22.356 Y118.066 E14.93339
G1 X18.775 Y115.226 E15.05501
G1 X18.336 Y114.827 E15.07079
G1 X17.955 Y114.373 E15.08656
G1 X17.639 Y113.872 E15.10232
G1 X17.392 Y113.332 E15.11812
G1 X17.221 Y112.765 E15.13388
G1 X17.127 Y112.179 E15.14967
G1 X17.109 Y111.779 E15.16033
G1 X17.11 Y88.693 E15.7746
G1 X17.15 Y88.101 E15.79039
G1 X17.269 Y87.52 E15.80617
G1 X17.465 Y86.961 E15.82193
G1 X17.735 Y86.433 E15.83771
G1 X18.073 Y85.946 E15.85348
G1 X18.474 Y85.508 E15.86928
G1 X18.93 Y85.129 E15.88506
G1 X19.44 Y84.811 E15.90105
G1 X25.433 Y81.615 E16.08177
G1 X25.973 Y81.371 E16.09754
G0 F1542.9 X26.137 Y81.737
G1 F900 X26.681 Y81.582 E16.11259
G1 X27.497 Y81.497 E16.13442
G1 X59.627 Y81.447 E16.98934
G1 X65.072 Y81.139 E17.13445
G1 X70.478 Y80.525 E17.27922
G1 X73.368 Y80.079 E17.35703
G1 X73.97 Y80.032 E17.3731
G1 X74.995 Y80.03 E17.40037
G1 X75.725 Y80.096 E17.41987
G1 X83.693 Y81.559 E17.63543
G1 X84.241 Y81.7 E17.65049
G1 X84.59 Y81.835 E17.66044
G1 X89.11 Y83.836 E17.79197
G1 X89.61 Y84.101 E17.80703
G1 X90.067 Y84.434 E17.82207
G1 X90.473 Y84.827 E17.83711
G1 X90.819 Y85.274 E17.85215
G1 X91.098 Y85.766 E17.8672
G1 X91.306 Y86.292 E17.88225
G1 X91.437 Y86.841 E17.89727
G1 X91.491 Y87.495 E17.91473
G1 X91.49 Y91.987 E18.03425
G1 X91.45 Y92.551 E18.0493
G1 X91.287 Y93.245 E18.06826
G1 X89.788 Y97.763 E18.19492
G1 X88.339 Y103.035 E18.3404
G1 X87.728 Y105.681 E18.41266
G1 X87.209 Y108.287 E18.48336
G1 X86.365 Y113.676 E18.6285
G1 X85.829 Y119.1 E18.77353
G1 X85.601 Y124.493 E18.91715
G1 X85.679 Y129.944 E19.06221
G1 X86.065 Y135.349 E19.20639
G1 X86.757 Y140.751 E19.3513
G1 X87.752 Y146.092 E19.49586
G1 X88.355 Y148.709 E19.56732
G1 X89.034 Y151.315 E19.63898
G1 X90.65 Y156.589 E19.78575
G1 X91.529 Y159.077 E19.85596
G1 X93.151 Y163.189 E19.97358
G1 X93.261 Y163.506 E19.9825
G1 X93.677 Y164.891 E20.02098
G1 X93.827 Y165.648 E20.04152
G1 X93.97 Y167.093 E20.08015
G1 X93.968 Y167.892 E20.10141
G1 X93.814 Y169.407 E20.14193
G1 X93.662 Y170.164 E20.16248
G1 X93.249 Y171.524 E20.2003
G1 X92.948 Y172.251 E20.22123
G1 X92.246 Y173.561 E20.26078
G1 X91.811 Y174.21 E20.28157
G1 X90.907 Y175.311 E20.31947
G1 X90.363 Y175.857 E20.33998
G1 X89.208 Y176.811 E20.37984
G1 X88.547 Y177.254 E20.40101
G1 X87.251 Y177.947 E20.44012
G1 X86.493 Y178.258 E20.46192
G1 X85.009 Y178.694 E20.50307
G1 X84.267 Y178.837 E20.52318
G1 X82.885 Y178.971 E20.56012
G1 X82.107 Y178.971 E20.58083
G1 X80.654 Y178.828 E20.61967
G1 X79.884 Y178.674 E20.64057
G1 X78.465 Y178.243 E20.68003
G1 X77.732 Y177.939 E20.70114
G1 X76.416 Y177.231 E20.74091
G1 X75.768 Y176.795 E20.76169
G1 X74.661 Y175.883 E20.79985
G1 X74.112 Y175.333 E20.82053
G1 X73.179 Y174.196 E20.85966
G1 X72.744 Y173.546 E20.88047
G1 X72.048 Y172.245 E20.91973
G1 X71.942 Y172.031 E20.92609
G1 X70.493 Y168.885 E21.01825
G1 X67.992 Y164.048 E21.16314
G1 X65.22 Y159.356 E21.30814
G1 X62.21 Y154.862 E21.45206
G1 X58.93 Y150.521 E21.59684
G1 X55.417 Y146.378 E21.74137
G1 X51.678 Y142.444 E21.88578
G1 X47.71 Y138.716 E22.03065
G1 X45.673 Y136.959 E22.10223
G1 X41.406 Y133.583 E22.247
G1 X36.947 Y130.448 E22.39204
G1 X33.785 Y128.419 E22.492
G1 X33.332 Y128.08 E22.50706
G1 X33.022 Y127.783 E22.51848
G1 X30.599 Y125.19 E22.61291
G1 X26.707 Y121.357 E22.75826
G1 X22.627 Y117.771 E22.90279
G1 X19.023 Y114.913 E23.02518
G1 X18.606 Y114.531 E23.04023
G1 X18.247 Y114.095 E23.05526
G1 X17.954 Y113.612 E23.07029
G1 X17.731 Y113.092 E23.08534
G1 X17.583 Y112.546 E23.10039
G1 X17.509 Y111.779 E23.1209
G1 X17.51 Y88.693 E23.73517
G1 X17.55 Y88.129 E23.75022
G1 X17.669 Y87.576 E23.76527
G1 X17.865 Y87.046 E23.7803
G1 X18.133 Y86.548 E23.79535
G1 X18.47 Y86.094 E23.8104
G1 X18.866 Y85.691 E23.82543
G1 X19.316 Y85.348 E23.84049
G1 X19.628 Y85.164 E23.85012
G1 X25.621 Y81.968 E24.03084
G1 X26.137 Y81.737 E24.04589
G0 F1542.9 X26.3 Y82.104
G1 F900 X26.817 Y81.963 E24.06015
G1 X27.497 Y81.897 E24.07832
G1 X59.649 Y81.847 E24.93383
G1 X65.088 Y81.539 E25.07878
G1 X70.535 Y80.921 E25.22465
G1 X73.429 Y80.474 E25.30256
G1 X73.971 Y80.432 E25.31703
G1 X74.996 Y80.43 E25.3443
G1 X75.653 Y80.489 E25.36185
G1 X83.621 Y81.952 E25.57741
G1 X84.14 Y82.088 E25.59169
G1 X84.428 Y82.201 E25.59992
G1 X88.948 Y84.202 E25.73145
G1 X89.421 Y84.455 E25.74572
G1 X89.851 Y84.776 E25.76
G1 X90.229 Y85.156 E25.77426
G1 X90.546 Y85.589 E25.78854
G1 X90.795 Y86.064 E25.80281
G1 X90.971 Y86.571 E25.81709
G1 X91.069 Y87.098 E25.83135
G1 X91.091 Y87.495 E25.84193
G1 X91.09 Y91.987 E25.96145
G1 X91.05 Y92.522 E25.97573
G1 X90.907 Y93.119 E25.99206
G1 X89.406 Y97.646 E26.11897
G1 X87.951 Y102.936 E26.26495
G1 X87.341 Y105.579 E26.33712
G1 X86.815 Y108.22 E26.40878
G1 X85.966 Y113.644 E26.55486
G1 X85.431 Y119.044 E26.69924
G1 X85.201 Y124.499 E26.84452
G1 X85.28 Y129.96 E26.98984
G1 X85.667 Y135.392 E27.13474
G1 X86.361 Y140.809 E27.28006
G1 X87.362 Y146.182 E27.42548
G1 X87.964 Y148.794 E27.4968
G1 X88.652 Y151.435 E27.56942
G1 X90.267 Y156.707 E27.71613
G1 X91.153 Y159.214 E27.78688
G1 X92.779 Y163.336 E27.90479
G1 X92.878 Y163.621 E27.91282
G1 X93.294 Y165.006 E27.95129
G1 X93.429 Y165.687 E27.96977
G1 X93.572 Y167.132 E28.0084
G1 X93.571 Y167.851 E28.02753
G1 X93.417 Y169.366 E28.06805
G1 X93.28 Y170.048 E28.08656
G1 X92.867 Y171.408 E28.12438
G1 X92.595 Y172.062 E28.14323
G1 X91.893 Y173.372 E28.18277
G1 X91.502 Y173.956 E28.20148
G1 X90.598 Y175.057 E28.23938
G1 X90.109 Y175.549 E28.25784
G1 X88.954 Y176.503 E28.2977
G1 X88.359 Y176.902 E28.31676
G1 X87.063 Y177.595 E28.35586
G1 X86.38 Y177.874 E28.3755
G1 X84.896 Y178.31 E28.41665
G1 X84.228 Y178.439 E28.43475
G1 X82.846 Y178.573 E28.4717
G1 X82.146 Y178.573 E28.49032
G1 X80.693 Y178.43 E28.52917
G1 X80 Y178.292 E28.54797
G1 X78.581 Y177.861 E28.58743
G1 X77.921 Y177.586 E28.60646
G1 X76.605 Y176.878 E28.64622
G1 X76.022 Y176.487 E28.6649
G1 X74.915 Y175.575 E28.70306
G1 X74.421 Y175.08 E28.72167
G1 X73.488 Y173.943 E28.76081
G1 X73.097 Y173.357 E28.77955
G1 X72.401 Y172.056 E28.81881
G1 X72.305 Y171.864 E28.82452
G1 X70.854 Y168.713 E28.91683
G1 X68.337 Y163.846 E29.06262
G1 X65.563 Y159.151 E29.20772
G1 X62.531 Y154.625 E29.35268
G1 X59.239 Y150.266 E29.49802
G1 X55.713 Y146.108 E29.64308
G1 X51.968 Y142.168 E29.78772
G1 X47.963 Y138.405 E29.93394
G1 X45.936 Y136.657 E30.00516
G1 X41.65 Y133.266 E30.15058
G1 X37.16 Y130.109 E30.29663
G1 X34.001 Y128.082 E30.3965
G1 X33.572 Y127.759 E30.41079
G1 X33.315 Y127.51 E30.42031
G1 X30.89 Y124.914 E30.51483
G1 X26.978 Y121.062 E30.66092
G1 X22.89 Y117.469 E30.80573
G1 X19.272 Y114.6 E30.92859
G1 X18.878 Y114.236 E30.94287
G1 X18.542 Y113.818 E30.95714
G1 X18.272 Y113.354 E30.97142
G1 X18.074 Y112.856 E30.98568
G1 X17.952 Y112.334 E30.99994
G1 X17.909 Y111.779 E31.01476
G1 X17.91 Y88.693 E31.62903
G1 X17.95 Y88.158 E31.64331
G1 X18.069 Y87.635 E31.65758
G1 X18.264 Y87.136 E31.67183
G1 X18.532 Y86.671 E31.68611
G1 X18.865 Y86.251 E31.70038
G1 X19.257 Y85.885 E31.71465
G1 X19.816 Y85.516 E31.73247
G1 X25.809 Y82.32 E31.91319
G1 X26.3 Y82.104 E31.92746
G0 F1542.9 X26.461 Y82.472
G1 F900 X26.95 Y82.345 E31.9409
G1 X27.498 Y82.297 E31.95554
G1 X59.655 Y82.247 E32.81118
G1 X65.119 Y81.937 E32.9568
G1 X70.591 Y81.316 E33.10333
G1 X73.49 Y80.869 E33.18138
G1 X73.972 Y80.832 E33.19425
G1 X74.997 Y80.83 E33.22152
G1 X75.581 Y80.883 E33.23712
G1 X83.549 Y82.346 E33.45268
G1 X84.266 Y82.567 E33.47264
G1 X88.786 Y84.568 E33.60417
G1 X89.231 Y84.808 E33.61762
G1 X89.632 Y85.116 E33.63108
G1 X89.98 Y85.483 E33.64453
G1 X90.266 Y85.9 E33.65799
G1 X90.482 Y86.357 E33.67144
G1 X90.624 Y86.842 E33.68488
G1 X90.691 Y87.495 E33.70235
G1 X90.69 Y91.987 E33.82187
G1 X90.65 Y92.491 E33.83533
G1 X90.527 Y92.993 E33.84908
G1 X89.023 Y97.529 E33.97624
G1 X87.563 Y102.837 E34.12272
G1 X86.945 Y105.514 E34.19582
G1 X86.42 Y108.149 E34.26731
G1 X85.57 Y113.579 E34.41355
G1 X85.031 Y119.022 E34.55909
G1 X84.801 Y124.489 E34.70468
G1 X84.88 Y129.977 E34.85072
G1 X85.269 Y135.435 E34.99632
G1 X85.964 Y140.862 E35.1419
G1 X86.973 Y146.276 E35.28844
G1 X87.573 Y148.879 E35.35951
G1 X88.266 Y151.541 E35.43271
G1 X89.887 Y156.831 E35.57992
G1 X90.781 Y159.36 E35.6513
G1 X92.407 Y163.483 E35.76922
G1 X92.495 Y163.736 E35.77635
G1 X92.911 Y165.121 E35.81483
G1 X93.03 Y165.727 E35.83126
G1 X93.173 Y167.172 E35.8699
G1 X93.173 Y167.811 E35.8869
G1 X93.019 Y169.326 E35.92742
G1 X92.897 Y169.932 E35.94387
G1 X92.484 Y171.292 E35.98169
G1 X92.243 Y171.873 E35.99842
G1 X91.541 Y173.183 E36.03797
G1 X91.193 Y173.703 E36.05462
G1 X90.289 Y174.804 E36.09252
