;FLAVOR:Marlin
;TIME:3593
;Filament used: 3.60312m, 0m
;Layer height: 0.2
;POSTPROCESSED
;Generated with Cura_SteamEngine 3.4.1
T0
M190 S75
M104 S248
M109 S248
M82 ;absolute extrusion mode
; Printer start settings begin
M92 X160 Y160 Z1600; Steps per unit
M201 X1000 Y1000 Z50 E1500 E1500 ; Max Accelleration
M203 X800 Y800 Z2 E90 E90 ; Max Feed
M205 X3.0 Y3.0 Z0.3 E5.0 ; Default Jerk
G28
G0 X0 Y0 Z15 F1200
G92 E-35
G1 E0 F200 ;Home
G92 E5
G1 F1000 E0
G29 ;Auto Bed Level
G92 F400 E-5
G1 E0
G0 X0 Y0 Z15.0 F6000 ;Move the platform down 15mm
G92 E0
G1 F200 E3
G92 E0
G92 E0
G1 F1200 E-6.5
;LAYER_COUNT:98
;LAYER:0
M107
G0 F1542.9 X70.867 Y90.468 Z0.16
;TYPE:SKIRT
G1 F1200 E0
G1 F900 X73.456 Y88.44 E0.08751
G1 X77.572 Y84.915 E0.2317
G1 X81.457 Y81.188 E0.37495
G1 X84.397 Y78.07 E0.48898
G1 X84.716 Y77.762 E0.50078
G1 X89.893 Y73.2 E0.68438
G1 X94.837 Y68.278 E0.87001
G1 X95.304 Y67.871 E0.88649
G1 X95.818 Y67.526 E0.90296
G1 X96.373 Y67.251 E0.91944
G1 X96.959 Y67.05 E0.93593
G1 X97.265 Y66.977 E0.9443
G1 X103.229 Y65.761 E1.10625
G1 X103.843 Y65.676 E1.12274
G1 X104.182 Y65.664 E1.13177
G1 X124.558 Y65.639 E1.67394
G1 X130.004 Y65.485 E1.8189
G1 X135.377 Y65.028 E1.96238
G1 X140.708 Y64.269 E2.10566
G1 X145.994 Y63.209 E2.24911
G1 X148.2 Y62.661 E2.30959
G1 X148.209 Y62.659 E2.30984
G1 X149.545 Y62.33 E2.34645
G1 X150.155 Y62.221 E2.36294
G1 X150.657 Y62.191 E2.37632
G1 X151.71 Y62.183 E2.40434
G1 X152.328 Y62.218 E2.42081
G1 X152.968 Y62.341 E2.43815
G1 X154.005 Y62.614 E2.46668
G1 X154.593 Y62.81 E2.48317
G1 X154.894 Y62.945 E2.49195
G1 X156.728 Y63.843 E2.54629
G1 X161.677 Y66.053 E2.6905
G1 X162.225 Y66.342 E2.70699
G1 X162.731 Y66.698 E2.72345
G1 X163.188 Y67.117 E2.73995
G1 X163.586 Y67.591 E2.75642
G1 X163.92 Y68.113 E2.77291
G1 X164.184 Y68.673 E2.78938
G1 X164.374 Y69.262 E2.80585
G1 X164.487 Y69.871 E2.82233
G1 X164.52 Y70.423 E2.83704
G1 X164.541 Y78.222 E3.04456
G1 X164.503 Y78.84 E3.06103
G1 X164.385 Y79.448 E3.07751
G1 X164.19 Y80.036 E3.094
G1 X163.921 Y80.594 E3.11048
G1 X163.583 Y81.113 E3.12696
G1 X163.247 Y81.513 E3.14086
G1 X159.102 Y85.947 E3.30236
G1 X157.396 Y87.942 E3.37221
G1 X155.707 Y90.04 E3.44387
G1 X152.492 Y94.391 E3.58782
G1 X149.544 Y98.895 E3.73105
G1 X146.854 Y103.558 E3.87429
G1 X144.43 Y108.372 E4.01771
G1 X142.276 Y113.33 E4.16154
G1 X141.308 Y115.839 E4.2331
G1 X139.847 Y120.091 E4.35273
G1 X139.609 Y120.663 E4.36921
G1 X139.298 Y121.199 E4.3857
G1 X138.922 Y121.69 E4.40216
G1 X138.485 Y122.129 E4.41864
G1 X137.995 Y122.508 E4.43512
G1 X137.309 Y122.894 E4.45607
G1 X130.393 Y126.065 E4.65851
G1 X129.677 Y126.327 E4.67879
G1 X128.651 Y126.612 E4.70713
G1 X128.044 Y126.739 E4.72363
G1 X127.394 Y126.787 E4.74097
G1 X126.349 Y126.793 E4.76878
G1 X125.73 Y126.757 E4.78528
G1 X125.214 Y126.664 E4.79923
G1 X119.669 Y125.35 E4.95085
G1 X117.129 Y124.857 E5.0197
G1 X111.765 Y124.045 E5.16405
G1 X106.378 Y123.54 E5.30802
G1 X103.709 Y123.403 E5.37913
G1 X100.161 Y123.338 E5.47355
G1 X79.823 Y123.328 E6.01471
G1 X79.205 Y123.288 E6.03118
G1 X78.883 Y123.235 E6.03987
G1 X72.884 Y122.035 E6.20265
G1 X72.286 Y121.874 E6.21913
G1 X71.714 Y121.638 E6.23559
G1 X71.176 Y121.33 E6.25209
G1 X70.683 Y120.956 E6.26856
G1 X70.242 Y120.521 E6.28504
G1 X69.861 Y120.033 E6.30151
G1 X69.545 Y119.5 E6.318
G1 X69.301 Y118.931 E6.33447
G1 X69.133 Y118.335 E6.35095
G1 X69.042 Y117.722 E6.36744
G1 X69.026 Y117.328 E6.37793
G1 X69.027 Y94.247 E6.99207
G1 X69.067 Y93.629 E7.00855
G1 X69.186 Y93.021 E7.02503
G1 X69.383 Y92.434 E7.04151
G1 X69.653 Y91.876 E7.058
G1 X69.993 Y91.359 E7.07447
G1 X70.397 Y90.889 E7.09096
G1 X70.867 Y90.468 E7.10775
G0 F1542.9 X71.114 Y90.783
G1 F900 X73.704 Y88.754 E7.19529
G1 X77.835 Y85.216 E7.34001
G1 X81.742 Y81.468 E7.48407
G1 X84.688 Y78.344 E7.59833
G1 X84.98 Y78.062 E7.60913
G1 X90.183 Y73.478 E7.79364
G1 X95.12 Y68.562 E7.97902
G1 X95.567 Y68.173 E7.99479
G1 X96.063 Y67.847 E8.01058
G1 X96.598 Y67.592 E8.02635
G1 X97.345 Y67.369 E8.04709
G1 X103.309 Y66.153 E8.20905
G1 X104.183 Y66.064 E8.23242
G1 X124.57 Y66.039 E8.77488
G1 X130.03 Y65.885 E8.92022
G1 X135.415 Y65.427 E9.06402
G1 X140.775 Y64.663 E9.20808
G1 X146.104 Y63.595 E9.3527
G1 X148.297 Y63.05 E9.41282
G1 X148.305 Y63.048 E9.41304
G1 X149.641 Y62.719 E9.44965
G1 X150.225 Y62.616 E9.46543
G1 X150.66 Y62.591 E9.47703
G1 X151.713 Y62.583 E9.50505
G1 X152.304 Y62.619 E9.5208
G1 X152.866 Y62.728 E9.53603
G1 X153.903 Y63.001 E9.56457
G1 X154.718 Y63.305 E9.58771
G1 X156.534 Y64.194 E9.64151
G1 X161.514 Y66.418 E9.78663
G1 X162.038 Y66.696 E9.80241
G1 X162.52 Y67.042 E9.8182
G1 X162.951 Y67.449 E9.83398
G1 X163.323 Y67.91 E9.84974
G1 X163.63 Y68.418 E9.86553
G1 X163.866 Y68.962 E9.88131
G1 X164.026 Y69.533 E9.89709
G1 X164.109 Y70.12 E9.91286
G1 X164.12 Y70.424 E9.92096
G1 X164.141 Y78.223 E10.12847
G1 X164.103 Y78.815 E10.14426
G1 X163.985 Y79.396 E10.16003
G1 X163.79 Y79.956 E10.17581
G1 X163.522 Y80.485 E10.19159
G1 X163.185 Y80.973 E10.20737
G1 X162.955 Y81.24 E10.21675
G1 X158.8 Y85.685 E10.37865
G1 X157.079 Y87.697 E10.44909
G1 X155.399 Y89.784 E10.52038
G1 X152.16 Y94.168 E10.66542
G1 X149.205 Y98.682 E10.80897
G1 X146.504 Y103.365 E10.95282
G1 X144.067 Y108.204 E11.09698
G1 X141.907 Y113.175 E11.2412
G1 X140.933 Y115.7 E11.31321
G1 X139.469 Y119.961 E11.43309
G1 X139.239 Y120.508 E11.44888
G1 X138.938 Y121.018 E11.46464
G1 X138.57 Y121.484 E11.48044
G1 X138.144 Y121.895 E11.49619
G1 X137.665 Y122.246 E11.51199
G1 X137.142 Y122.531 E11.52784
G1 X130.226 Y125.702 E11.73028
G1 X129.57 Y125.941 E11.74886
G1 X128.544 Y126.226 E11.77719
G1 X127.963 Y126.346 E11.79297
G1 X127.391 Y126.387 E11.80823
G1 X126.346 Y126.393 E11.83604
G1 X125.754 Y126.356 E11.85182
G1 X125.306 Y126.274 E11.86394
G1 X119.763 Y124.96 E12.01552
G1 X117.191 Y124.461 E12.08523
G1 X111.827 Y123.65 E12.22958
G1 X106.387 Y123.14 E12.37496
G1 X103.737 Y123.004 E12.44556
G1 X100.169 Y122.938 E12.54052
G1 X79.823 Y122.928 E13.08189
G1 X78.962 Y122.843 E13.10491
G1 X72.963 Y121.643 E13.26769
G1 X72.391 Y121.487 E13.28347
G1 X71.844 Y121.257 E13.29926
G1 X71.334 Y120.954 E13.31504
G1 X70.869 Y120.586 E13.33082
G1 X70.458 Y120.159 E13.34659
G1 X70.108 Y119.681 E13.36235
G1 X69.825 Y119.159 E13.37815
G1 X69.615 Y118.605 E13.39392
G1 X69.482 Y118.027 E13.4097
G1 X69.426 Y117.328 E13.42836
G1 X69.427 Y94.247 E14.0425
G1 X69.467 Y93.655 E14.05829
G1 X69.586 Y93.074 E14.07407
G1 X69.782 Y92.515 E14.08983
G1 X70.052 Y91.987 E14.10561
G1 X70.39 Y91.5 E14.12138
G1 X70.791 Y91.062 E14.13718
G1 X71.114 Y90.783 E14.14854
G0 F1542.9 X71.36 Y91.098
G1 F900 X73.964 Y89.058 E14.23656
G1 X78.108 Y85.509 E14.38173
G1 X82.028 Y81.748 E14.52628
G1 X84.979 Y78.619 E14.64072
G1 X85.245 Y78.362 E14.65056
G1 X90.447 Y73.778 E14.83505
G1 X95.402 Y68.845 E15.02109
G1 X95.83 Y68.476 E15.03613
G1 X96.305 Y68.17 E15.05116
G1 X96.819 Y67.935 E15.0662
G1 X97.425 Y67.761 E15.08298
G1 X103.389 Y66.545 E15.24493
G1 X104.183 Y66.464 E15.26617
G1 X124.582 Y66.439 E15.80895
G1 X130.04 Y66.285 E15.95423
G1 X135.472 Y65.823 E16.09929
G1 X140.839 Y65.058 E16.24354
G1 X146.187 Y63.986 E16.38867
G1 X148.393 Y63.438 E16.44915
G1 X148.401 Y63.436 E16.44937
G1 X149.737 Y63.107 E16.48598
G1 X150.294 Y63.011 E16.50102
G1 X150.663 Y62.991 E16.51085
G1 X151.716 Y62.983 E16.53887
G1 X152.28 Y63.019 E16.55391
G1 X152.764 Y63.115 E16.56704
G1 X153.801 Y63.388 E16.59557
G1 X154.542 Y63.664 E16.61661
G1 X156.385 Y64.567 E16.67122
G1 X161.351 Y66.784 E16.81593
G1 X161.849 Y67.05 E16.83095
G1 X162.306 Y67.384 E16.84601
G1 X162.71 Y67.779 E16.86104
G1 X163.055 Y68.227 E16.87609
G1 X163.333 Y68.719 E16.89113
G1 X163.539 Y69.246 E16.90618
G1 X163.668 Y69.796 E16.92121
G1 X163.72 Y70.425 E16.93801
G1 X163.741 Y78.224 E17.14552
G1 X163.703 Y78.788 E17.16057
G1 X163.585 Y79.341 E17.17561
G1 X163.391 Y79.872 E17.19065
G1 X163.123 Y80.37 E17.2057
G1 X162.663 Y80.967 E17.22575
G1 X158.497 Y85.423 E17.38807
G1 X156.762 Y87.452 E17.4591
G1 X155.082 Y89.539 E17.53039
G1 X151.841 Y93.925 E17.6755
G1 X148.862 Y98.477 E17.82025
G1 X146.15 Y103.178 E17.96466
G1 X143.707 Y108.029 E18.10918
G1 X141.528 Y113.045 E18.25469
G1 X140.564 Y115.546 E18.32601
G1 X139.091 Y119.831 E18.44658
G1 X138.87 Y120.351 E18.46161
G1 X138.578 Y120.835 E18.47665
G1 X138.22 Y121.273 E18.4917
G1 X137.804 Y121.656 E18.50675
G1 X137.339 Y121.977 E18.52178
G1 X136.975 Y122.167 E18.53271
G1 X130.059 Y125.338 E18.73515
G1 X129.463 Y125.556 E18.75204
G1 X128.437 Y125.841 E18.78037
G1 X127.883 Y125.954 E18.79541
G1 X127.389 Y125.987 E18.80859
G1 X126.344 Y125.993 E18.83639
G1 X125.78 Y125.956 E18.85143
G1 X125.398 Y125.885 E18.86177
G1 X119.857 Y124.572 E19.01329
G1 X117.254 Y124.066 E19.08385
G1 X111.871 Y123.252 E19.22871
G1 X106.424 Y122.741 E19.37428
G1 X103.734 Y122.603 E19.44595
G1 X100.176 Y122.538 E19.54064
G1 X79.823 Y122.528 E20.08219
G1 X79.04 Y122.45 E20.10313
G1 X73.041 Y121.25 E20.26591
G1 X72.496 Y121.101 E20.28095
G1 X71.978 Y120.875 E20.29598
G1 X71.496 Y120.579 E20.31103
G1 X71.061 Y120.218 E20.32607
G1 X70.681 Y119.8 E20.34111
G1 X70.364 Y119.332 E20.35615
G1 X70.116 Y118.824 E20.37119
G1 X69.942 Y118.286 E20.38623
G1 X69.846 Y117.729 E20.40127
G1 X69.826 Y117.328 E20.41196
G1 X69.827 Y94.247 E21.0261
G1 X69.867 Y93.683 E21.04114
G1 X69.986 Y93.13 E21.05619
G1 X70.182 Y92.6 E21.07123
G1 X70.45 Y92.102 E21.08628
G1 X70.787 Y91.648 E21.10132
G1 X71.36 Y91.098 E21.12245
G0 F1542.9 X71.607 Y91.413
G1 F900 X74.213 Y89.372 E21.21053
G1 X78.362 Y85.819 E21.35588
G1 X82.322 Y82.018 E21.50193
G1 X85.27 Y78.893 E21.61624
G1 X85.509 Y78.662 E21.62508
G1 X90.728 Y74.064 E21.81016
G1 X95.684 Y69.129 E21.99625
G1 X96.091 Y68.78 E22.01052
G1 X96.546 Y68.495 E22.0248
G1 X97.037 Y68.281 E22.03906
G1 X97.505 Y68.153 E22.05197
G1 X103.469 Y66.937 E22.21392
G1 X104.184 Y66.864 E22.23305
G1 X124.557 Y66.839 E22.77513
G1 X130.085 Y66.683 E22.92228
G1 X135.508 Y66.222 E23.0671
G1 X140.902 Y65.453 E23.21207
G1 X146.28 Y64.375 E23.35802
G1 X148.49 Y63.826 E23.41861
G1 X148.496 Y63.824 E23.41878
G1 X149.832 Y63.495 E23.45539
G1 X150.361 Y63.406 E23.46966
G1 X150.666 Y63.391 E23.47779
G1 X151.719 Y63.383 E23.50581
G1 X152.254 Y63.419 E23.52007
G1 X152.663 Y63.502 E23.53118
G1 X153.7 Y63.775 E23.55971
G1 X154.366 Y64.023 E23.57862
G1 X156.214 Y64.928 E23.63337
G1 X161.188 Y67.149 E23.77831
G1 X161.66 Y67.403 E23.79258
G1 X162.089 Y67.725 E23.80685
G1 X162.465 Y68.107 E23.82111
G1 X162.781 Y68.541 E23.8354
G1 X163.028 Y69.016 E23.84964
G1 X163.202 Y69.524 E23.86393
G1 X163.299 Y70.051 E23.87819
G1 X163.32 Y70.426 E23.88818
G1 X163.341 Y78.225 E24.0957
G1 X163.302 Y78.76 E24.10997
G1 X163.185 Y79.283 E24.12423
G1 X162.991 Y79.783 E24.1385
G1 X162.725 Y80.249 E24.15278
G1 X162.371 Y80.693 E24.16789
G1 X158.215 Y85.139 E24.32983
G1 X156.449 Y87.204 E24.40212
G1 X154.754 Y89.309 E24.47404
G1 X151.514 Y93.694 E24.61911
G1 X148.518 Y98.271 E24.76466
G1 X145.796 Y102.99 E24.90962
G1 X143.35 Y107.847 E25.05432
G1 X141.159 Y112.89 E25.20062
G1 X140.189 Y115.406 E25.27237
G1 X138.713 Y119.701 E25.39321
G1 X138.501 Y120.194 E25.40749
G1 X138.218 Y120.65 E25.42177
G1 X137.871 Y121.059 E25.43604
G1 X137.468 Y121.411 E25.45028
G1 X136.808 Y121.803 E25.4707
G1 X129.892 Y124.974 E25.67315
G1 X129.356 Y125.171 E25.68834
G1 X128.33 Y125.456 E25.71667
G1 X127.804 Y125.56 E25.73094
G1 X127.387 Y125.587 E25.74206
G1 X126.342 Y125.593 E25.76986
G1 X125.807 Y125.556 E25.78413
G1 X125.491 Y125.496 E25.79269
G1 X119.934 Y124.179 E25.94465
G1 X117.32 Y123.672 E26.0155
G1 X111.914 Y122.854 E26.16098
G1 X106.456 Y122.342 E26.30684
G1 X103.763 Y122.204 E26.37859
G1 X100.184 Y122.138 E26.47384
G1 X79.823 Y122.128 E27.01561
G1 X79.119 Y122.058 E27.03443
G1 X73.12 Y120.858 E27.19722
G1 X72.603 Y120.714 E27.2115
G1 X72.114 Y120.495 E27.22575
G1 X71.662 Y120.205 E27.24004
G1 X71.259 Y119.852 E27.2543
G1 X70.913 Y119.443 E27.26855
G1 X70.631 Y118.986 E27.28284
G1 X70.42 Y118.493 E27.29711
G1 X70.285 Y117.974 E27.31138
G1 X70.226 Y117.328 E27.32864
G1 X70.227 Y94.247 E27.94278
G1 X70.267 Y93.712 E27.95706
G1 X70.386 Y93.189 E27.97133
G1 X70.581 Y92.69 E27.98558
G1 X70.849 Y92.225 E27.99986
G1 X71.182 Y91.805 E28.01413
G1 X71.607 Y91.413 E28.02951
G0 F1542.9 X71.854 Y91.728
G1 F900 X74.46 Y89.687 E28.11759
G1 X78.636 Y86.111 E28.26388
G1 X82.598 Y82.309 E28.40998
G1 X85.561 Y79.167 E28.5249
G1 X85.773 Y78.962 E28.53274
G1 X91 Y74.356 E28.71812
G1 X95.966 Y69.412 E28.90457
G1 X96.352 Y69.085 E28.91803
G1 X96.784 Y68.823 E28.93148
G1 X97.252 Y68.631 E28.94494
G1 X97.585 Y68.545 E28.95409
G1 X103.549 Y67.329 E29.11604
G1 X104.184 Y67.264 E29.13303
G1 X124.568 Y67.239 E29.67541
G1 X130.096 Y67.083 E29.82256
G1 X135.562 Y66.618 E29.96852
G1 X140.968 Y65.847 E30.11382
G1 X146.364 Y64.766 E30.26025
G1 X148.586 Y64.214 E30.32117
G1 X148.592 Y64.213 E30.32133
G1 X149.928 Y63.884 E30.35794
G1 X150.669 Y63.791 E30.37782
G1 X151.722 Y63.783 E30.40583
G1 X152.226 Y63.819 E30.41928
G1 X152.561 Y63.888 E30.42838
G1 X153.598 Y64.161 E30.45691
G1 X154.191 Y64.382 E30.47375
G1 X156.054 Y65.294 E30.52894
G1 X161.025 Y67.514 E30.6738
G1 X161.469 Y67.756 E30.68726
G1 X161.869 Y68.065 E30.70071
G1 X162.215 Y68.433 E30.71415
G1 X162.5 Y68.851 E30.72761
G1 X162.715 Y69.308 E30.74105
G1 X162.855 Y69.794 E30.7545
G1 X162.92 Y70.427 E30.77144
G1 X162.941 Y78.226 E30.97895
G1 X162.902 Y78.73 E30.9924
G1 X162.785 Y79.222 E31.00586
G1 X162.591 Y79.689 E31.01932
G1 X162.327 Y80.12 E31.03276
G1 X162.079 Y80.42 E31.04312
G1 X157.912 Y84.877 E31.20547
G1 X156.132 Y86.96 E31.27838
G1 X154.459 Y89.037 E31.34934
G1 X151.174 Y93.483 E31.49643
G1 X148.183 Y98.053 E31.64176
G1 X145.443 Y102.803 E31.78766
G1 X142.984 Y107.686 E31.93314
G1 X140.793 Y112.727 E32.07939
G1 X139.805 Y115.291 E32.1525
G1 X138.334 Y119.571 E32.27292
G1 X138.133 Y120.035 E32.28638
G1 X137.861 Y120.461 E32.29983
G1 X137.525 Y120.839 E32.31328
G1 X137.134 Y121.159 E32.32673
G1 X136.642 Y121.44 E32.3418
G1 X129.726 Y124.611 E32.54425
G1 X129.248 Y124.785 E32.55778
G1 X128.222 Y125.07 E32.58611
G1 X127.726 Y125.167 E32.59956
G1 X127.384 Y125.187 E32.60868
G1 X126.339 Y125.193 E32.63648
G1 X125.835 Y125.156 E32.64993
G1 X125.583 Y125.107 E32.65676
G1 X120.005 Y123.785 E32.80929
G1 X117.405 Y123.28 E32.87977
G1 X111.959 Y122.456 E33.02632
G1 X106.49 Y121.944 E33.17248
G1 X103.759 Y121.804 E33.24524
G1 X100.191 Y121.738 E33.3402
G1 X79.823 Y121.728 E33.88215
G1 X79.197 Y121.666 E33.89889
G1 X73.198 Y120.466 E34.06167
G1 X72.712 Y120.328 E34.07511
G1 X72.253 Y120.115 E34.08858
G1 X71.834 Y119.832 E34.10203
G1 X71.465 Y119.487 E34.11547
G1 X71.154 Y119.089 E34.12891
G1 X70.91 Y118.646 E34.14237
G1 X70.739 Y118.17 E34.15583
G1 X70.645 Y117.673 E34.16929
G1 X70.626 Y117.328 E34.17848
G1 X70.627 Y94.247 E34.79262
G1 X70.667 Y93.743 E34.80608
G1 X70.786 Y93.251 E34.81954
G1 X70.981 Y92.785 E34.83299
G1 X71.246 Y92.355 E34.84642
G1 X71.577 Y91.972 E34.85989
G1 X71.854 Y91.728 E34.86972
G1 F1200 E28.36972
G0 F1542.9 X87.845 Y80.44
G0 X88.838 Y79.811
G0 X89.946 Y79.452
G0 X91.122 Y79.379
G0 X92.267 Y79.6
G0 X93.328 Y80.103
G0 X94.225 Y80.849
G0 X94.915 Y81.801
G0 X95.342 Y82.892
G0 X95.484 Y84.035
G0 X95.406 Y84.894
G0 X95.171 Y85.714
G0 X94.848 Y86.374
G0 X84.817 Y99.738
;TYPE:SUPPORT
G1 F1200 E34.86972
G1 F900 X95.424 Y99.738 E35.15195
G1 X95.54 Y99.854 E35.15631
G1 X95.541 Y111.622 E35.46944
G1 X95.425 Y111.738 E35.4738
G1 X84.817 Y111.738 E35.75606
G1 X84.817 Y99.738 E36.07536
G0 F1542.9 X84.977 Y100
G1 F900 X95.381 Y100 E36.35219
G0 F1542.9 X94 Y99.898
G1 F900 X94 Y111.578 E36.66297
G0 F1542.9 X92 Y111.578
G1 F900 X92 Y99.898 E36.97376
G0 F1542.9 X90 Y99.898
G1 F900 X90 Y111.578 E37.28454
G0 F1542.9 X88 Y111.578
G1 F900 X88 Y99.898 E37.59532
G0 F1542.9 X86 Y99.898
G1 F900 X86 Y111.578 E37.9061
G0 F1542.9 X84.977 Y110
G1 F900 X95.381 Y110 E38.18293
G0 F1542.9 X95.381 Y108
G1 F900 X84.977 Y108 E38.45976
G0 F1542.9 X84.977 Y106
G1 F900 X95.381 Y106 E38.7366
G0 F1542.9 X95.381 Y104
G1 F900 X84.977 Y104 E39.01343
G0 F1542.9 X84.977 Y102
G1 F900 X95.381 Y102 E39.29026
G1 F1200 E32.79026
G0 F1542.9 X113.246 Y109.155
G0 X114.354 Y109.52
G0 X115.527 Y109.598
