;FLAVOR:Marlin
;TIME:2594
;Filament used: 2.88963m, 0m
;Layer height: 0.2
;POSTPROCESSED
;Generated with Cura_SteamEngine 3.4.1
T0
M190 S75
M104 S248
M109 S248
M82 ;absolute extrusion mode
; Printer start settings begin
M92 X160 Y160 Z1600; Steps per unit
M201 X1000 Y1000 Z50 E1500 E1500 ; Max Accelleration
M203 X800 Y800 Z2 E90 E90 ; Max Feed
M205 X3.0 Y3.0 Z0.3 E5.0 ; Default Jerk
G28
G0 X0 Y0 Z15 F1200
G92 E-35
G1 E0 F200 ;Home
G92 E5
G1 F1000 E0
G29 ;Auto Bed Level
G92 F400 E-5
G1 E0
G0 X0 Y0 Z15.0 F6000 ;Move the platform down 15mm
G92 E0
G1 F200 E3
G92 E0
G92 E0
G1 F1200 E-6.5
;LAYER_COUNT:71
;LAYER:0
M107
G0 F1542.9 X71.034 Y64.625 Z0.16
;TYPE:SKIRT
G1 F1200 E0
G1 F900 X71.512 Y64.201 E0.017
G1 X72.552 Y63.395 E0.05201
G1 X73.065 Y63.048 E0.06849
G1 X73.634 Y62.763 E0.08542
G1 X74.82 Y62.265 E0.11965
G1 X75.405 Y62.063 E0.13612
G1 X76.109 Y61.925 E0.15521
G1 X77.7 Y61.735 E0.19784
G1 X78.272 Y61.701 E0.21309
G1 X100.037 Y61.713 E0.79221
G1 X100.661 Y61.754 E0.80885
G1 X101.891 Y61.916 E0.84186
G1 X102.498 Y62.036 E0.85833
G1 X103.08 Y62.232 E0.87467
G1 X104.291 Y62.727 E0.90948
G1 X104.848 Y62.998 E0.92596
G1 X105.377 Y63.347 E0.94282
G1 X106.406 Y64.128 E0.97719
G1 X106.874 Y64.533 E0.99366
G1 X107.359 Y65.092 E1.01335
G1 X112.274 Y71.719 E1.23289
G1 X115.714 Y75.829 E1.3755
G1 X119.41 Y79.771 E1.51928
G1 X123.3 Y83.478 E1.66226
G1 X127.408 Y86.969 E1.8057
G1 X131.7 Y90.218 E1.94894
G1 X136.193 Y93.237 E2.09297
G1 X139.544 Y95.288 E2.19751
G1 X140.05 Y95.645 E2.21398
G1 X140.476 Y96.032 E2.2293
G1 X140.629 Y96.189 E2.23513
G1 X141.031 Y96.659 E2.25159
G1 X141.37 Y97.178 E2.26808
G1 X141.639 Y97.736 E2.28457
G1 X141.835 Y98.324 E2.30106
G1 X141.952 Y98.932 E2.31753
G1 X141.991 Y99.539 E2.33372
G1 X141.99 Y109.461 E2.59772
G1 X141.95 Y110.08 E2.61423
G1 X141.831 Y110.687 E2.63068
G1 X141.634 Y111.275 E2.64719
G1 X141.364 Y111.832 E2.66366
G1 X141.024 Y112.349 E2.68012
G1 X140.591 Y112.848 E2.6977
G1 X140.36 Y113.08 E2.70641
G1 X139.896 Y113.49 E2.72289
G1 X139.491 Y113.771 E2.736
G1 X136.45 Y115.659 E2.83124
G1 X131.979 Y118.728 E2.97554
G1 X127.736 Y122.009 E3.11825
G1 X123.667 Y125.539 E3.26159
G1 X119.794 Y129.304 E3.40531
G1 X116.151 Y133.271 E3.54862
G1 X112.75 Y137.423 E3.69143
G1 X109.518 Y141.856 E3.8374
G1 X107.474 Y144.765 E3.932
G1 X107.086 Y145.248 E3.94849
G1 X106.489 Y145.798 E3.97008
G1 X105.45 Y146.604 E4.00507
G1 X104.937 Y146.951 E4.02155
G1 X104.366 Y147.237 E4.03855
G1 X103.18 Y147.735 E4.07277
G1 X102.595 Y147.937 E4.08924
G1 X101.975 Y148.064 E4.10608
G1 X100.649 Y148.246 E4.14169
G1 X99.998 Y148.291 E4.15906
G1 X78.71 Y148.3 E4.72549
G1 X78.284 Y148.281 E4.73684
G1 X76.312 Y148.106 E4.78951
G1 X75.7 Y148.012 E4.80599
G1 X74.918 Y147.767 E4.82779
G1 X73.706 Y147.271 E4.86264
G1 X73.149 Y147 E4.87912
G1 X72.622 Y146.652 E4.89592
G1 X71.593 Y145.871 E4.9303
G1 X71.125 Y145.466 E4.94676
G1 X70.701 Y144.989 E4.96375
G1 X69.894 Y143.948 E4.99879
G1 X69.547 Y143.435 E5.01527
G1 X69.262 Y142.863 E5.03228
G1 X68.765 Y141.678 E5.06647
G1 X68.562 Y141.093 E5.08294
G1 X68.425 Y140.392 E5.10195
G1 X68.235 Y138.802 E5.14456
G1 X68.201 Y138.229 E5.15983
G1 X68.215 Y111.383 E5.87415
G1 X68.219 Y111.186 E5.8794
G1 X68.439 Y105.919 E6.01966
G1 X68.362 Y100.472 E6.16461
G1 X68.216 Y97.747 E6.23722
G1 X68.209 Y97.489 E6.24409
G1 X68.213 Y71.465 E6.93654
G1 X68.254 Y70.839 E6.95323
G1 X68.416 Y69.61 E6.98622
G1 X68.537 Y69.002 E7.00271
G1 X68.732 Y68.42 E7.01904
G1 X69.228 Y67.207 E7.05391
G1 X69.499 Y66.65 E7.07039
G1 X69.848 Y66.122 E7.08723
G1 X70.629 Y65.093 E7.12161
G1 X71.034 Y64.625 E7.13808
G0 F1542.9 X71.337 Y64.888
G1 F900 X71.757 Y64.517 E7.15299
G1 X72.797 Y63.711 E7.188
G1 X73.289 Y63.38 E7.20377
G1 X73.789 Y63.132 E7.21863
G1 X74.975 Y62.634 E7.25285
G1 X75.535 Y62.442 E7.2686
G1 X76.156 Y62.322 E7.28543
G1 X77.747 Y62.132 E7.32807
G1 X78.271 Y62.101 E7.34203
G1 X100.036 Y62.113 E7.92116
G1 X100.609 Y62.151 E7.93644
G1 X101.839 Y62.313 E7.96945
G1 X102.42 Y62.43 E7.98522
G1 X102.929 Y62.602 E7.99952
G1 X104.14 Y63.097 E8.03433
G1 X104.672 Y63.358 E8.05009
G1 X105.135 Y63.665 E8.06488
G1 X106.164 Y64.446 E8.09925
G1 X106.611 Y64.836 E8.11503
G1 X107.038 Y65.33 E8.13241
G1 X111.968 Y71.977 E8.35261
G1 X115.407 Y76.086 E8.49518
G1 X119.133 Y80.061 E8.64015
G1 X123.03 Y83.773 E8.78335
G1 X127.153 Y87.278 E8.92734
G1 X131.47 Y90.545 E9.07139
G1 X135.977 Y93.574 E9.21588
G1 X139.335 Y95.629 E9.32064
G1 X139.819 Y95.972 E9.33642
G1 X140.189 Y96.311 E9.34977
G1 X140.342 Y96.468 E9.35561
G1 X140.726 Y96.92 E9.37139
G1 X141.047 Y97.419 E9.38718
G1 X141.297 Y97.957 E9.40296
G1 X141.472 Y98.523 E9.41872
G1 X141.57 Y99.108 E9.43451
G1 X141.591 Y99.539 E9.44599
G1 X141.59 Y109.461 E9.70999
G1 X141.55 Y110.053 E9.72578
G1 X141.431 Y110.634 E9.74156
G1 X141.235 Y111.193 E9.75732
G1 X140.965 Y111.722 E9.77313
G1 X140.627 Y112.209 E9.7889
G1 X140.308 Y112.566 E9.80164
G1 X140.077 Y112.798 E9.81035
G1 X139.631 Y113.189 E9.82613
G1 X139.28 Y113.431 E9.83748
G1 X136.235 Y115.322 E9.93285
G1 X131.754 Y118.397 E10.07746
G1 X127.467 Y121.712 E10.22165
G1 X123.391 Y125.25 E10.36526
G1 X119.512 Y129.021 E10.50921
G1 X115.855 Y133.002 E10.65305
G1 X112.433 Y137.18 E10.79674
G1 X109.17 Y141.656 E10.94413
G1 X107.147 Y144.535 E11.03776
G1 X106.774 Y144.996 E11.05353
G1 X106.244 Y145.482 E11.07267
G1 X105.205 Y146.288 E11.10766
G1 X104.713 Y146.619 E11.12343
G1 X104.211 Y146.868 E11.13835
G1 X103.025 Y147.366 E11.17257
G1 X102.465 Y147.558 E11.18832
G1 X101.92 Y147.668 E11.20312
G1 X100.594 Y147.85 E11.23873
G1 X99.998 Y147.891 E11.25463
G1 X78.71 Y147.9 E11.82106
G1 X78.319 Y147.883 E11.83147
G1 X76.347 Y147.708 E11.88415
G1 X75.761 Y147.616 E11.89993
G1 X75.069 Y147.397 E11.91925
G1 X73.857 Y146.901 E11.95409
G1 X73.325 Y146.64 E11.96986
G1 X72.864 Y146.334 E11.98458
G1 X71.835 Y145.553 E12.01895
G1 X71.388 Y145.163 E12.03474
G1 X71.018 Y144.744 E12.04961
G1 X70.211 Y143.703 E12.08466
G1 X69.88 Y143.211 E12.10044
G1 X69.63 Y142.709 E12.11536
G1 X69.133 Y141.524 E12.14955
G1 X68.941 Y140.963 E12.16533
G1 X68.822 Y140.344 E12.1821
G1 X68.632 Y138.754 E12.22471
G1 X68.601 Y138.23 E12.23868
G1 X68.615 Y111.384 E12.953
G1 X68.619 Y111.202 E12.95784
G1 X68.839 Y105.93 E13.09824
G1 X68.762 Y100.471 E13.24351
G1 X68.615 Y97.726 E13.31665
G1 X68.609 Y97.489 E13.32296
G1 X68.613 Y71.465 E14.01541
G1 X68.651 Y70.891 E14.03072
G1 X68.813 Y69.662 E14.0637
G1 X68.93 Y69.081 E14.07947
G1 X69.102 Y68.572 E14.09377
G1 X69.598 Y67.359 E14.12864
G1 X69.859 Y66.826 E14.14443
G1 X70.166 Y66.364 E14.15919
G1 X70.947 Y65.335 E14.19356
G1 X71.337 Y64.888 E14.20934
G0 F1542.9 X71.639 Y65.152
G1 F900 X72.002 Y64.833 E14.2222
G1 X73.042 Y64.027 E14.25721
G1 X73.512 Y63.713 E14.27225
G1 X73.943 Y63.501 E14.28503
G1 X75.129 Y63.003 E14.31926
G1 X75.665 Y62.821 E14.33432
G1 X76.204 Y62.719 E14.34892
G1 X77.795 Y62.529 E14.39155
G1 X78.271 Y62.501 E14.40424
G1 X100.036 Y62.513 E14.98336
G1 X100.556 Y62.547 E14.99723
G1 X101.786 Y62.709 E15.03024
G1 X102.34 Y62.822 E15.04529
G1 X102.777 Y62.972 E15.05758
G1 X103.988 Y63.467 E15.09239
G1 X104.495 Y63.718 E15.10744
G1 X104.893 Y63.984 E15.12018
G1 X105.922 Y64.765 E15.15455
G1 X106.347 Y65.138 E15.1696
G1 X106.717 Y65.568 E15.18469
G1 X111.662 Y72.235 E15.40556
G1 X115.107 Y76.352 E15.5484
G1 X118.839 Y80.332 E15.69357
G1 X122.769 Y84.077 E15.83802
G1 X126.906 Y87.593 E15.98248
G1 X131.231 Y90.867 E16.12681
G1 X135.761 Y93.911 E16.27203
G1 X139.126 Y95.97 E16.377
G1 X139.586 Y96.299 E16.39205
G1 X139.903 Y96.59 E16.4035
G1 X140.056 Y96.747 E16.40933
G1 X140.421 Y97.179 E16.42438
G1 X140.721 Y97.658 E16.43942
G1 X140.951 Y98.174 E16.45445
G1 X141.106 Y98.718 E16.4695
G1 X141.191 Y99.539 E16.49147
G1 X141.19 Y109.461 E16.75547
G1 X141.15 Y110.025 E16.77052
G1 X141.031 Y110.578 E16.78557
G1 X140.835 Y111.108 E16.8006
G1 X140.566 Y111.606 E16.81566
G1 X140.23 Y112.06 E16.83069
G1 X140.025 Y112.283 E16.83875
G1 X139.794 Y112.515 E16.84746
G1 X139.367 Y112.887 E16.86253
G1 X139.069 Y113.091 E16.87214
G1 X136.009 Y114.991 E16.96798
G1 X131.516 Y118.075 E17.11298
G1 X127.225 Y121.393 E17.25731
G1 X123.114 Y124.96 E17.40213
G1 X119.23 Y128.737 E17.54629
G1 X115.551 Y132.741 E17.69097
G1 X112.107 Y136.947 E17.83561
G1 X108.887 Y141.364 E17.98106
G1 X106.82 Y144.305 E18.07671
G1 X106.463 Y144.743 E18.09174
G1 X105.999 Y145.166 E18.10845
G1 X104.96 Y145.972 E18.14344
G1 X104.49 Y146.286 E18.15848
G1 X104.057 Y146.499 E18.17132
G1 X102.871 Y146.997 E18.20554
G1 X102.335 Y147.179 E18.2206
G1 X101.866 Y147.272 E18.23333
G1 X100.54 Y147.454 E18.26894
G1 X99.998 Y147.491 E18.2834
G1 X78.71 Y147.5 E18.84983
G1 X78.354 Y147.484 E18.85931
G1 X76.382 Y147.309 E18.91199
G1 X75.824 Y147.22 E18.92702
G1 X75.221 Y147.027 E18.94387
G1 X74.009 Y146.531 E18.97871
G1 X73.502 Y146.28 E18.99377
G1 X73.106 Y146.015 E19.00645
G1 X72.077 Y145.234 E19.04082
G1 X71.652 Y144.861 E19.05586
G1 X71.334 Y144.499 E19.06869
G1 X70.527 Y143.458 E19.10373
G1 X70.213 Y142.988 E19.11877
G1 X69.999 Y142.554 E19.13165
G1 X69.502 Y141.369 E19.16584
G1 X69.321 Y140.834 E19.18087
G1 X69.219 Y140.297 E19.19541
G1 X69.029 Y138.707 E19.23802
G1 X69.001 Y138.23 E19.25073
G1 X69.015 Y111.384 E19.96506
G1 X69.018 Y111.219 E19.96945
G1 X69.239 Y105.923 E20.11049
G1 X69.162 Y100.443 E20.25631
G1 X69.015 Y97.704 E20.3293
G1 X69.009 Y97.489 E20.33502
G1 X69.013 Y71.465 E21.02747
G1 X69.047 Y70.943 E21.04139
G1 X69.209 Y69.714 E21.07437
G1 X69.323 Y69.16 E21.08942
G1 X69.473 Y68.723 E21.10172
G1 X69.969 Y67.51 E21.13659
G1 X70.219 Y67.003 E21.15163
G1 X70.485 Y66.606 E21.16434
G1 X71.266 Y65.577 E21.19871
G1 X71.639 Y65.152 E21.21376
G0 F1542.9 X71.94 Y65.417
G1 F900 X72.247 Y65.15 E21.22459
G1 X73.287 Y64.344 E21.2596
G1 X73.734 Y64.047 E21.27388
G1 X74.098 Y63.87 E21.28465
G1 X75.284 Y63.372 E21.31887
G1 X75.793 Y63.202 E21.33315
G1 X76.251 Y63.116 E21.34555
G1 X77.842 Y62.926 E21.38819
G1 X78.271 Y62.901 E21.39962
G1 X100.036 Y62.913 E21.97875
G1 X100.504 Y62.944 E21.99123
G1 X101.734 Y63.106 E22.02424
G1 X102.259 Y63.215 E22.0385
G1 X102.626 Y63.343 E22.04884
G1 X103.837 Y63.838 E22.08366
G1 X104.317 Y64.077 E22.09792
G1 X104.651 Y64.302 E22.10864
G1 X105.68 Y65.083 E22.14301
G1 X106.082 Y65.439 E22.1573
G1 X106.396 Y65.806 E22.17015
G1 X111.341 Y72.474 E22.39104
G1 X114.825 Y76.637 E22.53548
G1 X118.554 Y80.613 E22.68052
G1 X122.498 Y84.372 E22.8255
G1 X126.651 Y87.901 E22.97051
G1 X131 Y91.194 E23.11566
G1 X135.545 Y94.248 E23.26135
G1 X138.917 Y96.311 E23.36654
G1 X139.353 Y96.625 E23.38083
G1 X139.616 Y96.869 E23.39038
G1 X139.769 Y97.026 E23.39621
G1 X140.114 Y97.437 E23.41049
G1 X140.394 Y97.895 E23.42477
G1 X140.602 Y98.389 E23.43904
G1 X140.735 Y98.908 E23.45329
G1 X140.791 Y99.539 E23.47015
G1 X140.79 Y109.461 E23.73415
G1 X140.75 Y109.996 E23.74843
G1 X140.631 Y110.519 E23.7627
G1 X140.436 Y111.019 E23.77698
G1 X140.168 Y111.483 E23.79124
G1 X139.741 Y112.001 E23.8091
G1 X139.51 Y112.233 E23.81781
G1 X139.104 Y112.584 E23.83209
G1 X138.858 Y112.751 E23.84
G1 X135.793 Y114.654 E23.936
G1 X131.282 Y117.75 E24.08158
G1 X126.963 Y121.091 E24.22687
G1 X122.846 Y124.663 E24.3719
G1 X118.939 Y128.461 E24.51688
G1 X115.254 Y132.473 E24.66183
G1 X111.798 Y136.692 E24.80694
G1 X108.523 Y141.185 E24.95488
G1 X106.492 Y144.075 E25.04887
G1 X106.152 Y144.49 E25.06314
G1 X105.754 Y144.849 E25.07741
G1 X104.715 Y145.655 E25.11239
G1 X104.268 Y145.952 E25.12667
G1 X103.902 Y146.13 E25.1375
G1 X102.716 Y146.628 E25.17173
G1 X102.207 Y146.798 E25.18601
G1 X101.812 Y146.876 E25.19672
G1 X100.486 Y147.058 E25.23234
G1 X99.998 Y147.091 E25.24535
G1 X78.71 Y147.1 E25.81178
G1 X78.39 Y147.086 E25.82031
G1 X76.418 Y146.911 E25.87298
G1 X75.889 Y146.824 E25.88725
G1 X75.372 Y146.657 E25.9017
G1 X74.16 Y146.161 E25.93655
G1 X73.681 Y145.921 E25.95081
G1 X73.348 Y145.697 E25.96148
G1 X72.319 Y144.916 E25.99586
G1 X71.917 Y144.56 E26.01014
G1 X71.65 Y144.254 E26.02095
G1 X70.843 Y143.213 E26.056
G1 X70.547 Y142.766 E26.07026
G1 X70.368 Y142.399 E26.08113
G1 X69.871 Y141.214 E26.11532
G1 X69.701 Y140.706 E26.12957
G1 X69.616 Y140.249 E26.14194
G1 X69.426 Y138.659 E26.18455
G1 X69.401 Y138.23 E26.19598
G1 X69.415 Y111.384 E26.9103
G1 X69.418 Y111.236 E26.91424
G1 X69.64 Y105.934 E27.05544
G1 X69.562 Y100.442 E27.20159
G1 X69.414 Y97.683 E27.27511
G1 X69.409 Y97.489 E27.28027
G1 X69.413 Y71.465 E27.97272
G1 X69.444 Y70.996 E27.98523
G1 X69.606 Y69.767 E28.01821
G1 X69.715 Y69.242 E28.03248
G1 X69.843 Y68.874 E28.04285
G1 X70.339 Y67.661 E28.07772
G1 X70.578 Y67.182 E28.09196
G1 X70.803 Y66.848 E28.10267
G1 X71.584 Y65.819 E28.13705
G1 X71.94 Y65.417 E28.15134
G0 F1542.9 X72.24 Y65.683
G1 F900 X72.492 Y65.466 E28.16018
G1 X73.532 Y64.66 E28.19519
G1 X73.955 Y64.383 E28.20865
G1 X74.253 Y64.239 E28.21745
G1 X75.439 Y63.741 E28.25168
G1 X75.919 Y63.582 E28.26513
G1 X76.299 Y63.514 E28.27541
G1 X77.89 Y63.324 E28.31804
G1 X78.271 Y63.301 E28.3282
G1 X100.036 Y63.313 E28.90732
G1 X100.452 Y63.34 E28.91841
G1 X101.682 Y63.502 E28.95143
G1 X102.176 Y63.608 E28.96487
G1 X102.475 Y63.713 E28.9733
G1 X103.686 Y64.208 E29.00811
G1 X104.137 Y64.436 E29.02156
G1 X104.41 Y64.621 E29.03033
G1 X105.439 Y65.402 E29.06471
G1 X105.816 Y65.739 E29.07816
G1 X106.074 Y66.045 E29.08881
G1 X111.02 Y72.713 E29.30971
G1 X114.518 Y76.894 E29.45476
G1 X118.269 Y80.893 E29.60065
G1 X122.237 Y84.675 E29.74651
G1 X126.405 Y88.217 E29.89205
G1 X130.761 Y91.515 E30.03743
G1 X135.346 Y94.596 E30.18441
G1 X138.708 Y96.653 E30.28928
G1 X139.117 Y96.95 E30.30273
G1 X139.33 Y97.149 E30.31049
G1 X139.483 Y97.306 E30.31632
G1 X139.806 Y97.694 E30.32975
G1 X140.064 Y98.129 E30.34321
G1 X140.25 Y98.599 E30.35666
G1 X140.36 Y99.093 E30.37013
G1 X140.391 Y99.539 E30.38202
G1 X140.39 Y109.461 E30.64603
G1 X140.35 Y109.965 E30.65948
G1 X140.231 Y110.457 E30.67295
G1 X140.036 Y110.923 E30.68639
G1 X139.771 Y111.353 E30.69983
G1 X139.458 Y111.719 E30.71264
G1 X139.227 Y111.951 E30.72135
G1 X138.647 Y112.412 E30.74107
G1 X135.562 Y114.328 E30.8377
G1 X131.046 Y117.427 E30.98343
G1 X126.712 Y120.779 E31.12922
G1 X122.579 Y124.366 E31.27483
G1 X118.657 Y128.178 E31.42036
G1 X114.95 Y132.214 E31.56617
G1 X111.474 Y136.457 E31.71212
G1 X108.2 Y140.949 E31.86002
G1 X106.165 Y143.845 E31.9542
G1 X105.843 Y144.234 E31.96764
G1 X105.508 Y144.533 E31.97958
G1 X104.469 Y145.339 E32.01457
G1 X104.047 Y145.617 E32.02802
G1 X103.747 Y145.761 E32.03687
G1 X102.561 Y146.259 E32.0711
G1 X102.081 Y146.418 E32.08455
G1 X101.757 Y146.479 E32.09333
G1 X100.431 Y146.661 E32.12894
G1 X99.997 Y146.691 E32.14052
G1 X78.709 Y146.7 E32.70695
G1 X78.425 Y146.687 E32.71451
G1 X76.453 Y146.512 E32.76719
G1 X75.955 Y146.428 E32.78063
G1 X75.524 Y146.287 E32.7927
G1 X74.312 Y145.791 E32.82754
G1 X73.861 Y145.563 E32.84099
G1 X73.589 Y145.378 E32.84974
G1 X72.56 Y144.597 E32.88411
G1 X72.183 Y144.26 E32.89757
G1 X71.966 Y144.009 E32.9064
G1 X71.159 Y142.968 E32.94144
G1 X70.882 Y142.545 E32.9549
G1 X70.737 Y142.245 E32.96376
G1 X70.24 Y141.06 E32.99795
G1 X70.082 Y140.579 E33.01143
G1 X70.014 Y140.202 E33.02162
G1 X69.824 Y138.612 E33.06423
G1 X69.801 Y138.23 E33.07441
G1 X69.815 Y111.384 E33.78873
G1 X69.818 Y111.252 E33.79224
G1 X70.04 Y105.945 E33.93358
G1 X69.962 Y100.414 E34.08076
G1 X69.814 Y97.661 E34.15412
G1 X69.809 Y97.49 E34.15867
G1 X69.813 Y71.466 E34.85112
G1 X69.84 Y71.048 E34.86227
G1 X70.002 Y69.819 E34.89525
G1 X70.108 Y69.324 E34.90872
G1 X70.213 Y69.026 E34.91713
G1 X70.709 Y67.813 E34.952
G1 X70.937 Y67.361 E34.96547
G1 X71.122 Y67.089 E34.97422
G1 X71.903 Y66.06 E35.00859
G1 X72.24 Y65.683 E35.02205
G1 F1200 E28.52205
G0 F1542.9 X100.053 Y65.837
G0 X101.478 Y66.027
G0 X102.847 Y66.599
G0 X104.019 Y67.502
G0 X104.916 Y68.679
G0 X105.48 Y70.05
G0 X105.628 Y71.192
G0 X106 Y99.5
;TYPE:SUPPORT
G1 F1200 E35.02205
G1 F900 X136.884 Y99.5 E35.84381
G1 X137 Y99.616 E35.84818
G1 X137 Y109.384 E36.10808
G1 X136.884 Y109.5 E36.11245
G1 X106 Y109.5 E36.93421
G1 X106 Y99.5 E37.2003
G0 F1542.9 X106.16 Y100
G1 F900 X136.84 Y100 E38.01663
G0 F1542.9 X136 Y99.66
G1 F900 X136 Y109.34 E38.2742
G0 F1542.9 X136.84 Y108
