;FLAVOR:Marlin
;TIME:1812
;Filament used: 1.80909m, 0m
;Layer height: 0.2
;POSTPROCESSED
;Generated with Cura_SteamEngine 3.4.1
T0
M190 S75
M104 S248
M109 S248
M82 ;absolute extrusion mode
; Printer start settings begin
M92 X160 Y160 Z1600; Steps per unit
M201 X1000 Y1000 Z50 E1500 E1500 ; Max Accelleration
M203 X800 Y800 Z2 E90 E90 ; Max Feed
M205 X3.0 Y3.0 Z0.3 E5.0 ; Default Jerk
G28
G0 X0 Y0 Z15 F1200
G92 E-35
G1 E0 F200 ;Home
G92 E5
G1 F1000 E0
G29 ;Auto Bed Level
G92 F400 E-5
G1 E0
G0 X0 Y0 Z15.0 F6000 ;Move the platform down 15mm
G92 E0
G1 F200 E3
G92 E0
G92 E0
G1 F1200 E-6.5
;LAYER_COUNT:98
;LAYER:0
M107
G0 F1542.9 X70.867 Y90.468 Z0.16
;TYPE:SKIRT
G1 F1200 E0
G1 F900 X73.456 Y88.44 E0.08751
G1 X77.572 Y84.915 E0.2317
G1 X81.461 Y81.184 E0.3751
G1 X84.782 Y77.67 E0.50375
G1 X85.235 Y77.248 E0.52022
G1 X85.691 Y76.919 E0.53518
G1 X86.523 Y76.389 E0.56143
G1 X87.066 Y76.09 E0.57793
G1 X87.597 Y75.879 E0.59313
G1 X88.56 Y75.561 E0.62011
G1 X89.159 Y75.405 E0.63658
G1 X89.765 Y75.328 E0.65284
G1 X90.772 Y75.265 E0.67969
G1 X91.392 Y75.267 E0.69618
G1 X92.082 Y75.363 E0.71472
G1 X93.169 Y75.597 E0.7443
G1 X93.765 Y75.767 E0.7608
G1 X94.236 Y75.963 E0.77437
G1 X95.04 Y76.349 E0.7981
G1 X95.58 Y76.652 E0.81458
G1 X96.029 Y76.983 E0.82942
G1 X96.801 Y77.624 E0.85612
G1 X97.261 Y78.061 E0.873
G1 X102.155 Y83.36 E1.06493
G1 X106.043 Y87.061 E1.20776
G1 X110.156 Y90.554 E1.35134
G1 X114.45 Y93.804 E1.49463
G1 X118.912 Y96.798 E1.63761
G1 X123.54 Y99.537 E1.7807
G1 X128.335 Y102.022 E1.9244
G1 X133.869 Y104.485 E2.08558
G1 X134.24 Y104.669 E2.09659
G1 X137.631 Y106.544 E2.1997
G1 X138.152 Y106.878 E2.21616
G1 X138.626 Y107.277 E2.23265
G1 X139.045 Y107.733 E2.24913
G1 X139.402 Y108.239 E2.2656
G1 X139.691 Y108.787 E2.28209
G1 X139.906 Y109.368 E2.29857
G1 X140.045 Y109.972 E2.31506
G1 X140.108 Y110.746 E2.33573
G1 X140.107 Y118.532 E2.5429
G1 X140.067 Y119.15 E2.55938
G1 X139.948 Y119.757 E2.57583
G1 X139.751 Y120.345 E2.59233
G1 X139.481 Y120.902 E2.60881
G1 X139.141 Y121.42 E2.62529
G1 X138.737 Y121.889 E2.64176
G1 X138.276 Y122.303 E2.65825
G1 X137.765 Y122.654 E2.67474
G1 X137.308 Y122.894 E2.68848
G1 X130.393 Y126.065 E2.8909
G1 X129.677 Y126.327 E2.91118
G1 X128.651 Y126.612 E2.93952
G1 X128.044 Y126.739 E2.95602
G1 X127.394 Y126.787 E2.97336
G1 X126.349 Y126.793 E3.00117
G1 X125.73 Y126.757 E3.01767
G1 X125.214 Y126.664 E3.03162
G1 X119.669 Y125.35 E3.18324
G1 X117.129 Y124.857 E3.25209
G1 X111.765 Y124.045 E3.39644
G1 X106.378 Y123.54 E3.54041
G1 X103.709 Y123.403 E3.61152
G1 X100.161 Y123.338 E3.70594
G1 X79.823 Y123.328 E4.2471
G1 X79.205 Y123.288 E4.26357
G1 X78.883 Y123.235 E4.27226
G1 X72.884 Y122.035 E4.43504
G1 X72.286 Y121.874 E4.45152
G1 X71.714 Y121.638 E4.46798
G1 X71.176 Y121.33 E4.48448
G1 X70.683 Y120.956 E4.50095
G1 X70.242 Y120.521 E4.51743
G1 X69.861 Y120.033 E4.5339
G1 X69.545 Y119.5 E4.55039
G1 X69.301 Y118.931 E4.56686
G1 X69.133 Y118.335 E4.58334
G1 X69.042 Y117.722 E4.59983
G1 X69.026 Y117.328 E4.61032
G1 X69.027 Y94.247 E5.22446
G1 X69.067 Y93.629 E5.24094
G1 X69.186 Y93.021 E5.25742
G1 X69.383 Y92.434 E5.2739
G1 X69.653 Y91.876 E5.29039
G1 X69.993 Y91.359 E5.30686
G1 X70.397 Y90.889 E5.32335
G1 X70.867 Y90.468 E5.34014
G0 F1542.9 X71.114 Y90.783
G1 F900 X73.704 Y88.754 E5.42768
G1 X77.835 Y85.216 E5.5724
G1 X81.746 Y81.464 E5.71661
G1 X85.072 Y77.945 E5.84545
G1 X85.508 Y77.542 E5.86125
G1 X85.906 Y77.256 E5.87429
G1 X86.738 Y76.726 E5.90054
G1 X87.258 Y76.442 E5.9163
G1 X87.722 Y76.259 E5.92957
G1 X88.685 Y75.941 E5.95656
G1 X89.26 Y75.793 E5.97236
G1 X89.79 Y75.728 E5.98656
G1 X90.797 Y75.665 E6.01341
G1 X91.39 Y75.668 E6.02919
G1 X91.998 Y75.755 E6.04553
G1 X93.085 Y75.989 E6.07512
G1 X93.655 Y76.152 E6.09089
G1 X94.063 Y76.323 E6.10266
G1 X94.867 Y76.709 E6.12639
G1 X95.383 Y77.002 E6.14218
G1 X95.774 Y77.291 E6.15512
G1 X96.546 Y77.932 E6.18182
G1 X96.968 Y78.332 E6.19729
G1 X101.883 Y83.655 E6.39007
G1 X105.772 Y87.356 E6.53292
G1 X109.909 Y90.869 E6.67733
G1 X114.211 Y94.125 E6.82089
G1 X118.691 Y97.132 E6.96445
G1 X123.359 Y99.894 E7.10877
G1 X128.153 Y102.378 E7.25244
G1 X133.706 Y104.85 E7.41417
G1 X134.046 Y105.019 E7.42428
G1 X137.437 Y106.894 E7.52738
G1 X137.936 Y107.216 E7.54318
G1 X138.386 Y107.601 E7.55894
G1 X138.781 Y108.043 E7.57471
G1 X139.113 Y108.535 E7.5905
G1 X139.375 Y109.067 E7.60628
G1 X139.564 Y109.629 E7.62206
G1 X139.675 Y110.211 E7.63782
G1 X139.708 Y110.746 E7.65209
G1 X139.707 Y118.532 E7.85926
G1 X139.667 Y119.123 E7.87502
G1 X139.548 Y119.704 E7.8908
G1 X139.352 Y120.264 E7.90659
G1 X139.082 Y120.792 E7.92237
G1 X138.744 Y121.279 E7.93814
G1 X138.343 Y121.716 E7.95392
G1 X137.887 Y122.095 E7.9697
G1 X137.141 Y122.531 E7.99269
G1 X130.226 Y125.702 E8.19511
G1 X129.57 Y125.941 E8.21368
G1 X128.544 Y126.226 E8.24202
G1 X127.963 Y126.346 E8.2578
G1 X127.391 Y126.387 E8.27306
G1 X126.346 Y126.393 E8.30087
G1 X125.754 Y126.356 E8.31665
G1 X125.306 Y126.274 E8.32877
G1 X119.763 Y124.96 E8.48035
G1 X117.191 Y124.461 E8.55006
G1 X111.827 Y123.65 E8.69441
G1 X106.387 Y123.14 E8.83979
G1 X103.737 Y123.004 E8.91039
G1 X100.169 Y122.938 E9.00535
G1 X79.823 Y122.928 E9.54671
G1 X78.962 Y122.843 E9.56974
G1 X72.963 Y121.643 E9.73252
G1 X72.391 Y121.487 E9.7483
G1 X71.844 Y121.257 E9.76408
G1 X71.334 Y120.954 E9.77987
G1 X70.869 Y120.586 E9.79565
G1 X70.458 Y120.159 E9.81142
G1 X70.108 Y119.681 E9.82718
G1 X69.825 Y119.159 E9.84298
G1 X69.615 Y118.605 E9.85874
G1 X69.482 Y118.027 E9.87453
G1 X69.426 Y117.328 E9.89318
G1 X69.427 Y94.247 E10.50733
G1 X69.467 Y93.655 E10.52311
G1 X69.586 Y93.074 E10.53889
G1 X69.782 Y92.515 E10.55466
G1 X70.052 Y91.987 E10.57044
G1 X70.39 Y91.5 E10.58621
G1 X70.791 Y91.062 E10.60201
G1 X71.114 Y90.783 E10.61337
G0 F1542.9 X71.36 Y91.098
G1 F900 X73.964 Y89.058 E10.70138
G1 X78.108 Y85.509 E10.84656
G1 X82.021 Y81.755 E10.99084
G1 X85.363 Y78.219 E11.1203
G1 X85.779 Y77.837 E11.13533
G1 X86.121 Y77.593 E11.14651
G1 X86.953 Y77.063 E11.17276
G1 X87.45 Y76.794 E11.18779
G1 X87.848 Y76.639 E11.19916
G1 X88.811 Y76.321 E11.22614
G1 X89.359 Y76.182 E11.24119
G1 X89.815 Y76.127 E11.25341
G1 X90.822 Y76.064 E11.28025
G1 X91.388 Y76.068 E11.29531
G1 X91.914 Y76.146 E11.30946
G1 X93.001 Y76.38 E11.33905
G1 X93.544 Y76.537 E11.35409
G1 X93.89 Y76.684 E11.36409
G1 X94.694 Y77.07 E11.38782
G1 X95.185 Y77.35 E11.40286
G1 X95.518 Y77.599 E11.41393
G1 X96.29 Y78.24 E11.44063
G1 X96.674 Y78.603 E11.45469
G1 X101.589 Y83.925 E11.64744
G1 X105.521 Y87.668 E11.79189
G1 X109.643 Y91.168 E11.93577
G1 X113.992 Y94.46 E12.08091
G1 X118.49 Y97.479 E12.22505
G1 X123.164 Y100.244 E12.36955
G1 X127.972 Y102.736 E12.51364
G1 X133.544 Y105.216 E12.67592
G1 X133.853 Y105.369 E12.6851
G1 X137.244 Y107.244 E12.7882
G1 X137.718 Y107.552 E12.80324
G1 X138.144 Y107.924 E12.81829
G1 X138.513 Y108.352 E12.83333
G1 X138.819 Y108.828 E12.84838
G1 X139.054 Y109.342 E12.86342
G1 X139.214 Y109.884 E12.87846
G1 X139.297 Y110.443 E12.8935
G1 X139.308 Y110.746 E12.90156
G1 X139.307 Y118.532 E13.10873
G1 X139.267 Y119.095 E13.12375
G1 X139.148 Y119.648 E13.1388
G1 X138.952 Y120.178 E13.15384
G1 X138.683 Y120.676 E13.1689
G1 X138.347 Y121.13 E13.18393
G1 X137.95 Y121.533 E13.19898
G1 X137.501 Y121.876 E13.21402
G1 X136.974 Y122.167 E13.23003
G1 X130.059 Y125.338 E13.43245
G1 X129.463 Y125.556 E13.44934
G1 X128.437 Y125.841 E13.47767
G1 X127.883 Y125.954 E13.49272
G1 X127.389 Y125.987 E13.50589
G1 X126.344 Y125.993 E13.5337
G1 X125.78 Y125.956 E13.54873
G1 X125.398 Y125.885 E13.55907
G1 X119.857 Y124.572 E13.71059
G1 X117.254 Y124.066 E13.78115
G1 X111.871 Y123.252 E13.92601
G1 X106.424 Y122.741 E14.07158
G1 X103.734 Y122.603 E14.14325
G1 X100.176 Y122.538 E14.23794
G1 X79.823 Y122.528 E14.77949
G1 X79.04 Y122.45 E14.80043
G1 X73.041 Y121.25 E14.96321
G1 X72.496 Y121.101 E14.97825
G1 X71.978 Y120.875 E14.99328
G1 X71.496 Y120.579 E15.00833
G1 X71.061 Y120.218 E15.02338
G1 X70.681 Y119.8 E15.03841
G1 X70.364 Y119.332 E15.05345
G1 X70.116 Y118.824 E15.06849
G1 X69.942 Y118.286 E15.08353
G1 X69.846 Y117.729 E15.09857
G1 X69.826 Y117.328 E15.10926
G1 X69.827 Y94.247 E15.7234
G1 X69.867 Y93.683 E15.73844
G1 X69.986 Y93.13 E15.75349
G1 X70.182 Y92.6 E15.76853
G1 X70.45 Y92.102 E15.78358
G1 X70.787 Y91.648 E15.79862
G1 X71.36 Y91.098 E15.81976
G0 F1542.9 X71.607 Y91.413
G1 F900 X74.213 Y89.372 E15.90783
G1 X78.362 Y85.819 E16.05318
G1 X82.326 Y82.015 E16.19936
G1 X85.654 Y78.494 E16.32827
G1 X86.05 Y78.133 E16.34253
G1 X86.336 Y77.931 E16.35185
G1 X87.168 Y77.401 E16.3781
G1 X87.64 Y77.147 E16.39236
G1 X87.973 Y77.019 E16.40185
G1 X88.936 Y76.701 E16.42884
G1 X89.457 Y76.571 E16.44312
G1 X89.84 Y76.526 E16.45338
G1 X90.847 Y76.463 E16.48023
G1 X91.383 Y76.469 E16.49449
G1 X91.83 Y76.537 E16.50652
G1 X92.917 Y76.771 E16.53611
G1 X93.431 Y76.922 E16.55036
G1 X93.717 Y77.045 E16.55865
G1 X94.521 Y77.431 E16.58238
G1 X94.986 Y77.698 E16.59665
G1 X95.263 Y77.906 E16.60586
G1 X96.035 Y78.547 E16.63256
G1 X96.38 Y78.875 E16.64523
G1 X101.301 Y84.204 E16.83823
G1 X105.25 Y87.963 E16.9833
G1 X109.388 Y91.477 E17.12775
G1 X113.762 Y94.787 E17.2737
G1 X118.277 Y97.817 E17.41838
G1 X122.969 Y100.593 E17.56344
G1 X127.797 Y103.096 E17.70814
G1 X133.381 Y105.581 E17.87077
G1 X133.659 Y105.72 E17.87904
G1 X137.05 Y107.595 E17.98215
G1 X137.499 Y107.888 E17.99641
G1 X137.899 Y108.245 E18.01068
G1 X138.241 Y108.658 E18.02494
G1 X138.519 Y109.117 E18.03922
G1 X138.725 Y109.612 E18.05349
G1 X138.855 Y110.132 E18.06775
G1 X138.908 Y110.745 E18.08412
G1 X138.907 Y118.531 E18.29129
G1 X138.867 Y119.066 E18.30557
G1 X138.748 Y119.589 E18.31984
G1 X138.553 Y120.089 E18.33412
G1 X138.285 Y120.553 E18.34838
G1 X137.952 Y120.973 E18.36264
G1 X137.56 Y121.339 E18.37691
G1 X137.117 Y121.643 E18.39121
G1 X136.808 Y121.803 E18.40046
G1 X129.893 Y124.974 E18.60288
G1 X129.356 Y125.171 E18.6181
G1 X128.33 Y125.456 E18.64644
G1 X127.804 Y125.56 E18.6607
G1 X127.387 Y125.587 E18.67182
G1 X126.342 Y125.593 E18.69963
G1 X125.807 Y125.556 E18.7139
G1 X125.491 Y125.496 E18.72246
G1 X119.934 Y124.179 E18.87441
G1 X117.32 Y123.672 E18.94526
G1 X111.914 Y122.854 E19.09074
G1 X106.456 Y122.342 E19.23661
G1 X103.763 Y122.204 E19.30836
G1 X100.184 Y122.138 E19.4036
G1 X79.823 Y122.128 E19.94537
G1 X79.119 Y122.058 E19.9642
G1 X73.12 Y120.858 E20.12698
G1 X72.603 Y120.714 E20.14126
G1 X72.114 Y120.495 E20.15552
G1 X71.662 Y120.205 E20.16981
G1 X71.259 Y119.852 E20.18406
G1 X70.913 Y119.443 E20.19832
G1 X70.631 Y118.986 E20.2126
G1 X70.42 Y118.493 E20.22687
G1 X70.285 Y117.974 E20.24114
G1 X70.226 Y117.328 E20.2584
G1 X70.227 Y94.247 E20.87254
G1 X70.267 Y93.712 E20.88682
G1 X70.386 Y93.189 E20.90109
G1 X70.581 Y92.69 E20.91535
G1 X70.849 Y92.225 E20.92963
G1 X71.182 Y91.805 E20.94389
G1 X71.607 Y91.413 E20.95927
G0 F1542.9 X71.854 Y91.728
G1 F900 X74.46 Y89.687 E21.04735
G1 X78.636 Y86.111 E21.19364
G1 X82.6 Y82.306 E21.33984
G1 X85.944 Y78.769 E21.46936
G1 X86.32 Y78.43 E21.48283
G1 X86.551 Y78.268 E21.49033
G1 X87.383 Y77.738 E21.51658
G1 X87.829 Y77.501 E21.53002
G1 X88.099 Y77.398 E21.53771
G1 X89.062 Y77.08 E21.56469
G1 X89.553 Y76.96 E21.57814
G1 X89.865 Y76.925 E21.5865
G1 X90.872 Y76.862 E21.61334
G1 X91.378 Y76.871 E21.62681
G1 X91.745 Y76.928 E21.63669
G1 X92.832 Y77.162 E21.66628
G1 X93.544 Y77.405 E21.6863
G1 X94.348 Y77.791 E21.71003
G1 X94.785 Y78.045 E21.72348
G1 X95.007 Y78.214 E21.7309
G1 X95.779 Y78.855 E21.7576
G1 X96.086 Y79.146 E21.76885
G1 X101.021 Y84.491 E21.96242
G1 X104.98 Y88.258 E22.10783
G1 X109.142 Y91.792 E22.25311
G1 X113.523 Y95.108 E22.39931
G1 X118.056 Y98.15 E22.54456
G1 X122.781 Y100.947 E22.69066
G1 X127.635 Y103.462 E22.83613
G1 X133.218 Y105.947 E22.99873
G1 X133.465 Y106.07 E23.00607
G1 X136.856 Y107.945 E23.10918
G1 X137.278 Y108.223 E23.12262
G1 X137.651 Y108.565 E23.13609
G1 X137.965 Y108.961 E23.14953
G1 X138.213 Y109.402 E23.163
G1 X138.388 Y109.876 E23.17644
G1 X138.486 Y110.372 E23.18989
G1 X138.508 Y110.745 E23.19984
G1 X138.507 Y118.531 E23.40701
G1 X138.467 Y119.035 E23.42046
G1 X138.348 Y119.527 E23.43393
G1 X138.153 Y119.993 E23.44737
G1 X137.887 Y120.423 E23.46082
G1 X137.557 Y120.806 E23.47427
G1 X137.171 Y121.132 E23.48772
G1 X136.641 Y121.44 E23.50403
G1 X129.726 Y124.611 E23.70645
G1 X129.248 Y124.785 E23.71998
G1 X128.222 Y125.07 E23.74832
G1 X127.726 Y125.167 E23.76176
G1 X127.384 Y125.187 E23.77088
G1 X126.339 Y125.193 E23.79869
G1 X125.835 Y125.156 E23.81213
G1 X125.583 Y125.107 E23.81896
G1 X120.005 Y123.785 E23.97149
G1 X117.405 Y123.28 E24.04197
G1 X111.959 Y122.456 E24.18853
G1 X106.49 Y121.944 E24.33468
G1 X103.759 Y121.804 E24.40744
G1 X100.191 Y121.738 E24.5024
G1 X79.823 Y121.728 E25.04435
G1 X79.197 Y121.666 E25.06109
G1 X73.198 Y120.466 E25.22387
G1 X72.712 Y120.328 E25.23732
G1 X72.253 Y120.115 E25.25078
G1 X71.834 Y119.832 E25.26423
G1 X71.465 Y119.487 E25.27768
G1 X71.154 Y119.089 E25.29112
G1 X70.91 Y118.646 E25.30457
G1 X70.739 Y118.17 E25.31803
G1 X70.645 Y117.673 E25.33149
G1 X70.626 Y117.328 E25.34068
G1 X70.627 Y94.247 E25.95482
G1 X70.667 Y93.743 E25.96828
G1 X70.786 Y93.251 E25.98175
G1 X70.981 Y92.785 E25.99519
G1 X71.246 Y92.355 E26.00863
G1 X71.577 Y91.972 E26.0221
G1 X71.854 Y91.728 E26.03192
G1 F1200 E19.53192
G0 F1542.9 X87.845 Y80.44
G0 X88.838 Y79.811
G0 X89.946 Y79.452
G0 X91.122 Y79.379
G0 X92.267 Y79.6
G0 X93.328 Y80.103
G0 X94.225 Y80.849
G0 X94.915 Y81.801
G0 X95.342 Y82.892
G0 X95.484 Y84.035
G0 X95.406 Y84.894
G0 X95.171 Y85.714
G0 X94.848 Y86.374
G0 X84.817 Y99.738
;TYPE:SUPPORT
G1 F1200 E26.03192
G1 F900 X95.424 Y99.738 E26.31415
G1 X95.54 Y99.854 E26.31852
G1 X95.541 Y111.622 E26.63164
G1 X95.425 Y111.738 E26.636
G1 X84.817 Y111.738 E26.91826
G1 X84.817 Y99.738 E27.23756
G0 F1542.9 X84.977 Y100
G1 F900 X95.381 Y100 E27.51439
G0 F1542.9 X94 Y99.898
G1 F900 X94 Y111.578 E27.82517
G0 F1542.9 X92 Y111.578
G1 F900 X92 Y99.898 E28.13596
G0 F1542.9 X90 Y99.898
G1 F900 X90 Y111.578 E28.44674
G0 F1542.9 X88 Y111.578
G1 F900 X88 Y99.898 E28.75752
G0 F1542.9 X86 Y99.898
G1 F900 X86 Y111.578 E29.0683
G0 F1542.9 X84.977 Y110
G1 F900 X95.381 Y110 E29.34514
G0 F1542.9 X95.381 Y108
G1 F900 X84.977 Y108 E29.62197
G0 F1542.9 X84.977 Y106
G1 F900 X95.381 Y106 E29.8988
G0 F1542.9 X95.381 Y104
G1 F900 X84.977 Y104 E30.17563
G0 F1542.9 X84.977 Y102
G1 F900 X95.381 Y102 E30.45246
G0 F1542.9 X129.546 Y109.738
G1 F900 X129.828 Y109.064 E30.4719
G1 X131.796 Y109.065 E30.52426
G1 X132.077 Y109.738 E30.54367
G1 X129.546 Y109.738 E30.61101
G0 F1542.9 X130 Y109.578
G1 F900 X130 Y109.225 E30.62041
G1 F1200 E24.12041
G0 F1542.9 X130 Y110.073
G0 X130 Y111.358
G0 X129.554 Y119.226
;TYPE:WALL-INNER
G1 F1200 E30.62041
G1 F900 X129.579 Y119.165 E30.62216
G1 X129.606 Y119.099 E30.62406
G1 X129.588 Y119.168 E30.62408
G1 X129.554 Y119.226 E30.62413
G0 F1542.9 X129.19 Y119.845
G1 F900 X129.23 Y119.793 E30.62587
G1 X129.198 Y119.85 E30.62589
G1 X129.153 Y119.894 E30.62754
G1 X129.19 Y119.845 E30.62755
G0 F1542.9 X128.637 Y120.402
G1 F900 X128.688 Y120.362 E30.62927
G1 X128.642 Y120.408 E30.6293
G1 X128.589 Y120.439 E30.63092
G1 X128.637 Y120.402 E30.63092
G0 F1542.9 X127.901 Y120.818
G1 F900 X127.961 Y120.793 E30.63265
G1 X128.025 Y120.766 E30.6345
G1 X127.965 Y120.801 E30.63452
G1 X127.901 Y120.818 E30.63457
G0 F1542.9 X127.21 Y120.995
G1 F900 X127.272 Y120.987 E30.63623
G1 X127.212 Y121.003 E30.63625
G1 X127.148 Y121.003 E30.63793
G1 X127.21 Y120.995
G0 F1542.9 X126.363 Y120.987
G1 F900 X126.423 Y120.994 E30.63953
G1 X126.486 Y121.003 E30.64123
G1 X126.423 Y121.003 E30.64125
G1 X126.363 Y120.987 E30.64129
G0 F1542.9 X125.673 Y120.792
G1 F900 X125.736 Y120.819 E30.64311
G1 X125.67 Y120.801 E30.64313
G1 X125.606 Y120.764 E30.64509
G1 X125.673 Y120.792
G0 F1542.9 X124.997 Y120.4
G1 F900 X125.052 Y120.443 E30.64695
G1 X124.992 Y120.408 E30.64697
G1 X124.943 Y120.358 E30.6488
G1 X124.997 Y120.4
G0 F1542.9 X124.434 Y119.847
G1 F900 X124.399 Y119.785 E30.65069
G1 X124.441 Y119.841 E30.65071
G1 X124.481 Y119.894 E30.65247
G1 X124.434 Y119.847 E30.65249
G0 F1542.9 X124.058 Y119.168
G1 F900 X124.085 Y119.235 E30.65441
G1 X124.049 Y119.172 E30.65443
