;FLAVOR:Marlin
;TIME:4144
;Filament used: 5.39743m, 0m
;Layer height: 0.2
;POSTPROCESSED
;Generated with Cura_SteamEngine 3.4.1
T0
M190 S75
M104 S248
M109 S248
M82 ;absolute extrusion mode
; Printer start settings begin
M92 X160 Y160 Z1600; Steps per unit
M201 X1000 Y1000 Z50 E1500 E1500 ; Max Accelleration
M203 X800 Y800 Z2 E90 E90 ; Max Feed
M205 X3.0 Y3.0 Z0.3 E5.0 ; Default Jerk
G28
G0 X0 Y0 Z15 F1200
G92 E-35
G1 E0 F200 ;Home
G92 E5
G1 F1000 E0
G29 ;Auto Bed Level
G92 F400 E-5
G1 E0
G0 X0 Y0 Z15.0 F6000 ;Move the platform down 15mm
G92 E0
G1 F200 E3
G92 E0
G92 E0
G1 F1200 E-6.5
;LAYER_COUNT:81
;LAYER:0
M107
G0 F1542.9 X71.085 Y79.646 Z0.16
;TYPE:SKIRT
G1 F1200 E0
G1 F900 X71.546 Y79.233 E0.01647
G1 X72.057 Y78.883 E0.03295
G1 X72.609 Y78.601 E0.04944
G1 X73.192 Y78.393 E0.06591
G1 X73.798 Y78.262 E0.08241
G1 X74.51 Y78.209 E0.10141
G1 X135.491 Y78.21 E1.724
G1 X136.109 Y78.25 E1.74047
G1 X136.717 Y78.369 E1.75696
G1 X137.304 Y78.566 E1.77343
G1 X137.861 Y78.836 E1.7899
G1 X138.379 Y79.176 E1.80639
G1 X138.849 Y79.58 E1.82288
G1 X139.262 Y80.041 E1.83935
G1 X139.613 Y80.551 E1.85582
G1 X139.896 Y81.102 E1.87231
G1 X140.105 Y81.686 E1.88881
G1 X140.237 Y82.291 E1.90529
G1 X140.291 Y83.01 E1.92447
G1 X140.291 Y124.991 E3.04151
G1 X140.251 Y125.609 E3.05799
G1 X140.132 Y126.217 E3.07447
G1 X139.935 Y126.804 E3.09095
G1 X139.665 Y127.361 E3.10742
G1 X139.325 Y127.879 E3.1239
G1 X138.921 Y128.349 E3.14039
G1 X138.46 Y128.762 E3.15686
G1 X137.95 Y129.113 E3.17334
G1 X137.399 Y129.396 E3.18982
G1 X136.816 Y129.605 E3.2063
G1 X136.21 Y129.737 E3.2228
G1 X135.491 Y129.791 E3.24198
G1 X93.466 Y129.787 E4.36019
G1 X92.831 Y129.745 E4.37712
G1 X91.864 Y129.616 E4.40308
G1 X91.257 Y129.495 E4.41955
G1 X90.652 Y129.288 E4.43656
G1 X89.611 Y128.854 E4.46657
G1 X88.841 Y128.448 E4.48974
G1 X84.211 Y125.437 E4.63669
G1 X79.54 Y122.761 E4.77993
G1 X74.688 Y120.338 E4.92423
G1 X72.539 Y119.37 E4.98695
G1 X71.991 Y119.08 E5.00345
G1 X71.486 Y118.722 E5.01992
G1 X71.031 Y118.301 E5.03641
G1 X70.634 Y117.826 E5.05288
G1 X70.302 Y117.303 E5.06937
G1 X70.039 Y116.742 E5.08585
G1 X69.851 Y116.152 E5.10233
G1 X69.741 Y115.543 E5.11879
G1 X69.709 Y114.992 E5.13348
G1 X69.71 Y108.008 E5.31931
G1 X69.725 Y107.632 E5.32932
G1 X69.869 Y105.803 E5.37814
G1 X70.102 Y100.36 E5.5231
G1 X70.026 Y94.942 E5.66728
G1 X69.71 Y89.976 E5.79968
G1 X69.7 Y89.664 E5.80799
G1 X69.71 Y83.002 E5.98525
G1 X69.751 Y82.384 E6.00173
G1 X69.871 Y81.776 E6.01822
G1 X70.068 Y81.189 E6.0347
G1 X70.34 Y80.632 E6.05119
G1 X70.68 Y80.115 E6.06765
G1 X71.085 Y79.646 E6.08414
G0 F1542.9 X71.478 Y79.82
G1 F900 X71.935 Y79.441 E6.09994
G1 X72.438 Y79.128 E6.1157
G1 X72.979 Y78.884 E6.13149
G1 X73.547 Y78.716 E6.14725
G1 X74.133 Y78.625 E6.16303
G1 X74.51 Y78.609 E6.17307
G1 X135.491 Y78.61 E7.79566
G1 X136.083 Y78.65 E7.81145
G1 X136.664 Y78.769 E7.82723
G1 X137.223 Y78.965 E7.84299
G1 X137.751 Y79.235 E7.85877
G1 X138.238 Y79.573 E7.87455
G1 X138.675 Y79.974 E7.89033
G1 X139.055 Y80.429 E7.9061
G1 X139.369 Y80.932 E7.92188
G1 X139.614 Y81.472 E7.93766
G1 X139.783 Y82.041 E7.95345
G1 X139.874 Y82.627 E7.96923
G1 X139.891 Y83.01 E7.97943
G1 X139.891 Y124.991 E9.09647
G1 X139.851 Y125.583 E9.11225
G1 X139.732 Y126.163 E9.12801
G1 X139.536 Y126.723 E9.14379
G1 X139.266 Y127.251 E9.15957
G1 X138.928 Y127.738 E9.17535
G1 X138.527 Y128.175 E9.19113
G1 X138.072 Y128.555 E9.2069
G1 X137.569 Y128.869 E9.22268
G1 X137.029 Y129.114 E9.23846
G1 X136.46 Y129.283 E9.25425
G1 X135.875 Y129.374 E9.27
G1 X135.491 Y129.391 E9.28023
G1 X93.466 Y129.387 E10.39844
G1 X92.884 Y129.348 E10.41396
G1 X91.917 Y129.219 E10.43992
G1 X91.336 Y129.102 E10.45569
G1 X90.806 Y128.919 E10.47061
G1 X89.765 Y128.485 E10.50061
G1 X89.059 Y128.113 E10.52185
G1 X84.415 Y125.093 E10.66925
G1 X79.725 Y122.406 E10.81307
G1 X74.862 Y119.977 E10.95771
G1 X72.703 Y119.005 E11.02071
G1 X72.18 Y118.726 E11.03648
G1 X71.699 Y118.379 E11.05226
G1 X71.269 Y117.97 E11.06805
G1 X70.898 Y117.508 E11.08382
G1 X70.593 Y116.999 E11.09961
G1 X70.359 Y116.454 E11.11539
G1 X70.2 Y115.883 E11.13116
G1 X70.119 Y115.296 E11.14693
G1 X70.109 Y114.992 E11.15502
G1 X70.11 Y108.008 E11.34085
G1 X70.124 Y107.664 E11.35001
G1 X70.269 Y105.825 E11.3991
G1 X70.502 Y100.372 E11.54432
G1 X70.426 Y94.932 E11.68908
G1 X70.109 Y89.951 E11.82189
G1 X70.1 Y89.664 E11.82953
G1 X70.11 Y83.002 E12.00679
G1 X70.151 Y82.411 E12.02255
G1 X70.271 Y81.83 E12.03834
G1 X70.468 Y81.271 E12.05411
G1 X70.738 Y80.743 E12.06989
G1 X71.077 Y80.257 E12.08566
G1 X71.478 Y79.82 E12.10144
G0 F1542.9 X71.473 Y80.405
G1 F900 X71.871 Y80.003 E12.11649
G1 X72.321 Y79.661 E12.13153
G1 X72.815 Y79.386 E12.14657
G1 X73.342 Y79.183 E12.1616
G1 X73.893 Y79.057 E12.17664
G1 X74.51 Y79.009 E12.19311
G1 X135.491 Y79.01 E13.81569
G1 X136.055 Y79.05 E13.83074
G1 X136.608 Y79.169 E13.84579
G1 X137.138 Y79.365 E13.86083
G1 X137.635 Y79.633 E13.87585
G1 X138.09 Y79.969 E13.8909
G1 X138.493 Y80.366 E13.90595
G1 X138.835 Y80.816 E13.92099
G1 X139.111 Y81.309 E13.93603
G1 X139.315 Y81.837 E13.95109
G1 X139.442 Y82.387 E13.96611
G1 X139.491 Y83.01 E13.98273
G1 X139.491 Y124.991 E15.09977
G1 X139.451 Y125.555 E15.11481
G1 X139.332 Y126.108 E15.12987
G1 X139.136 Y126.638 E15.1449
G1 X138.868 Y127.135 E15.15993
G1 X138.532 Y127.59 E15.17498
G1 X138.135 Y127.993 E15.19003
G1 X137.685 Y128.335 E15.20507
G1 X137.192 Y128.611 E15.2201
G1 X136.664 Y128.815 E15.23516
G1 X136.114 Y128.942 E15.25018
G1 X135.491 Y128.991 E15.26681
G1 X93.466 Y128.987 E16.38501
G1 X92.937 Y128.952 E16.39912
G1 X91.97 Y128.823 E16.42508
G1 X91.416 Y128.709 E16.44013
G1 X90.96 Y128.55 E16.45298
G1 X89.919 Y128.116 E16.48299
G1 X89.277 Y127.777 E16.50231
G1 X84.631 Y124.756 E16.64976
G1 X79.917 Y122.055 E16.79432
G1 X75.026 Y119.612 E16.9398
G1 X72.867 Y118.64 E17.0028
G1 X72.369 Y118.372 E17.01784
G1 X71.914 Y118.037 E17.03288
G1 X71.511 Y117.641 E17.04791
G1 X71.167 Y117.192 E17.06296
G1 X70.891 Y116.699 E17.078
G1 X70.687 Y116.172 E17.09303
G1 X70.559 Y115.621 E17.10808
G1 X70.509 Y114.992 E17.12487
G1 X70.51 Y108.008 E17.3107
G1 X70.522 Y107.695 E17.31904
G1 X70.67 Y105.817 E17.36916
G1 X70.903 Y100.383 E17.51388
G1 X70.826 Y94.92 E17.65926
G1 X70.508 Y89.925 E17.79244
G1 X70.5 Y89.665 E17.79936
G1 X70.51 Y83.003 E17.97662
G1 X70.551 Y82.439 E17.99167
G1 X70.671 Y81.887 E18.0067
G1 X70.867 Y81.357 E18.02173
G1 X71.137 Y80.86 E18.03678
G1 X71.473 Y80.405 E18.05183
G0 F1542.9 X71.869 Y80.563
G1 F900 X72.261 Y80.198 E18.06609
G1 X72.704 Y79.895 E18.08037
G1 X73.187 Y79.661 E18.09465
G1 X73.699 Y79.502 E18.10891
G1 X74.229 Y79.42 E18.12318
G1 X74.51 Y79.409 E18.13066
G1 X135.491 Y79.41 E19.75325
G1 X136.026 Y79.45 E19.76753
G1 X136.549 Y79.569 E19.7818
G1 X137.048 Y79.764 E19.79606
G1 X137.513 Y80.032 E19.81034
G1 X137.933 Y80.365 E19.8246
G1 X138.299 Y80.757 E19.83887
G1 X138.602 Y81.199 E19.85313
G1 X138.837 Y81.682 E19.86742
G1 X138.997 Y82.193 E19.88167
G1 X139.08 Y82.723 E19.89594
G1 X139.091 Y83.01 E19.90358
G1 X139.091 Y124.991 E21.02062
G1 X139.051 Y125.526 E21.03489
G1 X138.932 Y126.049 E21.04916
G1 X138.737 Y126.548 E21.06342
G1 X138.469 Y127.013 E21.0777
G1 X138.136 Y127.433 E21.09196
G1 X137.744 Y127.799 E21.10623
G1 X137.302 Y128.102 E21.12049
G1 X136.819 Y128.337 E21.13478
G1 X136.308 Y128.497 E21.14903
G1 X135.778 Y128.58 E21.16331
G1 X135.491 Y128.591 E21.17095
G1 X93.466 Y128.587 E22.28915
G1 X92.99 Y128.555 E22.30185
G1 X92.023 Y128.426 E22.32781
G1 X91.498 Y128.316 E22.34208
G1 X91.114 Y128.181 E22.35291
G1 X90.073 Y127.747 E22.38292
G1 X89.495 Y127.442 E22.40031
G1 X84.835 Y124.411 E22.54822
G1 X80.102 Y121.701 E22.69334
G1 X75.22 Y119.262 E22.83855
G1 X73.031 Y118.276 E22.90243
G1 X72.56 Y118.02 E22.9167
G1 X72.132 Y117.697 E22.93096
G1 X71.757 Y117.313 E22.94524
G1 X71.442 Y116.879 E22.95951
G1 X71.196 Y116.402 E22.97379
G1 X71.024 Y115.895 E22.98804
G1 X70.928 Y115.367 E23.00232
G1 X70.909 Y114.992 E23.01231
G1 X70.91 Y108.008 E23.19814
G1 X70.921 Y107.726 E23.20565
G1 X71.068 Y105.865 E23.25532
G1 X71.303 Y100.377 E23.40148
G1 X71.226 Y94.91 E23.54696
G1 X70.907 Y89.9 E23.68054
G1 X70.9 Y89.666 E23.68677
G1 X70.91 Y83.004 E23.86403
G1 X70.951 Y82.469 E23.87831
G1 X71.07 Y81.946 E23.89258
G1 X71.267 Y81.447 E23.90685
G1 X71.535 Y80.982 E23.92114
G1 X71.869 Y80.563 E23.93539
G0 F1542.9 X72.263 Y80.731
G1 F900 X72.65 Y80.405 E23.94886
G1 X73.083 Y80.145 E23.9623
G1 X73.552 Y79.956 E23.97575
G1 X74.045 Y79.843 E23.98921
G1 X74.51 Y79.809 E24.00161
G1 X135.491 Y79.81 E25.6242
G1 X135.995 Y79.85 E25.63766
G1 X136.486 Y79.969 E25.6511
G1 X136.953 Y80.164 E25.66456
G1 X137.383 Y80.429 E25.678
G1 X137.766 Y80.759 E25.69146
G1 X138.092 Y81.146 E25.70492
G1 X138.353 Y81.579 E25.71837
G1 X138.543 Y82.047 E25.73181
G1 X138.656 Y82.54 E25.74527
G1 X138.691 Y83.01 E25.75781
G1 X138.691 Y124.991 E26.87485
G1 X138.651 Y125.495 E26.8883
G1 X138.532 Y125.986 E26.90174
G1 X138.338 Y126.453 E26.9152
G1 X138.072 Y126.883 E26.92865
G1 X137.742 Y127.266 E26.9421
G1 X137.355 Y127.592 E26.95557
G1 X136.922 Y127.853 E26.96902
G1 X136.454 Y128.043 E26.98246
G1 X135.961 Y128.156 E26.99592
G1 X135.491 Y128.191 E27.00846
G1 X93.466 Y128.187 E28.12666
G1 X93.043 Y128.159 E28.13794
G1 X92.076 Y128.03 E28.1639
G1 X91.582 Y127.924 E28.17734
G1 X91.268 Y127.812 E28.18621
G1 X90.227 Y127.378 E28.21622
G1 X89.713 Y127.107 E28.23168
G1 X85.038 Y124.067 E28.38006
G1 X80.301 Y121.353 E28.52533
G1 X75.374 Y118.892 E28.67187
G1 X73.195 Y117.911 E28.73546
G1 X72.752 Y117.668 E28.7489
G1 X72.353 Y117.358 E28.76234
G1 X72.007 Y116.988 E28.77582
G1 X71.724 Y116.57 E28.78925
G1 X71.511 Y116.111 E28.80272
G1 X71.372 Y115.625 E28.81617
G1 X71.309 Y114.993 E28.83307
G1 X71.31 Y108.009 E29.0189
G1 X71.32 Y107.758 E29.02558
G1 X71.467 Y105.887 E29.07552
G1 X71.703 Y100.389 E29.22195
G1 X71.626 Y94.899 E29.36804
G1 X71.306 Y89.875 E29.50199
G1 X71.3 Y89.666 E29.50755
G1 X71.31 Y83.004 E29.68482
G1 X71.351 Y82.5 E29.69827
G1 X71.47 Y82.009 E29.71171
G1 X71.666 Y81.543 E29.72517
G1 X71.932 Y81.113 E29.73862
G1 X72.263 Y80.731 E29.75207
G1 F1200 E23.25207
G0 F1542.9 X75.114 Y82.335
G0 X75.114 Y83.614
G0 X128.218 Y84.278
;TYPE:WALL-INNER
G1 F1200 E29.75207
G1 F900 X128.042 Y84.39 E29.75762
G1 X127.582 Y84.682 E29.77212
G1 X127.067 Y85.231 E29.79215
G1 X126.703 Y85.894 E29.81227
G1 X126.516 Y86.624 E29.83232
G1 X126.516 Y87.376 E29.85233
G1 X126.703 Y88.106 E29.87238
G1 X127.067 Y88.769 E29.89251
G1 X127.582 Y89.318 E29.91254
G1 X128.218 Y89.722 E29.93258
G1 X128.937 Y89.955 E29.9527
G1 X129.691 Y90.001 E29.9728
G1 X130.428 Y89.86 E29.99276
G1 X131.112 Y89.54 E30.01285
G1 X131.693 Y89.059 E30.03292
G1 X132.138 Y88.449 E30.05301
G1 X132.412 Y87.747 E30.07307
G1 X132.508 Y87 E30.09311
G1 X132.412 Y86.253 E30.11315
G1 X132.138 Y85.551 E30.1332
G1 X131.693 Y84.941 E30.15329
G1 X131.112 Y84.46 E30.17336
G1 X130.957 Y84.387 E30.17792
G1 X130.428 Y84.14 E30.19345
G1 X129.696 Y84 E30.21328
G1 X130.428 Y84 E30.21662
G1 X131.012 Y84 E30.22723
G1 X134.5 Y84 E30.32004
G1 X134.5 Y124 E31.38437
G1 X95.008 Y124 E32.43517
G1 X94.992 Y124 E32.4356
G1 X94.265 Y123.999 E32.45494
G1 X93.553 Y123.998 E32.47389
G1 X94.265 Y123.909 E32.47613
G1 X94.992 Y123.611 E32.48911
G1 X95.004 Y123.602 E32.4895
G1 X95.616 Y123.137 E32.50995
G1 X96.096 Y122.517 E32.53082
G1 X96.4 Y121.793 E32.55171
G1 X96.509 Y120.988 E32.57333
G1 X96.401 Y120.207 E32.5943
G1 X96.097 Y119.485 E32.61515
G1 X95.617 Y118.863 E32.63605
G1 X94.994 Y118.39 E32.65687
G1 X94.391 Y118.14 E32.67424
G1 X94.282 Y118.094 E32.67738
G1 X93.563 Y118 E32.69668
G1 X94.257 Y117.909 E32.70085
G1 X94.5 Y117.877 E32.70544
G1 X94.5 Y114 E32.8086
G1 X75.5 Y114 E33.31416
G1 X75.5 Y109 E33.4472
G1 X84.652 Y109 E33.69072
G1 X84.653 Y89.2 E34.21756
G1 X84.653 Y89 E34.22288
G1 X84.453 Y89 E34.22632
G1 X75.5 Y89 E34.46455
G1 X75.5 Y84 E34.59759
G1 X128.009 Y84 E35.99475
G1 X128.218 Y84 E35.9995
G1 X128.937 Y84 E36.01863
G1 X129.675 Y84 E36.03827
G1 X128.937 Y84.045 E36.0394
G1 X128.218 Y84.278 E36.04795
G0 F1542.9 X127.361 Y85.445
G0 X127.041 Y86.028
G0 X126.877 Y86.669
G0 X125.888 Y119.47
G0 X126.074 Y120.184
G0 X126.958 Y122.096
G1 F900 X127.793 Y122.626 E36.07426
G1 X128.748 Y122.937 E36.10099
G1 X129.751 Y122.999 E36.12773
G1 X130.739 Y122.811 E36.15449
G1 X131.647 Y122.383 E36.1812
G1 X132.422 Y121.744 E36.20792
G1 X133.012 Y120.93 E36.23468
G1 X133.381 Y119.996 E36.2614
G1 X133.508 Y119 E36.28811
G1 X133.381 Y118.004 E36.31483
G1 X133.012 Y117.07 E36.34155
G1 X132.422 Y116.256 E36.3683
G1 X131.647 Y115.617 E36.39503
G1 X130.739 Y115.189 E36.42174
G1 X129.75 Y115.001 E36.44852
G1 X128.734 Y115.066 E36.47561
G1 X127.78 Y115.382 E36.50235
G1 X126.935 Y115.921 E36.52902
G1 X126.25 Y116.657 E36.55577
G1 X125.77 Y117.539 E36.58249
G1 X125.524 Y118.513 E36.60922
G1 X125.527 Y119.517 E36.63594
G1 X125.781 Y120.489 E36.66267
G1 X126.268 Y121.366 E36.68936
G1 X126.958 Y122.096 E36.71609
G0 F1542.9 X126.118 Y120.353
G0 X125.888 Y119.47
G0 X125.885 Y118.558
G0 X126.108 Y117.672
G0 X126.545 Y116.87
G0 X127.168 Y116.201
G0 X127.936 Y115.71
G0 X128.638 Y115.478
G0 X129.731 Y115.304
G0 X129.725 Y115.403
G1 F900 X128.811 Y115.462 E36.74046
G1 X127.953 Y115.746 E36.76451
G1 X127.193 Y116.231 E36.7885
G1 X126.577 Y116.893 E36.81256
G1 X126.145 Y117.686 E36.83658
G1 X125.924 Y118.562 E36.86062
G1 X125.927 Y119.465 E36.88465
G1 X126.155 Y120.339 E36.90868
G1 X126.593 Y121.128 E36.9327
G1 X127.214 Y121.785 E36.95675
G1 X127.965 Y122.261 E36.98041
G1 X128.824 Y122.541 E37.00445
G1 X129.726 Y122.597 E37.0285
G1 X130.614 Y122.428 E37.05255
G1 X131.431 Y122.043 E37.07658
G1 X132.128 Y121.468 E37.10062
G1 X132.659 Y120.736 E37.12468
G1 X132.991 Y119.896 E37.14872
G1 X133.105 Y119 E37.17275
G1 X132.991 Y118.104 E37.19678
G1 X132.659 Y117.264 E37.22082
G1 X132.128 Y116.532 E37.24488
G1 X131.431 Y115.957 E37.26892
G1 X130.614 Y115.572 E37.29295
G1 X129.725 Y115.403 E37.31703
G0 F1542.9 X129.731 Y115.304
G0 X126.877 Y87.331
G0 X126.877 Y86.669
G0 X126.969 Y86.307
G0 X127.313 Y85.41
G0 X127.393 Y85.468
G1 F900 X127.078 Y86.042 E37.33445
G1 X126.916 Y86.674 E37.35181
G1 X126.916 Y87.326 E37.36916
G1 X127.078 Y87.958 E37.38652
G1 X127.393 Y88.532 E37.40394
G1 X127.839 Y89.007 E37.42128
G1 X128.39 Y89.357 E37.43865
G1 X129.012 Y89.559 E37.45605
G1 X129.665 Y89.599 E37.47346
G1 X130.304 Y89.477 E37.49077
G1 X130.896 Y89.199 E37.50817
G1 X131.399 Y88.783 E37.52554
G1 X131.784 Y88.255 E37.54293
G1 X132.022 Y87.647 E37.5603
G1 X132.105 Y87 E37.57765
G1 X132.022 Y86.353 E37.59501
G1 X131.784 Y85.745 E37.61238
G1 X131.399 Y85.217 E37.62977
G1 X130.896 Y84.801 E37.64714
G1 X130.304 Y84.523 E37.66454
G1 X129.665 Y84.401 E37.68185
G1 X129.012 Y84.441 E37.69926
G1 X128.39 Y84.643 E37.71666
G1 X127.839 Y84.993 E37.73403
G1 X127.393 Y85.468 E37.75137
G0 F1542.9 X127.313 Y85.41
G0 X96.205 Y120.989
G0 X96.105 Y120.989
G1 F900 X96.012 Y120.314 E37.7695
G1 X95.749 Y119.688 E37.78756
G1 X95.333 Y119.15 E37.80566
G1 X94.793 Y118.74 E37.8237
G1 X94.177 Y118.484 E37.84145
G1 X93.506 Y118.396 E37.85946
G1 X92.831 Y118.481 E37.87756
G1 X92.202 Y118.74 E37.89566
G1 X91.663 Y119.153 E37.91373
G1 X91.248 Y119.691 E37.93181
G1 X90.986 Y120.318 E37.94989
G1 X90.896 Y120.992 E37.96798
G1 X90.981 Y121.666 E37.98606
G1 X91.239 Y122.296 E38.00417
G1 X91.652 Y122.835 E38.02224
G1 X92.189 Y123.249 E38.04028
G1 X92.815 Y123.513 E38.05836
G1 X93.489 Y123.603 E38.07645
G1 X94.163 Y123.519 E38.09452
G1 X94.792 Y123.261 E38.11261
G1 X95.332 Y122.85 E38.13067
G1 X95.748 Y122.314 E38.14872
G1 X96.011 Y121.687 E38.16681
G1 X96.105 Y120.989 E38.18555
G0 F1542.9 X96.205 Y120.989
G0 X96.049 Y121.697
G0 X95.782 Y122.334
G0 X95.36 Y122.878
G0 X94.811 Y123.295
G0 X94.173 Y123.557
G0 X93.62 Y123.626
G0 X91.172 Y123.332
G0 X91.102 Y123.402
G1 F900 X90.564 Y122.702 E38.20905
G1 X90.221 Y121.88 E38.23274
G1 X90.105 Y121 E38.25636
G1 X90.22 Y120.121 E38.27995
G1 X90.563 Y119.299 E38.30365
G1 X91.101 Y118.599 E38.32714
G1 X91.802 Y118.061 E38.35065
G1 X92.625 Y117.72 E38.37436
G1 X94.1 Y117.526 E38.41394
G1 X94.1 Y114.4 E38.49712
G1 X75.1 Y114.4 E39.00267
G1 X75.1 Y108.6 E39.157
