;FLAVOR:Marlin
;TIME:5896
;Filament used: 8.49389m, 0m
;Layer height: 0.2
;POSTPROCESSED
;Generated with Cura_SteamEngine 3.4.1
T0
M190 S75
M104 S248
M109 S248
M82 ;absolute extrusion mode
; Printer start settings begin
M92 X160 Y160 Z1600; Steps per unit
M201 X1000 Y1000 Z50 E1500 E1500 ; Max Accelleration
M203 X800 Y800 Z2 E90 E90 ; Max Feed
M205 X3.0 Y3.0 Z0.3 E5.0 ; Default Jerk
G28
G0 X0 Y0 Z15 F1200
G92 E-35
G1 E0 F200 ;Home
G92 E5
G1 F1000 E0
G29 ;Auto Bed Level
G92 F400 E-5
G1 E0
G0 X0 Y0 Z15.0 F6000 ;Move the platform down 15mm
G92 E0
G1 F200 E3
G92 E0
G92 E0
G1 F1200 E-6.5
;LAYER_COUNT:106
;LAYER:0
M107
G0 F1542.9 X91.614 Y69.703 Z0.16
;TYPE:SKIRT
G1 F1200 E0
G1 F900 X92.008 Y69.224 E0.0165
G1 X92.46 Y68.801 E0.03297
G1 X92.963 Y68.439 E0.04946
G1 X93.508 Y68.146 E0.06593
G1 X94.086 Y67.924 E0.0824
G1 X94.688 Y67.779 E0.09888
G1 X95.508 Y67.709 E0.12078
G1 X130.491 Y67.71 E1.05161
G1 X131.109 Y67.75 E1.06809
G1 X131.717 Y67.869 E1.08457
G1 X132.304 Y68.066 E1.10105
G1 X132.861 Y68.336 E1.11752
G1 X133.379 Y68.676 E1.134
G1 X133.849 Y69.08 E1.1505
G1 X134.263 Y69.541 E1.16698
G1 X134.613 Y70.051 E1.18344
G1 X134.896 Y70.603 E1.19995
G1 X135.105 Y71.186 E1.21642
G1 X135.237 Y71.791 E1.2329
G1 X135.291 Y72.51 E1.25209
G1 X135.29 Y106.497 E2.15642
G1 X135.25 Y107.115 E2.17289
G1 X135.131 Y107.723 E2.18938
G1 X134.886 Y108.424 E2.20914
G1 X132.431 Y114.025 E2.37186
G1 X130.564 Y119.084 E2.51534
G1 X128.986 Y124.239 E2.65879
G1 X127.692 Y129.517 E2.80339
G1 X127.18 Y132.076 E2.87283
G1 X126.235 Y138.221 E3.03825
G1 X126.102 Y138.825 E3.05471
G1 X125.892 Y139.408 E3.0712
G1 X125.608 Y139.959 E3.08769
G1 X125.256 Y140.468 E3.10416
G1 X124.841 Y140.928 E3.12064
G1 X124.371 Y141.331 E3.13712
G1 X123.852 Y141.67 E3.15361
G1 X123.295 Y141.939 E3.17007
G1 X122.707 Y142.134 E3.18655
G1 X122.099 Y142.252 E3.20303
G1 X121.491 Y142.291 E3.21924
G1 X79.509 Y142.29 E4.33631
G1 X78.891 Y142.25 E4.35278
G1 X78.283 Y142.131 E4.36927
G1 X77.696 Y141.934 E4.38574
G1 X77.139 Y141.664 E4.40221
G1 X76.621 Y141.324 E4.4187
G1 X76.151 Y140.92 E4.43519
G1 X75.737 Y140.459 E4.45168
G1 X75.387 Y139.949 E4.46814
G1 X75.104 Y139.397 E4.48464
G1 X74.895 Y138.814 E4.50112
G1 X74.763 Y138.209 E4.5176
G1 X74.709 Y137.49 E4.53678
G1 X74.71 Y95.504 E5.65395
G1 X74.75 Y94.886 E5.67043
G1 X74.869 Y94.278 E5.68691
G1 X75.066 Y93.691 E5.70339
G1 X75.336 Y93.134 E5.71986
G1 X75.676 Y92.616 E5.73635
G1 X75.903 Y92.337 E5.74592
G1 X79.474 Y88.271 E5.88991
G1 X82.798 Y84.027 E6.03335
G1 X85.876 Y79.605 E6.1767
G1 X88.694 Y75.023 E6.31983
G1 X91.285 Y70.227 E6.46488
G1 X91.614 Y69.703 E6.48134
G0 F1542.9 X91.953 Y69.916
G1 F900 X92.334 Y69.462 E6.49711
G1 X92.773 Y69.062 E6.51292
G1 X93.261 Y68.726 E6.52868
G1 X93.79 Y68.458 E6.54446
G1 X94.35 Y68.264 E6.56023
G1 X94.932 Y68.147 E6.57602
G1 X95.508 Y68.109 E6.59138
G1 X130.491 Y68.11 E7.52222
G1 X131.083 Y68.15 E7.538
G1 X131.664 Y68.269 E7.55378
G1 X132.223 Y68.465 E7.56955
G1 X132.751 Y68.735 E7.58532
G1 X133.238 Y69.073 E7.6011
G1 X133.676 Y69.474 E7.6169
G1 X134.055 Y69.929 E7.63266
G1 X134.369 Y70.432 E7.64843
G1 X134.614 Y70.972 E7.66421
G1 X134.783 Y71.541 E7.68
G1 X134.874 Y72.127 E7.69578
G1 X134.891 Y72.51 E7.70598
G1 X134.89 Y106.497 E8.61031
G1 X134.85 Y107.089 E8.6261
G1 X134.731 Y107.67 E8.64188
G1 X134.52 Y108.263 E8.65863
G1 X132.062 Y113.871 E8.82155
G1 X130.18 Y118.971 E8.9662
G1 X128.6 Y124.132 E9.10981
G1 X127.299 Y129.44 E9.25523
G1 X126.79 Y131.98 E9.32416
G1 X125.84 Y138.16 E9.49053
G1 X125.71 Y138.738 E9.50629
G1 X125.504 Y139.294 E9.52207
G1 X125.225 Y139.818 E9.53786
G1 X124.879 Y140.299 E9.55363
G1 X124.47 Y140.729 E9.56942
G1 X124.008 Y141.1 E9.58519
G1 X123.5 Y141.406 E9.60097
G1 X122.955 Y141.64 E9.61675
G1 X122.384 Y141.799 E9.63252
G1 X121.797 Y141.88 E9.64829
G1 X121.491 Y141.891 E9.65643
G1 X79.509 Y141.89 E10.7735
G1 X78.917 Y141.85 E10.78928
G1 X78.336 Y141.731 E10.80506
G1 X77.777 Y141.535 E10.82083
G1 X77.249 Y141.265 E10.8366
G1 X76.762 Y140.927 E10.85238
G1 X76.325 Y140.526 E10.86816
G1 X75.945 Y140.071 E10.88393
G1 X75.631 Y139.568 E10.89971
G1 X75.386 Y139.028 E10.91549
G1 X75.217 Y138.459 E10.93128
G1 X75.126 Y137.873 E10.94706
G1 X75.109 Y137.49 E10.95726
G1 X75.11 Y95.504 E12.07443
G1 X75.15 Y94.912 E12.09022
G1 X75.269 Y94.331 E12.106
G1 X75.465 Y93.772 E12.12176
G1 X75.735 Y93.244 E12.13754
G1 X76.204 Y92.601 E12.15872
G1 X79.781 Y88.528 E12.30295
G1 X83.12 Y84.265 E12.44703
G1 X86.207 Y79.829 E12.59084
G1 X89.041 Y75.222 E12.73476
G1 X91.637 Y70.417 E12.88007
G1 X91.953 Y69.916 E12.89583
G0 F1542.9 X92.292 Y70.13
G1 F900 X92.659 Y69.701 E12.91086
G1 X93.084 Y69.327 E12.92592
G1 X93.557 Y69.017 E12.94097
G1 X94.068 Y68.777 E12.95599
G1 X94.609 Y68.611 E12.97105
G1 X95.167 Y68.524 E12.98607
G1 X95.508 Y68.509 E12.99516
G1 X130.491 Y68.51 E13.92599
G1 X131.055 Y68.55 E13.94103
G1 X131.608 Y68.669 E13.95608
G1 X132.138 Y68.865 E13.97112
G1 X132.635 Y69.133 E13.98614
G1 X133.09 Y69.469 E14.00119
G1 X133.493 Y69.866 E14.01625
G1 X133.836 Y70.316 E14.0313
G1 X134.111 Y70.809 E14.04632
G1 X134.315 Y71.337 E14.06138
G1 X134.442 Y71.888 E14.07643
G1 X134.491 Y72.51 E14.09303
G1 X134.49 Y106.497 E14.99736
G1 X134.45 Y107.061 E15.0124
G1 X134.331 Y107.614 E15.02746
G1 X134.154 Y108.103 E15.04129
G1 X131.688 Y113.729 E15.20474
G1 X129.803 Y118.836 E15.34959
G1 X128.215 Y124.025 E15.49398
G1 X126.907 Y129.358 E15.64008
G1 X126.397 Y131.911 E15.70936
G1 X125.445 Y138.099 E15.87595
G1 X125.319 Y138.65 E15.89098
G1 X125.118 Y139.178 E15.90602
G1 X124.844 Y139.673 E15.92107
G1 X124.502 Y140.124 E15.93613
G1 X124.101 Y140.522 E15.95117
G1 X123.648 Y140.86 E15.9662
G1 X123.151 Y141.13 E15.98125
G1 X122.622 Y141.328 E15.99628
G1 X122.07 Y141.449 E16.01132
G1 X121.491 Y141.491 E16.02677
G1 X79.509 Y141.49 E17.14383
G1 X78.945 Y141.45 E17.15887
G1 X78.392 Y141.331 E17.17392
G1 X77.862 Y141.135 E17.18896
G1 X77.365 Y140.867 E17.20398
G1 X76.91 Y140.531 E17.21903
G1 X76.507 Y140.134 E17.23409
G1 X76.165 Y139.684 E17.24912
G1 X75.889 Y139.191 E17.26416
G1 X75.685 Y138.663 E17.27922
G1 X75.558 Y138.113 E17.29424
G1 X75.509 Y137.49 E17.31087
G1 X75.51 Y95.504 E18.42804
G1 X75.55 Y94.94 E18.44308
G1 X75.669 Y94.387 E18.45813
G1 X75.865 Y93.857 E18.47317
G1 X76.133 Y93.36 E18.48819
G1 X76.504 Y92.865 E18.50465
G1 X80.089 Y88.782 E18.64923
G1 X83.445 Y84.498 E18.79403
G1 X86.547 Y80.042 E18.93849
G1 X89.388 Y75.422 E19.08281
G1 X91.989 Y70.608 E19.2284
G1 X92.292 Y70.13 E19.24346
G0 F1542.9 X92.63 Y70.346
G1 F900 X92.983 Y69.943 E19.25771
G1 X93.393 Y69.596 E19.272
G1 X93.849 Y69.314 E19.28627
G1 X94.342 Y69.103 E19.30054
G1 X94.861 Y68.968 E19.31481
G1 X95.508 Y68.909 E19.3321
G1 X130.491 Y68.91 E20.26293
G1 X131.026 Y68.95 E20.2772
G1 X131.549 Y69.069 E20.29147
G1 X132.048 Y69.264 E20.30573
G1 X132.513 Y69.532 E20.32001
G1 X132.933 Y69.865 E20.33427
G1 X133.299 Y70.257 E20.34854
G1 X133.603 Y70.699 E20.36281
G1 X133.837 Y71.182 E20.3771
G1 X133.997 Y71.693 E20.39134
G1 X134.08 Y72.223 E20.40562
G1 X134.091 Y72.51 E20.41326
G1 X134.09 Y106.497 E21.31759
G1 X134.05 Y107.032 E21.33186
G1 X133.931 Y107.555 E21.34614
G1 X133.787 Y107.942 E21.35712
G1 X131.318 Y113.576 E21.5208
G1 X129.422 Y118.712 E21.66647
G1 X127.829 Y123.917 E21.81131
G1 X126.521 Y129.253 E21.95749
G1 X125.999 Y131.858 E22.02818
G1 X125.049 Y138.038 E22.19455
G1 X124.928 Y138.561 E22.20884
G1 X124.731 Y139.059 E22.22309
G1 X124.462 Y139.523 E22.23736
G1 X124.128 Y139.942 E22.25161
G1 X123.734 Y140.307 E22.26591
G1 X123.291 Y140.609 E22.28017
G1 X122.808 Y140.842 E22.29444
G1 X122.295 Y141 E22.30872
G1 X121.765 Y141.081 E22.32299
G1 X121.491 Y141.091 E22.33028
G1 X79.509 Y141.09 E23.44735
G1 X78.974 Y141.05 E23.46162
G1 X78.451 Y140.931 E23.47589
G1 X77.952 Y140.736 E23.49015
G1 X77.487 Y140.468 E23.50443
G1 X77.067 Y140.135 E23.51869
G1 X76.701 Y139.743 E23.53296
G1 X76.398 Y139.301 E23.54722
G1 X76.163 Y138.818 E23.56151
G1 X76.003 Y138.307 E23.57576
G1 X75.92 Y137.777 E23.59003
G1 X75.909 Y137.49 E23.59768
G1 X75.91 Y95.504 E24.71484
G1 X75.95 Y94.969 E24.72912
G1 X76.069 Y94.446 E24.74339
G1 X76.264 Y93.947 E24.75765
G1 X76.532 Y93.482 E24.77193
G1 X76.805 Y93.129 E24.7838
G1 X80.397 Y89.039 E24.92864
G1 X83.758 Y84.747 E25.07369
G1 X86.877 Y80.266 E25.21896
G1 X89.742 Y75.608 E25.36447
G1 X92.341 Y70.798 E25.50994
G1 X92.63 Y70.346 E25.52422
G0 F1542.9 X92.967 Y70.563
G1 F900 X93.306 Y70.188 E25.53767
G1 X93.699 Y69.87 E25.55112
G1 X94.137 Y69.618 E25.56456
G1 X94.609 Y69.438 E25.57801
G1 X95.104 Y69.335 E25.59146
G1 X95.508 Y69.309 E25.60223
G1 X130.491 Y69.31 E26.53306
G1 X130.995 Y69.35 E26.54651
G1 X131.486 Y69.469 E26.55996
G1 X131.953 Y69.664 E26.57342
G1 X132.383 Y69.929 E26.58686
G1 X132.766 Y70.26 E26.60033
G1 X133.092 Y70.646 E26.61378
G1 X133.353 Y71.079 E26.62723
G1 X133.543 Y71.547 E26.64067
G1 X133.656 Y72.04 E26.65413
G1 X133.691 Y72.51 E26.66667
G1 X133.69 Y106.497 E27.571
G1 X133.65 Y107.001 E27.58445
G1 X133.531 Y107.492 E27.59789
G1 X133.421 Y107.782 E27.60614
G1 X130.944 Y113.434 E27.77034
G1 X129.045 Y118.577 E27.91622
G1 X127.444 Y123.81 E28.06183
G1 X126.129 Y129.171 E28.2087
G1 X125.606 Y131.789 E28.27974
G1 X124.654 Y137.977 E28.44633
G1 X124.538 Y138.469 E28.45978
G1 X124.346 Y138.937 E28.47324
G1 X124.082 Y139.369 E28.48671
G1 X123.754 Y139.753 E28.50015
G1 X123.37 Y140.082 E28.5136
G1 X122.938 Y140.345 E28.52706
G1 X122.471 Y140.537 E28.54049
G1 X121.979 Y140.654 E28.55395
G1 X121.491 Y140.691 E28.56697
G1 X79.509 Y140.69 E29.68403
G1 X79.005 Y140.65 E29.69749
G1 X78.514 Y140.531 E29.71093
G1 X78.047 Y140.336 E29.7244
G1 X77.617 Y140.071 E29.73783
G1 X77.234 Y139.74 E29.7513
G1 X76.908 Y139.354 E29.76475
G1 X76.647 Y138.921 E29.7782
G1 X76.457 Y138.453 E29.79164
G1 X76.344 Y137.96 E29.8051
G1 X76.309 Y137.49 E29.81764
G1 X76.31 Y95.504 E30.93481
G1 X76.35 Y95 E30.94826
G1 X76.469 Y94.509 E30.9617
G1 X76.664 Y94.042 E30.97517
G1 X76.929 Y93.612 E30.98861
G1 X77.106 Y93.392 E30.99612
G1 X80.711 Y89.287 E31.14149
G1 X84.086 Y84.978 E31.28712
G1 X87.209 Y80.491 E31.43259
G1 X90.085 Y75.815 E31.57866
G1 X92.693 Y70.988 E31.72464
G1 X92.967 Y70.563 E31.7381
G1 F1200 E25.2381
G0 F1542.9 X94.835 Y73.114
G0 X96.114 Y73.114
G0 X103.917 Y76.268
G0 X104.206 Y76.506
G0 X105.412 Y77.753
;TYPE:WALL-INNER
G1 F1200 E31.7381
G1 F900 X105.138 Y77.051 E31.75815
G1 X104.693 Y76.441 E31.77824
G1 X104.112 Y75.96 E31.79831
G1 X103.428 Y75.64 E31.8184
G1 X102.691 Y75.499 E31.83837
G1 X101.937 Y75.545 E31.85847
G1 X101.218 Y75.778 E31.87858
G1 X100.582 Y76.182 E31.89863
G1 X100.067 Y76.731 E31.91865
G1 X99.703 Y77.394 E31.93878
G1 X99.516 Y78.124 E31.95883
G1 X99.516 Y78.876 E31.97884
G1 X99.703 Y79.606 E31.99889
G1 X100.067 Y80.269 E32.01902
G1 X100.582 Y80.818 E32.03905
G1 X101.218 Y81.222 E32.05909
G1 X101.937 Y81.455 E32.0792
G1 X102.693 Y81.501 E32.09936
G1 X103.442 Y81.355 E32.11966
G1 X104.125 Y81.033 E32.13975
G1 X104.702 Y80.546 E32.15984
G1 X105.143 Y79.935 E32.17989
G1 X105.415 Y79.234 E32.1999
G1 X105.508 Y78.5 E32.21959
G1 X105.412 Y77.753 E32.23963
G0 F1542.9 X124.691 Y75.499
G1 F900 X123.937 Y75.545 E32.25973
G1 X123.218 Y75.778 E32.27984
G1 X122.582 Y76.182 E32.29989
G1 X122.067 Y76.731 E32.31992
G1 X121.703 Y77.394 E32.34004
G1 X121.516 Y78.124 E32.36009
G1 X121.516 Y78.876 E32.3801
G1 X121.703 Y79.606 E32.40015
G1 X122.067 Y80.269 E32.42028
G1 X122.582 Y80.818 E32.44031
G1 X123.218 Y81.222 E32.46035
G1 X123.937 Y81.455 E32.48046
G1 X124.691 Y81.501 E32.50056
G1 X125.428 Y81.36 E32.52053
G1 X126.112 Y81.04 E32.54062
G1 X126.693 Y80.559 E32.56069
G1 X127.138 Y79.949 E32.58078
G1 X127.412 Y79.247 E32.60084
G1 X127.508 Y78.5 E32.62088
G1 X127.412 Y77.753 E32.64091
G1 X127.138 Y77.051 E32.66097
G1 X126.693 Y76.441 E32.68106
G1 X126.112 Y75.96 E32.70113
G1 X125.428 Y75.64 E32.72122
G1 X124.691 Y75.499 E32.74119
G0 F1542.9 X125.917 Y76.268
G0 X126.428 Y76.69
G0 X126.819 Y77.226
G0 X127.06 Y77.844
G0 X127.145 Y78.5
G0 X127.06 Y79.156
G0 X121.877 Y100.169
G0 X121.877 Y100.831
G0 X121.969 Y101.193
G0 X122.582 Y102.818
G1 F900 X123.218 Y103.222 E32.76123
G1 X123.937 Y103.455 E32.78134
G1 X124.691 Y103.501 E32.80144
G1 X125.428 Y103.36 E32.82141
G1 X126.112 Y103.04 E32.8415
G1 X126.693 Y102.559 E32.86157
G1 X127.138 Y101.949 E32.88166
G1 X127.412 Y101.247 E32.90172
G1 X127.508 Y100.5 E32.92176
G1 X127.412 Y99.753 E32.94179
G1 X127.138 Y99.051 E32.96185
G1 X126.693 Y98.441 E32.98194
G1 X126.112 Y97.96 E33.00201
G1 X125.428 Y97.64 E33.0221
G1 X124.691 Y97.499 E33.04207
G1 X123.937 Y97.545 E33.06217
G1 X123.218 Y97.778 E33.08228
G1 X122.582 Y98.182 E33.10232
G1 X122.067 Y98.731 E33.12235
G1 X121.703 Y99.394 E33.14248
G1 X121.516 Y100.124 E33.16253
G1 X121.516 Y100.876 E33.18254
G1 X121.703 Y101.606 E33.20259
G1 X122.067 Y102.269 E33.22272
G1 X122.582 Y102.818 E33.24274
G0 F1542.9 X101.937 Y97.545
G1 F900 X101.218 Y97.778 E33.26286
G1 X100.582 Y98.182 E33.2829
G1 X100.067 Y98.731 E33.30293
G1 X99.703 Y99.394 E33.32306
G1 X99.516 Y100.124 E33.34311
G1 X99.516 Y100.876 E33.36312
G1 X99.703 Y101.606 E33.38317
G1 X100.067 Y102.269 E33.40329
G1 X100.582 Y102.818 E33.42332
G1 X101.218 Y103.222 E33.44337
G1 X101.937 Y103.455 E33.46348
G1 X102.691 Y103.501 E33.48358
G1 X103.428 Y103.36 E33.50355
G1 X104.112 Y103.04 E33.52364
G1 X104.693 Y102.559 E33.54371
G1 X105.138 Y101.949 E33.5638
G1 X105.412 Y101.247 E33.58385
G1 X105.508 Y100.5 E33.60389
G1 X105.412 Y99.753 E33.62393
G1 X105.138 Y99.051 E33.64398
G1 X104.693 Y98.441 E33.66407
G1 X104.112 Y97.96 E33.68414
G1 X103.428 Y97.64 E33.70424
G1 X102.691 Y97.499 E33.7242
G1 X101.937 Y97.545 E33.7443
G0 F1542.9 X100.814 Y98.463
G0 X100.407 Y98.896
G0 X80.5 Y136.5
G1 F900 X80.5 Y96.5 E34.80863
G1 X96.5 Y96.5 E35.23436
G1 X96.5 Y73.5 E35.84634
G1 X129.5 Y73.5 E36.72441
G1 X129.5 Y105.5 E37.57587
G1 X120.5 Y105.5 E37.81534
G1 X120.5 Y136.5 E38.6402
G1 X80.5 Y136.5 E39.70452
G0 F1542.9 X102.671 Y103.198
G0 X102.665 Y103.099
G1 F900 X103.304 Y102.977 E39.72183
G1 X103.896 Y102.699 E39.73923
G1 X104.399 Y102.283 E39.7566
G1 X104.784 Y101.755 E39.77399
G1 X105.022 Y101.147 E39.79136
G1 X105.105 Y100.5 E39.80872
G1 X105.022 Y99.853 E39.82607
G1 X104.784 Y99.245 E39.84345
G1 X104.399 Y98.717 E39.86083
G1 X103.896 Y98.301 E39.8782
G1 X103.304 Y98.023 E39.8956
G1 X102.665 Y97.901 E39.91291
G1 X102.012 Y97.941 E39.93032
G1 X101.39 Y98.143 E39.94772
G1 X100.839 Y98.493 E39.96509
G1 X100.393 Y98.968 E39.98243
G1 X100.078 Y99.542 E39.99985
G1 X99.916 Y100.174 E40.01721
G1 X99.916 Y100.826 E40.03456
G1 X100.078 Y101.458 E40.05192
G1 X100.393 Y102.032 E40.06934
G1 X100.839 Y102.507 E40.08668
G1 X101.39 Y102.857 E40.10405
G1 X102.012 Y103.059 E40.12145
G1 X102.665 Y103.099 E40.13885
G0 F1542.9 X102.671 Y103.198
G0 X122.313 Y102.09
G0 X122.393 Y102.032
G1 F900 X122.839 Y102.507 E40.15619
G1 X123.39 Y102.857 E40.17356
G1 X124.012 Y103.059 E40.19096
G1 X124.665 Y103.099 E40.20837
G1 X125.304 Y102.977 E40.22568
G1 X125.896 Y102.699 E40.24308
G1 X126.399 Y102.283 E40.26045
G1 X126.784 Y101.755 E40.27784
G1 X127.022 Y101.147 E40.29521
G1 X127.105 Y100.5 E40.31257
G1 X127.022 Y99.853 E40.32992
G1 X126.784 Y99.245 E40.3473
G1 X126.399 Y98.717 E40.36468
G1 X125.896 Y98.301 E40.38205
G1 X125.304 Y98.023 E40.39945
G1 X124.665 Y97.901 E40.41676
G1 X124.012 Y97.941 E40.43417
G1 X123.39 Y98.143 E40.45157
G1 X122.839 Y98.493 E40.46894
G1 X122.393 Y98.968 E40.48628
G1 X122.078 Y99.542 E40.5037
G1 X121.916 Y100.174 E40.52106
G1 X121.916 Y100.826 E40.53841
G1 X122.078 Y101.458 E40.55577
G1 X122.393 Y102.032 E40.57319
G0 F1542.9 X122.313 Y102.09
G0 X122.041 Y101.472
G0 X121.909 Y100.954
G0 X121.817 Y78.162
G0 X121.916 Y78.174
G1 F900 X121.916 Y78.826 E40.59054
G1 X122.078 Y79.458 E40.6079
G1 X122.393 Y80.032 E40.62532
G1 X122.839 Y80.507 E40.64266
G1 X123.39 Y80.857 E40.66003
G1 X124.012 Y81.059 E40.67743
G1 X124.665 Y81.099 E40.69483
G1 X125.304 Y80.977 E40.71214
G1 X125.896 Y80.699 E40.72955
G1 X126.399 Y80.283 E40.74691
G1 X126.784 Y79.755 E40.7643
G1 X127.022 Y79.147 E40.78167
G1 X127.105 Y78.5 E40.79903
G1 X127.022 Y77.853 E40.81639
G1 X126.784 Y77.245 E40.83376
