;FLAVOR:Marlin
;TIME:3248
;Filament used: 2.13939m, 0.248884m
;Layer height: 0.16
;POSTPROCESSED
;Generated with Cura_SteamEngine 3.4.1
T0
M190 S70
M104 S248
M104 T1 S198
M109 S248
M109 T1 S198
M82 ;absolute extrusion mode
; Printer start settings begin
; CALIBRATION M92 X160 Y160 Z1600; Steps per unit
; CALIBRATION M201 X1000 Y1000 Z50 E1500 E1500 ; Max Accelleration
; CALIBRATION M203 X800 Y800 Z2 E90 E90 ; Max Feed
; CALIBRATION M205 X3.0 Y3.0 Z0.3 E5.0 ; Default Jerk
; CALIBRATION M951 L32 R138 G32 N75 H300 D10 C0 ; Parking kinematic values
; CALIBRATION M218 T1 X0.65 Z-0.4 ; T1 Nozzle offset
; CALIBRATION M851 Z-0.75 ; System Z Probe Offset
G28 ;Home
G0 X32 Y0 F9000
G92 X0 E5
G1 F1000 E0
;G29 ;Auto Bed Level
G29 X3 Y3 L0 R109 F32 B168 ; Ato Bed Leveling
G92 E-5
G1 E0 F400
G0 Z15.0 F100 ;Move the platform down 15mm
G0 X0 Y0 F9000 ;Move to front
G1 F200 E3
G92 E0
; Printer start settings end
G92 E0
;LAYER_COUNT:166
;LAYER:0
M107
M104 T1 S210
G0 F1542.9 X34.964 Y80.082 Z0.16
;TYPE:SKIRT
G1 F900 X35.475 Y79.877 E0.01465
G1 X36.461 Y79.545 E0.04233
G1 X37.06 Y79.386 E0.05882
G1 X37.693 Y79.303 E0.07581
G1 X38.7 Y79.24 E0.10266
G1 X39.32 Y79.242 E0.11915
G1 X40.01 Y79.338 E0.13769
G1 X41.097 Y79.572 E0.16728
G1 X41.693 Y79.742 E0.18377
G1 X42.165 Y79.938 E0.19737
G1 X42.971 Y80.325 E0.22116
G1 X43.511 Y80.628 E0.23763
G1 X43.95 Y80.951 E0.25213
G1 X44.709 Y81.578 E0.27833
G1 X45.16 Y82.003 E0.29482
G1 X45.38 Y82.256 E0.30374
G1 X47.183 Y84.48 E0.37992
G1 X50.786 Y88.55 E0.52455
G1 X54.572 Y92.367 E0.6676
G1 X58.575 Y95.972 E0.81094
G1 X62.77 Y99.339 E0.95407
G1 X67.154 Y102.469 E1.0974
G1 X71.71 Y105.346 E1.24077
G1 X76.417 Y107.959 E1.38402
G1 X81.269 Y110.304 E1.52741
G1 X86.255 Y112.375 E1.67107
G1 X89.366 Y113.505 E1.75914
G1 X89.933 Y113.754 E1.77561
G1 X90.463 Y114.073 E1.79207
G1 X90.948 Y114.459 E1.80857
G1 X91.38 Y114.903 E1.82505
G1 X91.75 Y115.399 E1.84152
G1 X92.054 Y115.939 E1.858
G1 X92.285 Y116.514 E1.87449
G1 X92.441 Y117.113 E1.89096
G1 X92.527 Y118.008 E1.91489
G1 X92.535 Y122.494 E2.03425
G1 X92.484 Y123.202 E2.05314
G1 X91.829 Y127.651 E2.17279
G1 X91.306 Y133.041 E2.31688
G1 X91.089 Y138.416 E2.46002
G1 X91.178 Y143.794 E2.60314
G1 X91.57 Y149.161 E2.74632
G1 X92.266 Y154.513 E2.88993
G1 X93.257 Y159.782 E3.03259
G1 X94.163 Y163.521 E3.13495
G1 X94.52 Y164.984 E3.17502
G1 X94.635 Y165.66 E3.19327
G1 X94.768 Y167.034 E3.23
G1 X94.787 Y167.653 E3.24648
G1 X94.767 Y167.968 E3.25487
G1 X94.622 Y169.436 E3.29413
G1 X94.521 Y170.047 E3.3106
G1 X94.439 Y170.355 E3.31908
G1 X94.016 Y171.752 E3.35792
G1 X93.799 Y172.332 E3.3744
G1 X93.655 Y172.624 E3.38306
G1 X92.962 Y173.92 E3.42217
G1 X92.635 Y174.447 E3.43867
G1 X92.432 Y174.712 E3.44755
G1 X91.47 Y175.878 E3.48777
G1 X91.045 Y176.329 E3.50426
G1 X90.79 Y176.552 E3.51328
G1 X89.655 Y177.472 E3.55215
G1 X88.887 Y177.98 E3.57665
G1 X87.6 Y178.665 E3.61545
G1 X87.036 Y178.92 E3.63192
G1 X86.73 Y179.024 E3.64051
G1 X85.35 Y179.44 E3.67887
G1 X84.442 Y179.62 E3.7035
G1 X82.979 Y179.766 E3.74262
G1 X82.36 Y179.788 E3.7591
G1 X82.021 Y179.766 E3.76814
G1 X80.541 Y179.617 E3.80772
G1 X79.93 Y179.515 E3.8242
G1 X79.63 Y179.435 E3.83246
G1 X78.247 Y179.016 E3.87091
G1 X77.667 Y178.798 E3.8874
G1 X77.374 Y178.654 E3.89608
G1 X76.062 Y177.952 E3.93568
G1 X75.536 Y177.625 E3.95216
G1 X75.263 Y177.415 E3.96132
G1 X74.109 Y176.458 E4.00121
G1 X73.456 Y175.8 E4.02588
G1 X72.554 Y174.696 E4.06381
G1 X72.058 Y173.96 E4.08743
G1 X68.31 Y167.098 E4.29547
G1 X65.455 Y162.561 E4.43811
G1 X62.334 Y158.177 E4.5813
G1 X58.963 Y153.967 E4.7248
G1 X55.371 Y149.965 E4.86789
G1 X51.551 Y146.167 E5.01122
G1 X47.487 Y142.559 E5.15582
G1 X45.463 Y140.912 E5.22526
G1 X41.132 Y137.679 E5.36906
G1 X36.636 Y134.704 E5.51251
G1 X31.988 Y131.994 E5.65567
G1 X25.597 Y128.794 E5.84585
G1 X25.485 Y128.736 E5.84921
G1 X19.493 Y125.537 E6.02994
G1 X18.967 Y125.211 E6.04641
G1 X18.487 Y124.82 E6.06288
G1 X18.061 Y124.37 E6.07937
G1 X17.697 Y123.869 E6.09585
G1 X17.401 Y123.325 E6.11232
G1 X17.177 Y122.748 E6.12879
G1 X17.029 Y122.146 E6.14529
G1 X16.954 Y121.303 E6.16781
G1 X16.955 Y98.219 E6.78203
G1 X16.995 Y97.601 E6.79851
G1 X17.114 Y96.993 E6.81499
G1 X17.311 Y96.406 E6.83147
G1 X17.581 Y95.848 E6.84796
G1 X17.921 Y95.331 E6.86443
G1 X18.325 Y94.861 E6.88092
G1 X18.799 Y94.437 E6.89784
G1 X21.357 Y92.437 E6.98424
G1 X25.469 Y88.919 E7.12823
G1 X29.377 Y85.171 E7.2723
G1 X32.707 Y81.648 E7.40129
G1 X33.16 Y81.226 E7.41777
G1 X33.61 Y80.901 E7.43254
G1 X34.422 Y80.382 E7.45818
G1 X34.964 Y80.082 E7.47466
G0 F1542.9 X35.157 Y80.434
G1 F900 X35.603 Y80.256 E7.48744
G1 X36.589 Y79.924 E7.51512
G1 X37.162 Y79.773 E7.53089
G1 X37.718 Y79.703 E7.5458
G1 X38.725 Y79.64 E7.57265
G1 X39.318 Y79.643 E7.58843
G1 X39.926 Y79.73 E7.60477
G1 X41.013 Y79.964 E7.63435
G1 X41.583 Y80.127 E7.65013
G1 X41.991 Y80.299 E7.66191
G1 X42.797 Y80.686 E7.6857
G1 X43.314 Y80.978 E7.7015
G1 X43.695 Y81.26 E7.71411
G1 X44.454 Y81.887 E7.74031
G1 X45.07 Y82.508 E7.76358
G1 X46.889 Y84.751 E7.84042
G1 X50.494 Y88.824 E7.98515
G1 X54.293 Y92.654 E8.12869
G1 X58.321 Y96.282 E8.27293
G1 X62.532 Y99.662 E8.41661
G1 X66.933 Y102.804 E8.56049
G1 X71.495 Y105.684 E8.70404
G1 X76.228 Y108.312 E8.84809
G1 X81.114 Y110.673 E8.99248
G1 X86.106 Y112.747 E9.13631
G1 X89.229 Y113.881 E9.22472
G1 X89.771 Y114.121 E9.24049
G1 X90.277 Y114.431 E9.25628
G1 X90.736 Y114.806 E9.27205
G1 X91.14 Y115.24 E9.28783
G1 X91.482 Y115.724 E9.3036
G1 X91.757 Y116.25 E9.31939
G1 X91.958 Y116.808 E9.33517
G1 X92.082 Y117.388 E9.35095
G1 X92.127 Y118.009 E9.36752
G1 X92.135 Y122.495 E9.48689
G1 X92.088 Y123.144 E9.5042
G1 X91.43 Y127.615 E9.62445
G1 X90.907 Y133.005 E9.76854
G1 X90.689 Y138.407 E9.91239
G1 X90.778 Y143.812 E10.05623
G1 X91.172 Y149.205 E10.20011
G1 X91.87 Y154.57 E10.34406
G1 X92.867 Y159.872 E10.48761
G1 X93.774 Y163.616 E10.59011
G1 X93.775 Y163.616 E10.59014
G1 X94.132 Y165.079 E10.63021
G1 X94.237 Y165.698 E10.64692
G1 X94.37 Y167.072 E10.68365
G1 X94.369 Y167.929 E10.70645
G1 X94.224 Y169.397 E10.7457
G1 X94.056 Y170.239 E10.76855
G1 X93.633 Y171.636 E10.80738
G1 X93.302 Y172.436 E10.83042
G1 X92.609 Y173.732 E10.86953
G1 X92.123 Y174.457 E10.89275
G1 X91.161 Y175.623 E10.93297
G1 X90.538 Y176.241 E10.95632
G1 X89.403 Y177.161 E10.9952
G1 X88.699 Y177.627 E11.01766
G1 X87.412 Y178.312 E11.05645
G1 X86.615 Y178.641 E11.0794
G1 X85.235 Y179.057 E11.11775
G1 X84.402 Y179.222 E11.14034
G1 X82.939 Y179.368 E11.17946
G1 X82.061 Y179.368 E11.20282
G1 X80.581 Y179.219 E11.2424
G1 X79.746 Y179.052 E11.26506
G1 X78.363 Y178.633 E11.30351
G1 X77.563 Y178.302 E11.32655
G1 X76.251 Y177.6 E11.36614
G1 X75.518 Y177.107 E11.38965
G1 X74.364 Y176.15 E11.42954
G1 X73.766 Y175.547 E11.45213
G1 X72.864 Y174.443 E11.49007
G1 X72.409 Y173.768 E11.51173
G1 X68.66 Y166.903 E11.71985
G1 X65.782 Y162.33 E11.86363
G1 X62.657 Y157.941 E12.00699
G1 X59.273 Y153.714 E12.15106
G1 X55.659 Y149.688 E12.29501
G1 X51.816 Y145.868 E12.43919
G1 X47.759 Y142.265 E12.58357
G1 X45.711 Y140.599 E12.65381
G1 X41.347 Y137.341 E12.79872
G1 X36.846 Y134.363 E12.94233
G1 X32.184 Y131.645 E13.08591
G1 X25.776 Y128.436 E13.2766
G1 X25.674 Y128.383 E13.27966
G1 X19.682 Y125.184 E13.4604
G1 X19.179 Y124.871 E13.47616
G1 X18.722 Y124.492 E13.49196
G1 X18.321 Y124.055 E13.50774
G1 X17.982 Y123.569 E13.52351
G1 X17.712 Y123.041 E13.53929
G1 X17.515 Y122.482 E13.55506
G1 X17.395 Y121.901 E13.57084
G1 X17.354 Y121.303 E13.58679
G1 X17.355 Y98.219 E14.20101
G1 X17.395 Y97.627 E14.2168
G1 X17.514 Y97.046 E14.23258
G1 X17.71 Y96.487 E14.24834
G1 X17.98 Y95.959 E14.26412
G1 X18.318 Y95.472 E14.2799
G1 X18.719 Y95.034 E14.2957
G1 X19.045 Y94.752 E14.30717
G1 X21.617 Y92.742 E14.39402
G1 X25.732 Y89.22 E14.53814
G1 X29.651 Y85.462 E14.68261
G1 X32.997 Y81.922 E14.81222
G1 X33.433 Y81.52 E14.828
G1 X33.825 Y81.238 E14.84085
G1 X34.637 Y80.719 E14.8665
G1 X35.157 Y80.434 E14.88227
G0 F1542.9 X35.349 Y80.786
G1 F900 X35.731 Y80.635 E14.8932
G1 X36.717 Y80.303 E14.92089
G1 X37.264 Y80.161 E14.93592
G1 X37.743 Y80.102 E14.94876
G1 X38.75 Y80.039 E14.97561
G1 X39.316 Y80.043 E14.99067
G1 X39.842 Y80.121 E15.00482
G1 X40.929 Y80.355 E15.03441
G1 X41.472 Y80.512 E15.04945
G1 X41.818 Y80.659 E15.05945
G1 X42.624 Y81.046 E15.08324
G1 X43.115 Y81.326 E15.09828
G1 X43.441 Y81.568 E15.10908
G1 X44.2 Y82.195 E15.13528
G1 X44.759 Y82.76 E15.15643
G1 X46.583 Y85.01 E15.23349
G1 X50.193 Y89.088 E15.37841
G1 X54.025 Y92.951 E15.52319
G1 X58.058 Y96.583 E15.6676
G1 X62.283 Y99.975 E15.81177
G1 X66.714 Y103.138 E15.95663
G1 X71.308 Y106.039 E16.1012
G1 X76.045 Y108.668 E16.24535
G1 X80.936 Y111.032 E16.3899
G1 X85.967 Y113.122 E16.53485
G1 X89.092 Y114.257 E16.62332
G1 X89.609 Y114.487 E16.63837
G1 X90.088 Y114.788 E16.65343
G1 X90.519 Y115.153 E16.66845
G1 X90.895 Y115.575 E16.68349
G1 X91.208 Y116.046 E16.69854
G1 X91.451 Y116.557 E16.7136
G1 X91.62 Y117.096 E16.72863
G1 X91.711 Y117.654 E16.74367
G1 X91.727 Y118.01 E16.75315
G1 X91.735 Y122.496 E16.87252
G1 X91.692 Y123.086 E16.88826
G1 X91.033 Y127.56 E17.00859
G1 X90.509 Y132.967 E17.15313
G1 X90.289 Y138.415 E17.29821
G1 X90.378 Y143.831 E17.44234
G1 X90.773 Y149.232 E17.58643
G1 X91.477 Y154.642 E17.7316
G1 X92.474 Y159.943 E17.87512
G1 X93.388 Y163.717 E17.97844
G1 X93.387 Y163.717 E17.97847
G1 X93.743 Y165.174 E18.01838
G1 X93.838 Y165.737 E18.03357
G1 X93.971 Y167.111 E18.0703
G1 X93.971 Y167.889 E18.091
G1 X93.826 Y169.357 E18.13025
G1 X93.673 Y170.123 E18.15103
G1 X93.25 Y171.52 E18.18987
G1 X92.949 Y172.247 E18.21081
G1 X92.256 Y173.543 E18.24991
G1 X91.814 Y174.203 E18.27105
G1 X90.852 Y175.369 E18.31127
G1 X90.286 Y175.93 E18.33247
G1 X89.151 Y176.85 E18.37135
G1 X88.511 Y177.274 E18.39178
G1 X87.224 Y177.959 E18.43057
G1 X86.499 Y178.258 E18.45144
G1 X85.119 Y178.674 E18.48979
G1 X84.362 Y178.824 E18.51032
G1 X82.899 Y178.97 E18.54944
G1 X82.101 Y178.97 E18.57068
G1 X80.621 Y178.821 E18.61026
G1 X79.862 Y178.669 E18.63085
G1 X78.479 Y178.25 E18.6693
G1 X77.752 Y177.949 E18.69024
G1 X76.44 Y177.247 E18.72983
G1 X75.774 Y176.799 E18.75119
G1 X74.62 Y175.842 E18.79108
G1 X74.075 Y175.294 E18.81165
G1 X73.173 Y174.19 E18.84958
G1 X72.76 Y173.576 E18.86927
G1 X69.003 Y166.696 E19.07785
G1 X66.124 Y162.123 E19.22163
G1 X62.962 Y157.681 E19.36671
G1 X59.583 Y153.462 E19.51054
G1 X55.948 Y149.411 E19.65536
G1 X52.099 Y145.585 E19.79976
G1 X48.018 Y141.961 E19.94499
G1 X45.944 Y140.273 E20.01614
G1 X41.584 Y137.019 E20.1609
G1 X37.05 Y134.018 E20.30557
G1 X32.385 Y131.299 E20.44924
G1 X25.955 Y128.079 E20.64059
G1 X25.862 Y128.031 E20.64337
G1 X19.87 Y124.832 E20.82411
G1 X19.392 Y124.531 E20.83914
G1 X18.96 Y124.165 E20.8542
G1 X18.584 Y123.743 E20.86924
G1 X18.272 Y123.272 E20.88428
G1 X18.029 Y122.761 E20.89933
G1 X17.861 Y122.222 E20.91435
G1 X17.77 Y121.664 E20.9294
G1 X17.754 Y121.303 E20.93901
G1 X17.755 Y98.219 E21.55323
G1 X17.795 Y97.655 E21.56828
G1 X17.914 Y97.102 E21.58333
G1 X18.11 Y96.572 E21.59837
G1 X18.378 Y96.074 E21.61341
G1 X18.715 Y95.62 E21.62846
G1 X19.292 Y95.067 E21.64972
G1 X21.865 Y93.056 E21.73662
G1 X26.005 Y89.514 E21.88159
G1 X29.936 Y85.743 E22.02653
G1 X33.288 Y82.197 E22.15637
G1 X33.705 Y81.815 E22.17141
G1 X34.041 Y81.575 E22.1824
G1 X34.853 Y81.056 E22.20804
G1 X35.349 Y80.786 E22.22307
G0 F1542.9 X35.54 Y81.138
G1 F900 X35.858 Y81.014 E22.23215
G1 X36.844 Y80.682 E22.25983
G1 X37.364 Y80.549 E22.27412
G1 X37.768 Y80.501 E22.28494
G1 X38.775 Y80.438 E22.31179
G1 X39.311 Y80.444 E22.32605
G1 X39.758 Y80.512 E22.33808
G1 X40.845 Y80.746 E22.36767
G1 X41.359 Y80.897 E22.38192
G1 X41.645 Y81.02 E22.39021
G1 X42.451 Y81.407 E22.414
G1 X42.916 Y81.674 E22.42826
G1 X43.186 Y81.877 E22.43725
G1 X43.945 Y82.504 E22.46345
G1 X44.448 Y83.012 E22.48247
G1 X46.267 Y85.255 E22.55931
G1 X49.909 Y89.37 E22.70553
G1 X53.746 Y93.239 E22.85051
G1 X57.796 Y96.885 E22.99551
G1 X62.046 Y100.298 E23.14055
G1 X66.489 Y103.469 E23.28579
G1 X71.093 Y106.376 E23.43067
G1 X75.869 Y109.028 E23.57603
G1 X80.766 Y111.394 E23.72074
G1 X85.83 Y113.498 E23.86665
G1 X88.956 Y114.633 E23.95514
G1 X89.445 Y114.853 E23.9694
G1 X89.896 Y115.144 E23.98369
G1 X90.299 Y115.498 E23.99796
G1 X90.644 Y115.908 E24.01222
G1 X90.925 Y116.365 E24.02649
G1 X91.135 Y116.858 E24.04075
G1 X91.27 Y117.377 E24.05502
G1 X91.327 Y118.011 E24.07196
G1 X91.335 Y122.497 E24.19132
G1 X91.297 Y123.027 E24.20546
G1 X90.636 Y127.52 E24.3263
G1 X90.109 Y132.948 E24.4714
G1 X89.89 Y138.388 E24.61627
G1 X89.98 Y143.867 E24.76207
G1 X90.375 Y149.277 E24.90641
G1 X91.08 Y154.698 E25.05187
G1 X92.083 Y160.033 E25.19631
G1 X92.999 Y163.811 E25.29974
G1 X92.998 Y163.811 E25.29977
G1 X93.354 Y165.269 E25.33971
G1 X93.44 Y165.775 E25.35336
G1 X93.573 Y167.149 E25.39009
G1 X93.573 Y167.85 E25.40874
G1 X93.428 Y169.318 E25.448
G1 X93.291 Y170.007 E25.46669
G1 X92.868 Y171.404 E25.50553
G1 X92.597 Y172.059 E25.52439
G1 X91.904 Y173.355 E25.56349
G1 X91.506 Y173.948 E25.58249
G1 X90.544 Y175.114 E25.62272
G1 X90.034 Y175.62 E25.64183
G1 X88.899 Y176.54 E25.68071
G1 X88.323 Y176.921 E25.69908
G1 X87.036 Y177.606 E25.73788
G1 X86.384 Y177.875 E25.75664
G1 X85.004 Y178.291 E25.79499
G1 X84.322 Y178.426 E25.81349
G1 X82.859 Y178.572 E25.85261
G1 X82.141 Y178.572 E25.87172
G1 X80.661 Y178.423 E25.9113
G1 X79.978 Y178.286 E25.92983
G1 X78.595 Y177.867 E25.96828
G1 X77.941 Y177.596 E25.98712
G1 X76.629 Y176.894 E26.02671
G1 X76.029 Y176.491 E26.04594
G1 X74.875 Y175.534 E26.08584
G1 X74.385 Y175.041 E26.10433
G1 X73.483 Y173.937 E26.14226
G1 X73.111 Y173.384 E26.16
G1 X69.353 Y166.502 E26.36864
G1 X66.451 Y161.891 E26.5136
G1 X63.285 Y157.445 E26.65883
G1 X59.878 Y153.189 E26.80389
G1 X56.245 Y149.142 E26.9486
G1 X52.374 Y145.293 E27.09385
G1 X48.265 Y141.645 E27.24005
G1 X46.218 Y139.98 E27.31026
G1 X41.799 Y136.68 E27.45701
G1 X37.272 Y133.685 E27.60144
G1 X32.569 Y130.943 E27.7463
G1 X26.134 Y127.721 E27.93778
G1 X26.051 Y127.678 E27.94027
G1 X20.059 Y124.479 E28.12101
G1 X19.606 Y124.192 E28.13527
G1 X19.2 Y123.84 E28.14957
G1 X18.852 Y123.433 E28.16382
G1 X18.567 Y122.978 E28.17811
G1 X18.354 Y122.486 E28.19237
G1 X18.216 Y121.968 E28.20663
G1 X18.154 Y121.303 E28.22441
G1 X18.155 Y98.219 E28.83863
G1 X18.195 Y97.684 E28.8529
G1 X18.314 Y97.161 E28.86717
G1 X18.509 Y96.662 E28.88143
G1 X18.777 Y96.197 E28.89571
G1 X19.11 Y95.777 E28.90997
G1 X19.538 Y95.383 E28.92545
G1 X22.111 Y93.372 E29.01234
G1 X26.277 Y89.807 E29.15824
G1 X30.221 Y86.024 E29.30365
G1 X33.579 Y82.472 E29.43371
G1 X33.975 Y82.111 E29.44797
G1 X34.256 Y81.912 E29.45713
G1 X35.068 Y81.393 E29.48278
G1 X35.54 Y81.138 E29.49705
G0 F1542.9 X35.73 Y81.492
G1 F900 X35.986 Y81.393 E29.50435
G1 X36.972 Y81.061 E29.53204
G1 X37.462 Y80.938 E29.54548
G1 X37.793 Y80.9 E29.55434
G1 X38.8 Y80.837 E29.58119
G1 X39.306 Y80.846 E29.59466
G1 X39.673 Y80.903 E29.60454
G1 X40.76 Y81.137 E29.63413
G1 X41.472 Y81.38 E29.65414
G1 X42.278 Y81.767 E29.67793
G1 X42.715 Y82.021 E29.69138
G1 X42.931 Y82.185 E29.6986
G1 X43.69 Y82.812 E29.72479
G1 X44.138 Y83.264 E29.74173
G1 X45.973 Y85.527 E29.81925
G1 X49.617 Y89.643 E29.96552
G1 X53.468 Y93.526 E30.11104
G1 X57.541 Y97.195 E30.2569
G1 X61.808 Y100.62 E30.40249
G1 X66.256 Y103.795 E30.5479
G1 X70.891 Y106.722 E30.69376
G1 X75.687 Y109.384 E30.83971
G1 X80.603 Y111.76 E30.98499
G1 X85.681 Y113.869 E31.1313
G1 X88.819 Y115.009 E31.22013
G1 X89.279 Y115.219 E31.23359
G1 X89.701 Y115.498 E31.24705
G1 X90.073 Y115.841 E31.26051
G1 X90.386 Y116.237 E31.27394
G1 X90.633 Y116.678 E31.28739
G1 X90.808 Y117.153 E31.30086
G1 X90.906 Y117.649 E31.31432
G1 X90.927 Y118.011 E31.32396
G1 X90.935 Y122.497 E31.44333
G1 X90.901 Y122.969 E31.45592
G1 X90.239 Y127.465 E31.57684
G1 X89.709 Y132.928 E31.72288
G1 X89.489 Y138.378 E31.86801
G1 X89.58 Y143.885 E32.01457
G1 X89.977 Y149.323 E32.15965
G1 X90.684 Y154.752 E32.30532
G1 X91.693 Y160.122 E32.45071
G1 X92.609 Y163.9 E32.55414
G1 X92.966 Y165.363 E32.59421
G1 X93.042 Y165.814 E32.60638
G1 X93.175 Y167.188 E32.64311
G1 X93.175 Y167.811 E32.65969
G1 X93.03 Y169.279 E32.69894
G1 X92.908 Y169.891 E32.71555
G1 X92.485 Y171.288 E32.75438
