;FLAVOR:Marlin
;TIME:4077
;Filament used: 5.32072m, 0m
;Layer height: 0.2
;POSTPROCESSED
;Generated with Cura_SteamEngine 3.4.1
T0
M190 S75
M104 S248
M109 S248
M82 ;absolute extrusion mode
; Printer start settings begin
M92 X160 Y160 Z1600; Steps per unit
M201 X1000 Y1000 Z50 E1500 E1500 ; Max Accelleration
M203 X800 Y800 Z2 E90 E90 ; Max Feed
M205 X3.0 Y3.0 Z0.3 E5.0 ; Default Jerk
G28
G0 X0 Y0 Z15 F1200
G92 E-35
G1 E0 F200 ;Home
G92 E5
G1 F1000 E0
G29 ;Auto Bed Level
G92 F400 E-5
G1 E0
G0 X0 Y0 Z15.0 F6000 ;Move the platform down 15mm
G92 E0
G1 F200 E3
G92 E0
G92 E0
G1 F1200 E-6.5
;LAYER_COUNT:81
;LAYER:0
M107
G0 F1542.9 X72.08 Y79.651 Z0.16
;TYPE:SKIRT
G1 F1200 E0
G1 F900 X72.541 Y79.237 E0.01649
G1 X73.052 Y78.886 E0.03298
G1 X73.603 Y78.604 E0.04945
G1 X74.186 Y78.395 E0.06593
G1 X74.791 Y78.263 E0.08241
G1 X75.51 Y78.209 E0.10159
G1 X134.491 Y78.21 E1.67097
G1 X135.109 Y78.25 E1.68744
G1 X135.717 Y78.369 E1.70393
G1 X136.304 Y78.566 E1.7204
G1 X136.861 Y78.836 E1.73687
G1 X137.379 Y79.176 E1.75336
G1 X137.849 Y79.58 E1.76985
G1 X138.262 Y80.041 E1.78632
G1 X138.613 Y80.551 E1.80279
G1 X138.896 Y81.102 E1.81928
G1 X139.105 Y81.686 E1.83578
G1 X139.237 Y82.291 E1.85226
G1 X139.291 Y83.01 E1.87144
G1 X139.291 Y124.991 E2.98848
G1 X139.251 Y125.609 E3.00495
G1 X139.132 Y126.217 E3.02144
G1 X138.935 Y126.804 E3.03791
G1 X138.665 Y127.361 E3.05438
G1 X138.325 Y127.879 E3.07087
G1 X137.921 Y128.349 E3.08736
G1 X137.46 Y128.762 E3.10383
G1 X136.95 Y129.113 E3.1203
G1 X136.399 Y129.396 E3.13679
G1 X135.816 Y129.605 E3.15327
G1 X135.21 Y129.737 E3.16977
G1 X134.491 Y129.791 E3.18895
G1 X92.466 Y129.787 E4.30716
G1 X91.831 Y129.745 E4.32409
G1 X90.864 Y129.616 E4.35005
G1 X90.257 Y129.495 E4.36652
G1 X89.698 Y129.307 E4.38221
G1 X88.722 Y128.912 E4.41023
G1 X88.164 Y128.644 E4.4267
G1 X87.703 Y128.347 E4.44129
G1 X84.301 Y125.877 E4.55315
G1 X79.781 Y122.912 E4.69699
G1 X75.067 Y120.189 E4.84184
G1 X73.261 Y119.231 E4.89624
G1 X72.733 Y118.906 E4.91274
G1 X72.252 Y118.516 E4.92921
G1 X71.825 Y118.067 E4.9457
G1 X71.46 Y117.567 E4.96217
G1 X71.162 Y117.025 E4.97863
G1 X70.936 Y116.448 E4.99512
G1 X70.786 Y115.847 E5.0116
G1 X70.709 Y114.997 E5.03431
G1 X70.7 Y108.714 E5.20149
G1 X70.708 Y108.423 E5.20923
G1 X71.025 Y103.081 E5.35162
G1 X71.102 Y97.662 E5.49583
G1 X70.874 Y92.239 E5.64025
G1 X70.724 Y90.365 E5.69027
G1 X70.709 Y89.982 E5.70047
G1 X70.71 Y83.008 E5.88604
G1 X70.75 Y82.39 E5.90252
G1 X70.869 Y81.782 E5.919
G1 X71.066 Y81.195 E5.93548
G1 X71.336 Y80.638 E5.95195
G1 X71.676 Y80.12 E5.96843
G1 X72.08 Y79.651 E5.9849
G0 F1542.9 X72.474 Y79.824
G1 F900 X72.93 Y79.445 E6.00068
G1 X73.433 Y79.13 E6.01647
G1 X73.973 Y78.886 E6.03224
G1 X74.541 Y78.717 E6.04801
G1 X75.127 Y78.626 E6.06379
G1 X75.51 Y78.609 E6.07399
G1 X134.491 Y78.61 E7.64336
G1 X135.083 Y78.65 E7.65915
G1 X135.664 Y78.769 E7.67493
G1 X136.223 Y78.965 E7.69069
G1 X136.751 Y79.235 E7.70647
G1 X137.238 Y79.573 E7.72224
G1 X137.675 Y79.974 E7.73802
G1 X138.055 Y80.429 E7.7538
G1 X138.369 Y80.932 E7.76958
G1 X138.614 Y81.472 E7.78535
G1 X138.783 Y82.041 E7.80115
G1 X138.874 Y82.627 E7.81693
G1 X138.891 Y83.01 E7.82713
G1 X138.891 Y124.991 E8.94416
G1 X138.851 Y125.583 E8.95995
G1 X138.732 Y126.163 E8.9757
G1 X138.536 Y126.723 E8.99149
G1 X138.266 Y127.251 E9.00727
G1 X137.928 Y127.738 E9.02304
G1 X137.527 Y128.175 E9.03883
G1 X137.072 Y128.555 E9.0546
G1 X136.569 Y128.869 E9.07038
G1 X136.029 Y129.114 E9.08615
G1 X135.46 Y129.283 E9.10195
G1 X134.875 Y129.374 E9.1177
G1 X134.491 Y129.391 E9.12793
G1 X92.466 Y129.387 E10.24613
G1 X91.884 Y129.348 E10.26166
G1 X90.917 Y129.219 E10.28761
G1 X90.336 Y129.102 E10.30338
G1 X89.848 Y128.937 E10.31709
G1 X88.872 Y128.542 E10.34511
G1 X88.339 Y128.283 E10.36087
G1 X87.938 Y128.024 E10.37358
G1 X84.515 Y125.539 E10.48613
G1 X79.999 Y122.577 E10.62983
G1 X75.244 Y119.829 E10.77596
G1 X73.448 Y118.877 E10.83005
G1 X72.944 Y118.565 E10.84582
G1 X72.487 Y118.188 E10.86158
G1 X72.084 Y117.752 E10.87738
G1 X71.744 Y117.267 E10.89314
G1 X71.472 Y116.74 E10.90892
G1 X71.273 Y116.181 E10.92471
G1 X71.152 Y115.601 E10.94047
G1 X71.109 Y114.996 E10.95661
G1 X71.1 Y108.713 E11.12379
G1 X71.108 Y108.447 E11.13087
G1 X71.424 Y103.11 E11.27313
G1 X71.502 Y97.651 E11.4184
G1 X71.274 Y92.217 E11.56311
G1 X71.123 Y90.333 E11.6134
G1 X71.109 Y89.982 E11.62275
G1 X71.11 Y83.008 E11.80831
G1 X71.15 Y82.417 E11.82407
G1 X71.269 Y81.836 E11.83985
G1 X71.465 Y81.276 E11.85564
G1 X71.735 Y80.748 E11.87142
G1 X72.073 Y80.261 E11.88719
G1 X72.474 Y79.824 E11.90298
G0 F1542.9 X72.47 Y80.41
G1 F900 X72.867 Y80.007 E11.91803
G1 X73.316 Y79.664 E11.93306
G1 X73.81 Y79.388 E11.94812
G1 X74.337 Y79.185 E11.96315
G1 X74.888 Y79.058 E11.97819
G1 X75.51 Y79.009 E11.99479
G1 X134.491 Y79.01 E13.56417
G1 X135.055 Y79.05 E13.57921
G1 X135.608 Y79.169 E13.59426
G1 X136.138 Y79.365 E13.6093
G1 X136.635 Y79.633 E13.62432
G1 X137.09 Y79.969 E13.63937
G1 X137.493 Y80.366 E13.65442
G1 X137.835 Y80.816 E13.66946
G1 X138.111 Y81.309 E13.6845
G1 X138.315 Y81.837 E13.69956
G1 X138.442 Y82.387 E13.71458
G1 X138.491 Y83.01 E13.73121
G1 X138.491 Y124.991 E14.84824
G1 X138.451 Y125.555 E14.86328
G1 X138.332 Y126.108 E14.87834
G1 X138.136 Y126.638 E14.89337
G1 X137.868 Y127.135 E14.9084
G1 X137.532 Y127.59 E14.92345
G1 X137.135 Y127.993 E14.9385
G1 X136.685 Y128.335 E14.95354
G1 X136.192 Y128.611 E14.96857
G1 X135.664 Y128.815 E14.98363
G1 X135.114 Y128.942 E14.99865
G1 X134.491 Y128.991 E15.01528
G1 X92.466 Y128.987 E16.13349
G1 X91.937 Y128.952 E16.14759
G1 X90.97 Y128.823 E16.17355
G1 X90.416 Y128.709 E16.1886
G1 X89.998 Y128.566 E16.20035
G1 X89.022 Y128.171 E16.22837
G1 X88.515 Y127.922 E16.2434
G1 X88.173 Y127.7 E16.25425
G1 X84.757 Y125.22 E16.36657
G1 X80.185 Y122.221 E16.51206
G1 X75.475 Y119.499 E16.65681
G1 X73.635 Y118.524 E16.71221
G1 X73.156 Y118.225 E16.72724
G1 X72.723 Y117.861 E16.74229
G1 X72.346 Y117.439 E16.75735
G1 X72.033 Y116.969 E16.77237
G1 X71.789 Y116.459 E16.78742
G1 X71.619 Y115.92 E16.80245
G1 X71.526 Y115.362 E16.81751
G1 X71.509 Y114.996 E16.82725
G1 X71.5 Y108.713 E16.99443
G1 X71.507 Y108.47 E17.0009
G1 X71.824 Y103.116 E17.14361
G1 X71.903 Y97.64 E17.28933
G1 X71.673 Y92.197 E17.43429
G1 X71.522 Y90.302 E17.48487
G1 X71.509 Y89.982 E17.49339
G1 X71.51 Y83.008 E17.67896
G1 X71.55 Y82.445 E17.69398
G1 X71.669 Y81.892 E17.70903
G1 X71.865 Y81.362 E17.72406
G1 X72.134 Y80.864 E17.73912
G1 X72.47 Y80.41 E17.75415
G0 F1542.9 X72.865 Y80.567
G1 F900 X73.258 Y80.201 E17.76844
G1 X73.7 Y79.897 E17.78272
G1 X74.182 Y79.663 E17.79697
G1 X74.694 Y79.503 E17.81125
G1 X75.224 Y79.42 E17.82552
G1 X75.51 Y79.409 E17.83314
G1 X134.491 Y79.41 E19.40251
G1 X135.026 Y79.45 E19.41678
G1 X135.549 Y79.569 E19.43105
G1 X136.048 Y79.764 E19.44531
G1 X136.513 Y80.032 E19.45959
G1 X136.933 Y80.365 E19.47385
G1 X137.299 Y80.757 E19.48812
G1 X137.602 Y81.199 E19.50238
G1 X137.837 Y81.682 E19.51667
G1 X137.997 Y82.193 E19.53092
G1 X138.08 Y82.723 E19.5452
G1 X138.091 Y83.01 E19.55284
G1 X138.091 Y124.991 E20.66987
G1 X138.051 Y125.526 E20.68415
G1 X137.932 Y126.049 E20.69842
G1 X137.737 Y126.548 E20.71267
G1 X137.469 Y127.013 E20.72696
G1 X137.136 Y127.433 E20.74122
G1 X136.744 Y127.799 E20.75549
G1 X136.302 Y128.102 E20.76975
G1 X135.819 Y128.337 E20.78404
G1 X135.308 Y128.497 E20.79829
G1 X134.778 Y128.58 E20.81256
G1 X134.491 Y128.591 E20.8202
G1 X92.466 Y128.587 E21.93841
G1 X91.99 Y128.555 E21.9511
G1 X91.023 Y128.426 E21.97706
G1 X90.498 Y128.316 E21.99133
G1 X90.148 Y128.195 E22.00119
G1 X89.172 Y127.8 E22.0292
G1 X88.692 Y127.562 E22.04346
G1 X88.408 Y127.376 E22.05249
G1 X84.975 Y124.884 E22.16537
G1 X80.412 Y121.891 E22.31057
G1 X75.661 Y119.146 E22.45656
G1 X73.823 Y118.171 E22.51192
G1 X73.369 Y117.885 E22.5262
G1 X72.963 Y117.535 E22.54047
G1 X72.613 Y117.128 E22.55475
G1 X72.327 Y116.674 E22.56903
G1 X72.112 Y116.183 E22.58329
G1 X71.973 Y115.665 E22.59756
G1 X71.909 Y114.995 E22.61547
G1 X71.9 Y108.712 E22.78265
G1 X71.906 Y108.494 E22.78845
G1 X72.224 Y103.124 E22.93158
G1 X72.303 Y97.646 E23.07736
G1 X72.072 Y92.175 E23.22306
G1 X71.92 Y90.27 E23.27391
G1 X71.909 Y89.982 E23.28158
G1 X71.91 Y83.008 E23.46714
G1 X71.95 Y82.474 E23.48139
G1 X72.069 Y81.951 E23.49566
G1 X72.264 Y81.451 E23.50994
G1 X72.532 Y80.987 E23.5242
G1 X72.865 Y80.567 E23.53846
G0 F1542.9 X73.26 Y80.734
G1 F900 X73.646 Y80.408 E23.55191
G1 X74.079 Y80.147 E23.56536
G1 X74.548 Y79.957 E23.57882
G1 X75.04 Y79.844 E23.59226
G1 X75.51 Y79.809 E23.6048
G1 X134.491 Y79.81 E25.17417
G1 X134.995 Y79.85 E25.18762
G1 X135.486 Y79.969 E25.20107
G1 X135.953 Y80.164 E25.21453
G1 X136.383 Y80.429 E25.22797
G1 X136.766 Y80.759 E25.24142
G1 X137.092 Y81.146 E25.25489
G1 X137.353 Y81.579 E25.26834
G1 X137.543 Y82.047 E25.28178
G1 X137.656 Y82.54 E25.29524
G1 X137.691 Y83.01 E25.30778
G1 X137.691 Y124.991 E26.42481
G1 X137.651 Y125.495 E26.43827
G1 X137.532 Y125.986 E26.45171
G1 X137.338 Y126.453 E26.46516
G1 X137.072 Y126.883 E26.47862
G1 X136.742 Y127.266 E26.49207
G1 X136.355 Y127.592 E26.50553
G1 X135.922 Y127.853 E26.51899
G1 X135.454 Y128.043 E26.53243
G1 X134.961 Y128.156 E26.54588
G1 X134.491 Y128.191 E26.55842
G1 X92.466 Y128.187 E27.67663
G1 X92.043 Y128.159 E27.68791
G1 X91.076 Y128.03 E27.71387
G1 X90.582 Y127.924 E27.72731
G1 X90.299 Y127.824 E27.7353
G1 X89.323 Y127.429 E27.76331
G1 X88.87 Y127.203 E27.77678
G1 X88.643 Y127.052 E27.78404
G1 X85.218 Y124.565 E27.89666
G1 X80.618 Y121.549 E28.04302
G1 X75.838 Y118.786 E28.18993
G1 X74.01 Y117.817 E28.24498
G1 X73.584 Y117.546 E28.25841
G1 X73.205 Y117.211 E28.27187
G1 X72.884 Y116.82 E28.28533
G1 X72.629 Y116.384 E28.29877
G1 X72.445 Y115.913 E28.31223
G1 X72.338 Y115.419 E28.32568
G1 X72.309 Y114.995 E28.33698
G1 X72.3 Y108.712 E28.50416
G1 X72.306 Y108.518 E28.50933
G1 X72.624 Y103.154 E28.6523
G1 X72.703 Y97.636 E28.79914
G1 X72.472 Y92.151 E28.94522
G1 X72.319 Y90.238 E28.99628
G1 X72.309 Y89.983 E29.00307
G1 X72.31 Y83.009 E29.18864
G1 X72.35 Y82.505 E29.20209
G1 X72.469 Y82.013 E29.21556
G1 X72.664 Y81.547 E29.229
G1 X72.93 Y81.117 E29.24245
G1 X73.26 Y80.734 E29.2559
G1 F1200 E22.7559
G0 F1542.9 X76.114 Y82.335
G0 X76.114 Y83.614
G0 X127.218 Y84.278
;TYPE:WALL-INNER
G1 F1200 E29.2559
G1 F900 X127.042 Y84.39 E29.26146
G1 X126.582 Y84.682 E29.27595
G1 X126.067 Y85.231 E29.29598
G1 X125.703 Y85.894 E29.31611
G1 X125.516 Y86.624 E29.33616
G1 X125.516 Y87.376 E29.35617
G1 X125.703 Y88.106 E29.37622
G1 X126.067 Y88.769 E29.39634
G1 X126.582 Y89.318 E29.41637
G1 X127.218 Y89.722 E29.43642
G1 X127.937 Y89.955 E29.45653
G1 X128.691 Y90.001 E29.47663
G1 X129.428 Y89.86 E29.4966
G1 X130.112 Y89.54 E29.51669
G1 X130.693 Y89.059 E29.53676
G1 X131.138 Y88.449 E29.55685
G1 X131.412 Y87.747 E29.5769
G1 X131.508 Y87 E29.59694
G1 X131.412 Y86.253 E29.61698
G1 X131.138 Y85.551 E29.63703
G1 X130.693 Y84.941 E29.65712
G1 X130.112 Y84.46 E29.67719
G1 X129.957 Y84.387 E29.68175
G1 X129.428 Y84.14 E29.69729
G1 X128.696 Y84 E29.71712
G1 X129.428 Y84 E29.72046
G1 X130.012 Y84 E29.73107
G1 X133.5 Y84 E29.82388
G1 X133.5 Y124 E30.8882
G1 X94.008 Y124 E31.93901
G1 X93.992 Y124 E31.93944
G1 X93.265 Y123.999 E31.95878
G1 X92.553 Y123.998 E31.97773
G1 X93.265 Y123.909 E31.97997
G1 X93.992 Y123.611 E31.99295
G1 X94.004 Y123.602 E31.99334
G1 X94.616 Y123.137 E32.01379
G1 X95.096 Y122.517 E32.03465
G1 X95.4 Y121.793 E32.05555
G1 X95.509 Y120.988 E32.07716
G1 X95.401 Y120.207 E32.09814
G1 X95.097 Y119.485 E32.11899
G1 X94.617 Y118.863 E32.13989
G1 X93.994 Y118.39 E32.1607
G1 X93.391 Y118.14 E32.17807
G1 X93.282 Y118.094 E32.18122
G1 X92.563 Y118 E32.20051
G1 X93.257 Y117.909 E32.20469
G1 X93.5 Y117.877 E32.20928
G1 X93.5 Y114 E32.31244
G1 X76.5 Y114 E32.76478
G1 X76.5 Y109 E32.89782
G1 X85.652 Y109 E33.14134
G1 X85.653 Y89.2 E33.66818
G1 X85.653 Y89 E33.6735
G1 X85.453 Y89 E33.67694
G1 X76.5 Y89 E33.91517
G1 X76.5 Y84 E34.04821
G1 X127.009 Y84 E35.39216
G1 X127.218 Y84 E35.39691
G1 X127.937 Y84 E35.41604
G1 X128.675 Y84 E35.43567
G1 X127.937 Y84.045 E35.43681
G1 X127.218 Y84.278 E35.44535
G0 F1542.9 X126.361 Y85.445
G0 X126.041 Y86.028
G0 X125.877 Y86.669
G0 X124.888 Y119.47
G0 X125.074 Y120.184
G0 X125.958 Y122.096
G1 F900 X126.793 Y122.626 E35.47167
G1 X127.748 Y122.937 E35.49839
G1 X128.751 Y122.999 E35.52513
G1 X129.739 Y122.811 E35.55189
G1 X130.647 Y122.383 E35.5786
G1 X131.422 Y121.744 E35.60533
G1 X132.012 Y120.93 E35.63208
G1 X132.381 Y119.996 E35.6588
G1 X132.508 Y119 E35.68552
G1 X132.381 Y118.004 E35.71223
G1 X132.012 Y117.07 E35.73895
G1 X131.422 Y116.256 E35.7657
G1 X130.647 Y115.617 E35.79243
G1 X129.739 Y115.189 E35.81914
G1 X128.75 Y115.001 E35.84593
G1 X127.734 Y115.066 E35.87302
G1 X126.78 Y115.382 E35.89976
G1 X125.935 Y115.921 E35.92643
G1 X125.25 Y116.657 E35.95318
G1 X124.77 Y117.539 E35.9799
G1 X124.524 Y118.513 E36.00663
G1 X124.527 Y119.517 E36.03334
G1 X124.781 Y120.489 E36.06007
G1 X125.268 Y121.366 E36.08677
G1 X125.958 Y122.096 E36.11349
G0 F1542.9 X125.118 Y120.353
G0 X124.888 Y119.47
G0 X124.885 Y118.558
G0 X125.108 Y117.672
G0 X125.545 Y116.87
G0 X126.168 Y116.201
G0 X126.936 Y115.71
G0 X127.638 Y115.478
G0 X128.731 Y115.304
G0 X128.725 Y115.403
G1 F900 X127.811 Y115.462 E36.13786
G1 X126.953 Y115.746 E36.16191
G1 X126.193 Y116.231 E36.1859
G1 X125.577 Y116.893 E36.20996
G1 X125.145 Y117.686 E36.23399
G1 X124.924 Y118.562 E36.25803
G1 X124.927 Y119.465 E36.28206
G1 X125.155 Y120.339 E36.30609
G1 X125.593 Y121.128 E36.3301
G1 X126.214 Y121.785 E36.35416
G1 X126.965 Y122.261 E36.37781
G1 X127.824 Y122.541 E36.40185
G1 X128.726 Y122.597 E36.4259
G1 X129.614 Y122.428 E36.44995
G1 X130.431 Y122.043 E36.47398
G1 X131.128 Y121.468 E36.49803
G1 X131.659 Y120.736 E36.52209
G1 X131.991 Y119.896 E36.54612
G1 X132.105 Y119 E36.57016
G1 X131.991 Y118.104 E36.59419
G1 X131.659 Y117.264 E36.61822
G1 X131.128 Y116.532 E36.64228
G1 X130.431 Y115.957 E36.66633
G1 X129.614 Y115.572 E36.69036
G1 X128.725 Y115.403 E36.71444
G0 F1542.9 X128.731 Y115.304
G0 X125.877 Y87.331
G0 X125.877 Y86.669
G0 X125.969 Y86.307
G0 X126.313 Y85.41
G0 X126.393 Y85.468
G1 F900 X126.078 Y86.042 E36.73186
G1 X125.916 Y86.674 E36.74922
G1 X125.916 Y87.326 E36.76657
G1 X126.078 Y87.958 E36.78393
G1 X126.393 Y88.532 E36.80135
G1 X126.839 Y89.007 E36.81868
G1 X127.39 Y89.357 E36.83605
G1 X128.012 Y89.559 E36.85345
G1 X128.665 Y89.599 E36.87086
G1 X129.304 Y89.477 E36.88817
G1 X129.896 Y89.199 E36.90557
G1 X130.399 Y88.783 E36.92294
G1 X130.784 Y88.255 E36.94033
G1 X131.022 Y87.647 E36.9577
G1 X131.105 Y87 E36.97506
G1 X131.022 Y86.353 E36.99242
G1 X130.784 Y85.745 E37.00979
G1 X130.399 Y85.217 E37.02718
G1 X129.896 Y84.801 E37.04454
G1 X129.304 Y84.523 E37.06195
G1 X128.665 Y84.401 E37.07926
G1 X128.012 Y84.441 E37.09666
G1 X127.39 Y84.643 E37.11406
G1 X126.839 Y84.993 E37.13143
G1 X126.393 Y85.468 E37.14877
G0 F1542.9 X126.313 Y85.41
G0 X95.205 Y120.989
G0 X95.105 Y120.989
G1 F900 X95.012 Y120.314 E37.1669
G1 X94.749 Y119.688 E37.18497
G1 X94.333 Y119.15 E37.20306
G1 X93.793 Y118.74 E37.2211
G1 X93.177 Y118.484 E37.23885
G1 X92.506 Y118.396 E37.25686
G1 X91.831 Y118.481 E37.27496
G1 X91.202 Y118.74 E37.29306
G1 X90.663 Y119.153 E37.31113
G1 X90.248 Y119.691 E37.32921
G1 X89.986 Y120.318 E37.34729
G1 X89.896 Y120.992 E37.36538
G1 X89.981 Y121.666 E37.38346
G1 X90.239 Y122.296 E37.40157
G1 X90.652 Y122.835 E37.41964
G1 X91.189 Y123.249 E37.43768
G1 X91.815 Y123.513 E37.45576
G1 X92.489 Y123.603 E37.47385
G1 X93.163 Y123.519 E37.49193
G1 X93.792 Y123.261 E37.51002
G1 X94.332 Y122.85 E37.52807
G1 X94.748 Y122.314 E37.54613
G1 X95.011 Y121.687 E37.56422
G1 X95.105 Y120.989 E37.58296
G0 F1542.9 X95.205 Y120.989
G0 X95.049 Y121.697
G0 X94.782 Y122.334
G0 X94.36 Y122.878
G0 X93.811 Y123.295
G0 X93.173 Y123.557
G0 X92.62 Y123.626
G0 X90.172 Y123.332
G0 X90.102 Y123.402
G1 F900 X89.564 Y122.702 E37.60645
G1 X89.221 Y121.88 E37.63015
G1 X89.105 Y121 E37.65377
G1 X89.22 Y120.121 E37.67735
G1 X89.563 Y119.299 E37.70105
G1 X90.101 Y118.599 E37.72455
G1 X90.802 Y118.061 E37.74806
G1 X91.625 Y117.72 E37.77176
G1 X93.1 Y117.526 E37.81135
G1 X93.1 Y114.4 E37.89452
