;FLAVOR:Marlin
;TIME:4153
;Filament used: 5.43286m, 0m
;Layer height: 0.2
;POSTPROCESSED
;Generated with Cura_SteamEngine 3.4.1
T0
M190 S75
M104 S248
M109 S248
M82 ;absolute extrusion mode
; Printer start settings begin
M92 X160 Y160 Z1600; Steps per unit
M201 X1000 Y1000 Z50 E1500 E1500 ; Max Accelleration
M203 X800 Y800 Z2 E90 E90 ; Max Feed
M205 X3.0 Y3.0 Z0.3 E5.0 ; Default Jerk
G28
G0 X0 Y0 Z15 F1200
G92 E-35
G1 E0 F200 ;Home
G92 E5
G1 F1000 E0
G29 ;Auto Bed Level
G92 F400 E-5
G1 E0
G0 X0 Y0 Z15.0 F6000 ;Move the platform down 15mm
G92 E0
G1 F200 E3
G92 E0
G92 E0
G1 F1200 E-6.5
;LAYER_COUNT:81
;LAYER:0
M107
G0 F1542.9 X71.541 Y79.237 Z0.16
;TYPE:SKIRT
G1 F1200 E0
G1 F900 X72.052 Y78.886 E0.0165
G1 X72.603 Y78.604 E0.03296
G1 X73.186 Y78.395 E0.04944
G1 X73.791 Y78.263 E0.06592
G1 X74.51 Y78.209 E0.08511
G1 X135.491 Y78.21 E1.70769
G1 X136.109 Y78.25 E1.72417
G1 X136.717 Y78.369 E1.74066
G1 X137.304 Y78.566 E1.75713
G1 X137.861 Y78.836 E1.7736
G1 X138.379 Y79.176 E1.79009
G1 X138.849 Y79.58 E1.80658
G1 X139.262 Y80.041 E1.82305
G1 X139.613 Y80.551 E1.83952
G1 X139.896 Y81.102 E1.856
G1 X140.105 Y81.686 E1.87251
G1 X140.237 Y82.291 E1.88899
G1 X140.291 Y83.01 E1.90817
G1 X140.291 Y124.991 E3.02521
G1 X140.251 Y125.609 E3.04168
G1 X140.132 Y126.217 E3.05817
G1 X139.935 Y126.804 E3.07464
G1 X139.665 Y127.361 E3.09111
G1 X139.325 Y127.879 E3.1076
G1 X138.921 Y128.349 E3.12409
G1 X138.46 Y128.762 E3.14056
G1 X137.95 Y129.113 E3.15703
G1 X137.399 Y129.396 E3.17352
G1 X136.816 Y129.605 E3.19
G1 X136.21 Y129.737 E3.2065
G1 X135.488 Y129.791 E3.22576
G1 X93.243 Y129.764 E4.34982
G1 X92.569 Y129.716 E4.3678
G1 X91.818 Y129.609 E4.38799
G1 X91.212 Y129.482 E4.40446
G1 X90.666 Y129.295 E4.41982
G1 X89.654 Y128.878 E4.44894
G1 X89.098 Y128.606 E4.46541
G1 X88.803 Y128.422 E4.47466
G1 X86.802 Y127.075 E4.53884
G1 X82.175 Y124.227 E4.68341
G1 X77.431 Y121.666 E4.82686
G1 X72.461 Y119.321 E4.97308
G1 X71.919 Y119.021 E4.98957
G1 X71.42 Y118.654 E5.00605
G1 X70.973 Y118.226 E5.02252
G1 X70.584 Y117.743 E5.03902
G1 X70.261 Y117.215 E5.05549
G1 X70.009 Y116.649 E5.07197
G1 X69.831 Y116.056 E5.08845
G1 X69.732 Y115.445 E5.10492
G1 X69.709 Y114.987 E5.11712
G1 X69.7 Y108.713 E5.28406
G1 X69.708 Y108.422 E5.2918
G1 X70.025 Y103.081 E5.43417
G1 X70.102 Y97.662 E5.57837
G1 X69.874 Y92.239 E5.72279
G1 X69.724 Y90.365 E5.77282
G1 X69.709 Y89.982 E5.78302
G1 X69.71 Y83.008 E5.96858
G1 X69.75 Y82.39 E5.98506
G1 X69.869 Y81.782 E6.00154
G1 X70.066 Y81.195 E6.01802
G1 X70.336 Y80.638 E6.03449
G1 X70.676 Y80.12 E6.05098
G1 X71.08 Y79.651 E6.06745
G1 X71.541 Y79.237 E6.08393
G0 F1542.9 X71.93 Y79.445
G1 F900 X72.433 Y79.13 E6.09973
G1 X72.973 Y78.886 E6.11549
G1 X73.541 Y78.717 E6.13126
G1 X74.127 Y78.626 E6.14704
G1 X74.51 Y78.609 E6.15724
G1 X135.491 Y78.61 E7.77983
G1 X136.083 Y78.65 E7.79562
G1 X136.664 Y78.769 E7.8114
G1 X137.223 Y78.965 E7.82716
G1 X137.751 Y79.235 E7.84294
G1 X138.238 Y79.573 E7.85871
G1 X138.675 Y79.974 E7.87449
G1 X139.055 Y80.429 E7.89027
G1 X139.369 Y80.932 E7.90604
G1 X139.614 Y81.472 E7.92182
G1 X139.783 Y82.041 E7.93762
G1 X139.874 Y82.627 E7.9534
G1 X139.891 Y83.01 E7.9636
G1 X139.891 Y124.991 E9.08063
G1 X139.851 Y125.583 E9.09642
G1 X139.732 Y126.163 E9.11217
G1 X139.536 Y126.723 E9.12796
G1 X139.266 Y127.251 E9.14374
G1 X138.928 Y127.738 E9.15951
G1 X138.527 Y128.175 E9.17529
G1 X138.072 Y128.555 E9.19107
G1 X137.569 Y128.869 E9.20685
G1 X137.029 Y129.114 E9.22262
G1 X136.46 Y129.283 E9.23842
G1 X135.875 Y129.374 E9.25417
G1 X135.488 Y129.391 E9.26448
G1 X93.243 Y129.364 E10.38854
G1 X92.625 Y129.32 E10.40502
G1 X91.874 Y129.213 E10.42521
G1 X91.294 Y129.09 E10.44098
G1 X90.819 Y128.925 E10.45436
G1 X89.807 Y128.508 E10.48349
G1 X89.026 Y128.09 E10.50706
G1 X87.007 Y126.731 E10.57181
G1 X82.382 Y123.884 E10.71632
G1 X77.606 Y121.306 E10.86074
G1 X72.632 Y118.959 E11.00708
G1 X72.114 Y118.671 E11.02285
G1 X71.639 Y118.315 E11.03864
G1 X71.217 Y117.899 E11.05441
G1 X70.854 Y117.43 E11.07019
G1 X70.558 Y116.916 E11.08597
G1 X70.333 Y116.367 E11.10176
G1 X70.185 Y115.793 E11.11753
G1 X70.109 Y114.986 E11.1391
G1 X70.1 Y108.712 E11.30604
G1 X70.108 Y108.446 E11.31312
G1 X70.424 Y103.11 E11.45535
G1 X70.502 Y97.651 E11.60062
G1 X70.274 Y92.217 E11.74533
G1 X70.123 Y90.333 E11.79562
G1 X70.109 Y89.982 E11.80497
G1 X70.11 Y83.008 E11.99054
G1 X70.15 Y82.417 E12.0063
G1 X70.269 Y81.836 E12.02208
G1 X70.465 Y81.276 E12.03787
G1 X70.735 Y80.748 E12.05364
G1 X71.073 Y80.261 E12.06942
G1 X71.474 Y79.824 E12.0852
G1 X71.93 Y79.445 E12.10098
G0 F1542.9 X71.867 Y80.007
G1 F900 X72.316 Y79.664 E12.11601
G1 X72.81 Y79.388 E12.13107
G1 X73.337 Y79.185 E12.14609
G1 X73.888 Y79.058 E12.16114
G1 X74.51 Y79.009 E12.17774
G1 X135.491 Y79.01 E13.80033
G1 X136.055 Y79.05 E13.81537
G1 X136.608 Y79.169 E13.83043
G1 X137.138 Y79.365 E13.84546
G1 X137.635 Y79.633 E13.86049
G1 X138.09 Y79.969 E13.87554
G1 X138.493 Y80.366 E13.89059
G1 X138.835 Y80.816 E13.90563
G1 X139.111 Y81.309 E13.92066
G1 X139.315 Y81.837 E13.93572
G1 X139.442 Y82.387 E13.95074
G1 X139.491 Y83.01 E13.96737
G1 X139.491 Y124.991 E15.0844
G1 X139.451 Y125.555 E15.09945
G1 X139.332 Y126.108 E15.1145
G1 X139.136 Y126.638 E15.12954
G1 X138.868 Y127.135 E15.14456
G1 X138.532 Y127.59 E15.15961
G1 X138.135 Y127.993 E15.17466
G1 X137.685 Y128.335 E15.1897
G1 X137.192 Y128.611 E15.20474
G1 X136.664 Y128.815 E15.2198
G1 X136.114 Y128.942 E15.23482
G1 X135.488 Y128.991 E15.25152
G1 X93.243 Y128.964 E16.37558
G1 X92.682 Y128.924 E16.39055
G1 X91.931 Y128.817 E16.41073
G1 X91.378 Y128.698 E16.42578
G1 X90.971 Y128.555 E16.43726
G1 X89.959 Y128.138 E16.46639
G1 X89.25 Y127.758 E16.48779
G1 X87.236 Y126.402 E16.55239
G1 X82.581 Y123.537 E16.69783
G1 X77.802 Y120.957 E16.84234
G1 X72.802 Y118.598 E16.98945
G1 X72.309 Y118.321 E17.00449
G1 X71.86 Y117.977 E17.01954
G1 X71.464 Y117.574 E17.03458
G1 X71.129 Y117.119 E17.04961
G1 X70.861 Y116.621 E17.06466
G1 X70.666 Y116.09 E17.07971
G1 X70.548 Y115.537 E17.09475
G1 X70.509 Y114.986 E17.10945
G1 X70.5 Y108.712 E17.27639
G1 X70.507 Y108.469 E17.28286
G1 X70.824 Y103.116 E17.42554
G1 X70.903 Y97.64 E17.57126
G1 X70.673 Y92.197 E17.71622
G1 X70.522 Y90.302 E17.7668
G1 X70.509 Y89.982 E17.77533
G1 X70.51 Y83.008 E17.96089
G1 X70.55 Y82.445 E17.97591
G1 X70.669 Y81.892 E17.99096
G1 X70.865 Y81.362 E18.006
G1 X71.134 Y80.864 E18.02106
G1 X71.47 Y80.41 E18.03608
G1 X71.867 Y80.007 E18.05114
G0 F1542.9 X72.258 Y80.201
G1 F900 X72.7 Y79.897 E18.06541
G1 X73.182 Y79.663 E18.07967
G1 X73.694 Y79.503 E18.09394
G1 X74.224 Y79.42 E18.10821
G1 X74.51 Y79.409 E18.11583
G1 X135.491 Y79.41 E19.73842
G1 X136.026 Y79.45 E19.75269
G1 X136.549 Y79.569 E19.76697
G1 X137.048 Y79.764 E19.78122
G1 X137.513 Y80.032 E19.7955
G1 X137.933 Y80.365 E19.80976
G1 X138.299 Y80.757 E19.82403
G1 X138.602 Y81.199 E19.83829
G1 X138.837 Y81.682 E19.85258
G1 X138.997 Y82.193 E19.86683
G1 X139.08 Y82.723 E19.88111
G1 X139.091 Y83.01 E19.88875
G1 X139.091 Y124.991 E21.00578
G1 X139.051 Y125.526 E21.02006
G1 X138.932 Y126.049 E21.03433
G1 X138.737 Y126.548 E21.04859
G1 X138.469 Y127.013 E21.06287
G1 X138.136 Y127.433 E21.07713
G1 X137.744 Y127.799 E21.0914
G1 X137.302 Y128.102 E21.10566
G1 X136.819 Y128.337 E21.11995
G1 X136.308 Y128.497 E21.1342
G1 X135.778 Y128.58 E21.14847
G1 X135.489 Y128.591 E21.15617
G1 X93.244 Y128.564 E22.28023
G1 X92.738 Y128.528 E22.29372
G1 X91.987 Y128.421 E22.31391
G1 X91.463 Y128.306 E22.32818
G1 X91.123 Y128.186 E22.33778
G1 X90.111 Y127.769 E22.3669
G1 X89.473 Y127.427 E22.38616
G1 X87.441 Y126.059 E22.45134
G1 X82.775 Y123.187 E22.59713
G1 X77.977 Y120.597 E22.74221
G1 X72.973 Y118.236 E22.88943
G1 X72.506 Y117.971 E22.90372
G1 X72.084 Y117.641 E22.91797
G1 X71.716 Y117.251 E22.93224
G1 X71.409 Y116.811 E22.94651
G1 X71.172 Y116.33 E22.96078
G1 X71.008 Y115.819 E22.97506
G1 X70.922 Y115.29 E22.98932
G1 X70.909 Y114.985 E22.99744
G1 X70.9 Y108.711 E23.16438
G1 X70.906 Y108.493 E23.17019
G1 X71.224 Y103.124 E23.3133
G1 X71.303 Y97.646 E23.45907
G1 X71.072 Y92.175 E23.60477
G1 X70.92 Y90.27 E23.65562
G1 X70.909 Y89.982 E23.66329
G1 X70.91 Y83.008 E23.84886
G1 X70.95 Y82.474 E23.8631
G1 X71.069 Y81.951 E23.87738
G1 X71.264 Y81.451 E23.89166
G1 X71.532 Y80.987 E23.90591
G1 X71.865 Y80.567 E23.92018
G1 X72.258 Y80.201 E23.93447
G0 F1542.9 X72.646 Y80.408
G1 F900 X73.079 Y80.147 E23.94792
G1 X73.548 Y79.957 E23.96138
G1 X74.04 Y79.844 E23.97481
G1 X74.51 Y79.809 E23.98735
G1 X135.491 Y79.81 E25.60994
G1 X135.995 Y79.85 E25.6234
G1 X136.486 Y79.969 E25.63684
G1 X136.953 Y80.164 E25.6503
G1 X137.383 Y80.429 E25.66374
G1 X137.766 Y80.759 E25.6772
G1 X138.092 Y81.146 E25.69066
G1 X138.353 Y81.579 E25.70411
G1 X138.543 Y82.047 E25.71755
G1 X138.656 Y82.54 E25.73101
G1 X138.691 Y83.01 E25.74355
G1 X138.691 Y124.991 E26.86059
G1 X138.651 Y125.495 E26.87404
G1 X138.532 Y125.986 E26.88748
G1 X138.338 Y126.453 E26.90094
G1 X138.072 Y126.883 E26.91439
G1 X137.742 Y127.266 E26.92784
G1 X137.355 Y127.592 E26.94131
G1 X136.922 Y127.853 E26.95476
G1 X136.454 Y128.043 E26.9682
G1 X135.961 Y128.156 E26.98166
G1 X135.489 Y128.191 E26.99425
G1 X93.244 Y128.164 E28.11831
G1 X92.795 Y128.132 E28.13029
G1 X92.044 Y128.025 E28.15047
G1 X91.55 Y127.914 E28.16394
G1 X91.276 Y127.816 E28.17169
G1 X90.264 Y127.399 E28.20081
G1 X89.696 Y127.095 E28.21795
G1 X87.647 Y125.716 E28.28367
G1 X82.982 Y122.845 E28.42942
G1 X78.152 Y120.237 E28.57548
G1 X73.144 Y117.874 E28.72282
G1 X72.705 Y117.623 E28.73627
G1 X72.311 Y117.306 E28.74973
G1 X71.972 Y116.931 E28.76318
G1 X71.697 Y116.507 E28.77663
G1 X71.491 Y116.045 E28.79009
G1 X71.361 Y115.556 E28.80355
G1 X71.309 Y114.985 E28.81881
G1 X71.3 Y108.711 E28.98575
G1 X71.306 Y108.517 E28.99091
G1 X71.624 Y103.154 E29.13386
G1 X71.703 Y97.636 E29.2807
G1 X71.472 Y92.151 E29.42677
G1 X71.319 Y90.238 E29.47784
G1 X71.309 Y89.983 E29.48463
G1 X71.31 Y83.009 E29.67019
G1 X71.35 Y82.505 E29.68364
G1 X71.469 Y82.013 E29.69711
G1 X71.664 Y81.547 E29.71055
G1 X71.93 Y81.117 E29.72401
G1 X72.26 Y80.734 E29.73746
G1 X72.646 Y80.408 E29.7509
G1 F1200 E23.2509
G0 F1542.9 X75.114 Y82.335
G0 X75.114 Y83.614
G0 X128.218 Y84.278
;TYPE:WALL-INNER
G1 F1200 E29.7509
G1 F900 X128.042 Y84.39 E29.75645
G1 X127.582 Y84.682 E29.77095
G1 X127.067 Y85.231 E29.79098
G1 X126.703 Y85.894 E29.81111
G1 X126.516 Y86.624 E29.83116
G1 X126.516 Y87.376 E29.85117
G1 X126.703 Y88.106 E29.87122
G1 X127.067 Y88.769 E29.89134
G1 X127.582 Y89.318 E29.91137
G1 X128.218 Y89.722 E29.93142
G1 X128.937 Y89.955 E29.95153
G1 X129.691 Y90.001 E29.97163
G1 X130.428 Y89.86 E29.9916
G1 X131.112 Y89.54 E30.01169
G1 X131.693 Y89.059 E30.03176
G1 X132.138 Y88.449 E30.05185
G1 X132.412 Y87.747 E30.0719
G1 X132.508 Y87 E30.09194
G1 X132.412 Y86.253 E30.11198
G1 X132.138 Y85.551 E30.13203
G1 X131.693 Y84.941 E30.15212
G1 X131.112 Y84.46 E30.17219
G1 X130.957 Y84.387 E30.17675
G1 X130.428 Y84.14 E30.19229
G1 X129.696 Y84 E30.21212
G1 X130.428 Y84 E30.21546
G1 X131.012 Y84 E30.22607
G1 X134.5 Y84 E30.31888
G1 X134.5 Y124 E31.3832
G1 X95.008 Y124 E32.43401
G1 X94.992 Y124 E32.43444
G1 X94.265 Y124 E32.45378
G1 X93.546 Y123.999 E32.47291
G1 X94.265 Y123.909 E32.4752
G1 X94.992 Y123.611 E32.4882
G1 X95.004 Y123.602 E32.48859
G1 X95.616 Y123.137 E32.50905
G1 X96.096 Y122.517 E32.52991
G1 X96.4 Y121.793 E32.5508
G1 X96.509 Y120.988 E32.57242
G1 X96.401 Y120.207 E32.5934
G1 X96.097 Y119.485 E32.61424
G1 X95.617 Y118.863 E32.63515
G1 X94.994 Y118.39 E32.65596
G1 X94.391 Y118.14 E32.67333
G1 X94.282 Y118.094 E32.67648
G1 X93.563 Y118 E32.69577
G1 X94.257 Y117.909 E32.69995
G1 X94.5 Y117.877 E32.70454
G1 X94.498 Y114 E32.8077
G1 X75.5 Y114 E33.3132
G1 X75.5 Y109 E33.44624
G1 X84.652 Y109 E33.68975
G1 X84.653 Y89.2 E34.21659
G1 X84.653 Y89 E34.22192
G1 X84.453 Y89 E34.22536
G1 X75.5 Y89 E34.46358
G1 X75.5 Y84 E34.59663
G1 X128.009 Y84 E35.99379
G1 X128.218 Y84 E35.99854
G1 X128.937 Y84 E36.01767
G1 X129.675 Y84 E36.03731
G1 X128.937 Y84.045 E36.03844
G1 X128.218 Y84.278 E36.04699
G0 F1542.9 X127.361 Y85.445
G0 X127.041 Y86.028
G0 X126.877 Y86.669
G0 X125.888 Y119.47
G0 X126.074 Y120.184
G0 X126.958 Y122.096
G1 F900 X127.793 Y122.626 E36.0733
G1 X128.748 Y122.937 E36.10003
G1 X129.751 Y122.999 E36.12677
G1 X130.739 Y122.811 E36.15353
G1 X131.647 Y122.383 E36.18024
G1 X132.422 Y121.744 E36.20696
G1 X133.012 Y120.93 E36.23371
G1 X133.381 Y119.996 E36.26043
G1 X133.508 Y119 E36.28715
G1 X133.381 Y118.004 E36.31387
G1 X133.012 Y117.07 E36.34059
G1 X132.422 Y116.256 E36.36734
G1 X131.647 Y115.617 E36.39407
G1 X130.739 Y115.189 E36.42078
G1 X129.75 Y115.001 E36.44756
G1 X128.734 Y115.066 E36.47465
G1 X127.78 Y115.382 E36.50139
G1 X126.935 Y115.921 E36.52806
G1 X126.25 Y116.657 E36.55481
G1 X125.77 Y117.539 E36.58153
G1 X125.524 Y118.513 E36.60826
G1 X125.527 Y119.517 E36.63498
G1 X125.781 Y120.489 E36.66171
G1 X126.268 Y121.366 E36.6884
G1 X126.958 Y122.096 E36.71513
G0 F1542.9 X126.118 Y120.353
G0 X125.888 Y119.47
G0 X125.885 Y118.558
G0 X126.108 Y117.672
G0 X126.545 Y116.87
G0 X127.168 Y116.201
G0 X127.936 Y115.71
G0 X128.638 Y115.478
G0 X129.731 Y115.304
G0 X129.725 Y115.403
G1 F900 X128.811 Y115.462 E36.7395
G1 X127.953 Y115.746 E36.76355
G1 X127.193 Y116.231 E36.78753
G1 X126.577 Y116.893 E36.8116
G1 X126.145 Y117.686 E36.83562
G1 X125.924 Y118.562 E36.85966
G1 X125.927 Y119.465 E36.88369
G1 X126.155 Y120.339 E36.90772
G1 X126.593 Y121.128 E36.93174
G1 X127.214 Y121.785 E36.95579
G1 X127.965 Y122.261 E36.97945
G1 X128.824 Y122.541 E37.00349
G1 X129.726 Y122.597 E37.02754
G1 X130.614 Y122.428 E37.05159
G1 X131.431 Y122.043 E37.07562
G1 X132.128 Y121.468 E37.09966
G1 X132.659 Y120.736 E37.12372
G1 X132.991 Y119.896 E37.14776
G1 X133.105 Y119 E37.17179
G1 X132.991 Y118.104 E37.19582
G1 X132.659 Y117.264 E37.21986
G1 X132.128 Y116.532 E37.24392
G1 X131.431 Y115.957 E37.26796
G1 X130.614 Y115.572 E37.29199
G1 X129.725 Y115.403 E37.31607
G0 F1542.9 X129.731 Y115.304
G0 X126.877 Y87.331
G0 X126.877 Y86.669
G0 X126.969 Y86.307
G0 X127.313 Y85.41
G0 X127.393 Y85.468
G1 F900 X127.078 Y86.042 E37.33349
G1 X126.916 Y86.674 E37.35085
G1 X126.916 Y87.326 E37.3682
G1 X127.078 Y87.958 E37.38556
G1 X127.393 Y88.532 E37.40298
G1 X127.839 Y89.007 E37.42032
G1 X128.39 Y89.357 E37.43769
G1 X129.012 Y89.559 E37.45509
G1 X129.665 Y89.599 E37.4725
G1 X130.304 Y89.477 E37.48981
G1 X130.896 Y89.199 E37.50721
G1 X131.399 Y88.783 E37.52458
G1 X131.784 Y88.255 E37.54196
G1 X132.022 Y87.647 E37.55934
G1 X132.105 Y87 E37.57669
G1 X132.022 Y86.353 E37.59405
G1 X131.784 Y85.745 E37.61142
G1 X131.399 Y85.217 E37.62881
G1 X130.896 Y84.801 E37.64618
G1 X130.304 Y84.523 E37.66358
G1 X129.665 Y84.401 E37.68089
G1 X129.012 Y84.441 E37.6983
G1 X128.39 Y84.643 E37.7157
G1 X127.839 Y84.993 E37.73307
G1 X127.393 Y85.468 E37.75041
G0 F1542.9 X127.313 Y85.41
G0 X96.205 Y120.989
G0 X96.105 Y120.989
G1 F900 X96.012 Y120.314 E37.76854
G1 X95.749 Y119.688 E37.7866
G1 X95.333 Y119.15 E37.8047
G1 X94.793 Y118.74 E37.82274
G1 X94.177 Y118.484 E37.84049
G1 X93.506 Y118.396 E37.85849
G1 X92.831 Y118.481 E37.8766
G1 X92.202 Y118.74 E37.8947
G1 X91.663 Y119.153 E37.91276
G1 X91.248 Y119.691 E37.93084
G1 X90.986 Y120.318 E37.94893
G1 X90.896 Y120.992 E37.96702
G1 X90.981 Y121.666 E37.98509
G1 X91.239 Y122.296 E38.00321
G1 X91.652 Y122.835 E38.02128
G1 X92.189 Y123.249 E38.03932
G1 X92.815 Y123.513 E38.0574
G1 X93.489 Y123.603 E38.07549
G1 X94.163 Y123.519 E38.09356
G1 X94.792 Y123.261 E38.11165
G1 X95.332 Y122.85 E38.12971
G1 X95.748 Y122.314 E38.14776
G1 X96.011 Y121.687 E38.16585
G1 X96.105 Y120.989 E38.18459
G0 F1542.9 X96.205 Y120.989
G0 X96.049 Y121.697
G0 X95.782 Y122.334
G0 X95.36 Y122.878
G0 X94.811 Y123.295
G0 X94.173 Y123.557
G0 X93.62 Y123.626
G0 X91.16 Y123.317
G0 X91.089 Y123.387
G1 F900 X90.555 Y122.685 E38.20806
G1 X90.221 Y121.878 E38.2313
G1 X90.105 Y121 E38.25487
G1 X90.22 Y120.121 E38.27845
G1 X90.563 Y119.299 E38.30215
G1 X91.101 Y118.599 E38.32564
G1 X91.802 Y118.061 E38.34916
G1 X92.625 Y117.72 E38.37286
G1 X94.1 Y117.526 E38.41245
G1 X94.098 Y114.4 E38.49562
G1 X75.1 Y114.4 E39.00112
G1 X75.1 Y108.6 E39.15545
