;FLAVOR:Marlin
;TIME:2318
;Filament used: 2.9803m, 0m
;Layer height: 0.2
;POSTPROCESSED
;Generated with Cura_SteamEngine 3.4.1
T0
M190 S75
M104 S248
M109 S248
M82 ;absolute extrusion mode
; Printer start settings begin
M92 X160 Y160 Z1600; Steps per unit
M201 X1000 Y1000 Z50 E1500 E1500 ; Max Accelleration
M203 X800 Y800 Z2 E90 E90 ; Max Feed
M205 X3.0 Y3.0 Z0.3 E5.0 ; Default Jerk
G28
G0 X0 Y0 Z15 F1200
G92 E-35
G1 E0 F200 ;Home
G92 E5
G1 F1000 E0
G29 ;Auto Bed Level
G92 F400 E-5
G1 E0
G0 X0 Y0 Z15.0 F6000 ;Move the platform down 15mm
G92 E0
G1 F200 E3
G92 E0
G92 E0
G1 F1200 E-6.5
;LAYER_COUNT:71
;LAYER:0
M107
G0 F1542.9 X81.58 Y81.651 Z0.16
;TYPE:SKIRT
G1 F1200 E0
G1 F900 X82.041 Y81.237 E0.01649
G1 X82.551 Y80.887 E0.03295
G1 X83.103 Y80.604 E0.04945
G1 X83.686 Y80.395 E0.06593
G1 X84.291 Y80.263 E0.08241
G1 X85.012 Y80.209 E0.10164
G1 X120.301 Y80.227 E1.04062
G1 X120.93 Y80.269 E1.05739
G1 X121.662 Y80.366 E1.07704
G1 X122.269 Y80.486 E1.0935
G1 X122.617 Y80.594 E1.1032
G1 X123.865 Y81.031 E1.13838
G1 X124.435 Y81.273 E1.15486
G1 X124.919 Y81.552 E1.16972
G1 X125.768 Y82.111 E1.19677
G1 X126.425 Y82.632 E1.21908
G1 X126.992 Y83.168 E1.23984
G1 X127.49 Y83.716 E1.25955
G1 X127.968 Y84.333 E1.28031
G1 X128.388 Y84.976 E1.30075
G1 X128.763 Y85.664 E1.3216
G1 X129.023 Y86.226 E1.33807
G1 X129.142 Y86.57 E1.34776
G1 X129.522 Y87.825 E1.38265
G1 X129.663 Y88.428 E1.39913
G1 X129.721 Y88.961 E1.41339
G1 X129.793 Y90.313 E1.44942
G1 X129.8 Y90.572 E1.45631
G1 X129.773 Y120.303 E2.2474
G1 X129.732 Y120.922 E2.26391
G1 X129.638 Y121.64 E2.28317
G1 X129.519 Y122.248 E2.29966
G1 X129.411 Y122.597 E2.30938
G1 X128.971 Y123.859 E2.34494
G1 X128.73 Y124.43 E2.36143
G1 X128.455 Y124.908 E2.3761
G1 X127.913 Y125.736 E2.40244
G1 X127.499 Y126.279 E2.4206
G1 X127.123 Y126.706 E2.43574
G1 X126.64 Y127.183 E2.45381
G1 X126.055 Y127.683 E2.47428
G1 X125.451 Y128.122 E2.49415
G1 X124.783 Y128.533 E2.51502
G1 X124.102 Y128.881 E2.53537
G1 X123.374 Y129.182 E2.55633
G1 X122.662 Y129.413 E2.57625
G1 X121.905 Y129.595 E2.59696
G1 X121.038 Y129.721 E2.62027
G1 X119.687 Y129.793 E2.65627
G1 X119.431 Y129.8 E2.66309
G1 X85.008 Y129.79 E3.57902
G1 X84.39 Y129.75 E3.5955
G1 X83.782 Y129.63 E3.61199
G1 X83.195 Y129.434 E3.62845
G1 X82.637 Y129.163 E3.64496
G1 X82.12 Y128.823 E3.66142
G1 X81.65 Y128.419 E3.67791
G1 X81.237 Y127.958 E3.69438
G1 X80.886 Y127.448 E3.71086
G1 X80.604 Y126.896 E3.72735
G1 X80.395 Y126.313 E3.74383
G1 X80.263 Y125.708 E3.76031
G1 X80.209 Y124.99 E3.77946
G1 X80.21 Y85.009 E4.84328
G1 X80.25 Y84.391 E4.85976
G1 X80.369 Y83.783 E4.87625
G1 X80.566 Y83.196 E4.89272
G1 X80.836 Y82.639 E4.90919
G1 X81.176 Y82.121 E4.92568
G1 X81.58 Y81.651 E4.94217
G0 F1542.9 X81.974 Y81.825
G1 F900 X82.429 Y81.445 E4.95794
G1 X82.932 Y81.131 E4.97372
G1 X83.472 Y80.886 E4.9895
G1 X84.041 Y80.717 E5.00529
G1 X84.627 Y80.626 E5.02107
G1 X85.012 Y80.609 E5.03133
G1 X120.301 Y80.627 E5.9703
G1 X120.877 Y80.665 E5.98566
G1 X121.609 Y80.762 E6.00531
G1 X122.19 Y80.879 E6.02108
G1 X122.485 Y80.971 E6.0293
G1 X123.733 Y81.408 E6.06448
G1 X124.278 Y81.641 E6.08025
G1 X124.699 Y81.886 E6.09321
G1 X125.548 Y82.445 E6.12026
G1 X126.151 Y82.923 E6.14074
G1 X126.718 Y83.459 E6.1615
G1 X127.173 Y83.961 E6.17952
G1 X127.651 Y84.578 E6.20029
G1 X128.036 Y85.167 E6.21901
G1 X128.411 Y85.855 E6.23986
G1 X128.659 Y86.394 E6.25565
G1 X128.759 Y86.686 E6.26386
G1 X129.139 Y87.941 E6.29875
G1 X129.272 Y88.519 E6.31453
G1 X129.322 Y88.982 E6.32693
G1 X129.394 Y90.334 E6.36295
G1 X129.4 Y90.572 E6.36929
G1 X129.373 Y120.303 E7.16037
G1 X129.336 Y120.87 E7.17549
G1 X129.242 Y121.588 E7.19476
G1 X129.125 Y122.17 E7.21055
G1 X129.034 Y122.466 E7.21879
G1 X128.594 Y123.728 E7.25436
G1 X128.361 Y124.273 E7.27013
G1 X128.12 Y124.689 E7.28292
G1 X127.578 Y125.517 E7.30925
G1 X127.199 Y126.015 E7.3259
G1 X126.823 Y126.442 E7.34104
G1 X126.38 Y126.879 E7.3576
G1 X125.795 Y127.379 E7.37808
G1 X125.242 Y127.781 E7.39627
G1 X124.574 Y128.192 E7.41714
G1 X123.949 Y128.511 E7.43581
G1 X123.221 Y128.812 E7.45677
G1 X122.569 Y129.024 E7.47501
G1 X121.812 Y129.206 E7.49573
G1 X121.017 Y129.322 E7.5171
G1 X119.666 Y129.394 E7.5531
G1 X119.431 Y129.4 E7.55936
G1 X85.008 Y129.39 E8.47529
G1 X84.416 Y129.35 E8.49108
G1 X83.835 Y129.231 E8.50686
G1 X83.276 Y129.034 E8.52263
G1 X82.748 Y128.764 E8.53841
G1 X82.261 Y128.426 E8.55418
G1 X81.824 Y128.025 E8.56996
G1 X81.444 Y127.57 E8.58573
G1 X81.13 Y127.067 E8.60151
G1 X80.886 Y126.526 E8.6173
G1 X80.717 Y125.958 E8.63307
G1 X80.626 Y125.372 E8.64885
G1 X80.609 Y124.99 E8.65903
G1 X80.61 Y85.009 E9.72284
G1 X80.65 Y84.417 E9.73863
G1 X80.769 Y83.836 E9.75441
G1 X80.965 Y83.277 E9.77017
G1 X81.235 Y82.749 E9.78595
G1 X81.573 Y82.262 E9.80173
G1 X81.974 Y81.825 E9.81751
G0 F1542.9 X81.969 Y82.41
G1 F900 X82.366 Y82.007 E9.83256
G1 X82.816 Y81.664 E9.84762
G1 X83.309 Y81.389 E9.86264
G1 X83.837 Y81.185 E9.8777
G1 X84.387 Y81.058 E9.89272
G1 X85.012 Y81.009 E9.9094
G1 X120.301 Y81.027 E10.84837
G1 X120.824 Y81.062 E10.86232
G1 X121.556 Y81.159 E10.88197
G1 X122.353 Y81.349 E10.90377
G1 X123.601 Y81.786 E10.93895
G1 X124.12 Y82.01 E10.95399
G1 X124.479 Y82.22 E10.96506
G1 X125.328 Y82.779 E10.99211
G1 X125.876 Y83.213 E11.01071
G1 X126.443 Y83.749 E11.03147
G1 X126.857 Y84.206 E11.04787
G1 X127.335 Y84.823 E11.06864
G1 X127.685 Y85.359 E11.08568
G1 X128.06 Y86.047 E11.10652
G1 X128.376 Y86.802 E11.1283
G1 X128.756 Y88.057 E11.16319
G1 X128.882 Y88.608 E11.17823
G1 X128.922 Y89.003 E11.1888
G1 X128.994 Y90.355 E11.22482
G1 X129 Y90.572 E11.2306
G1 X128.973 Y120.303 E12.02168
G1 X128.939 Y120.818 E12.03542
G1 X128.845 Y121.536 E12.05468
G1 X128.656 Y122.334 E12.0765
G1 X128.216 Y123.596 E12.11207
G1 X127.993 Y124.115 E12.1271
G1 X127.786 Y124.47 E12.13803
G1 X127.244 Y125.298 E12.16436
G1 X126.899 Y125.75 E12.17949
G1 X126.523 Y126.177 E12.19463
G1 X126.12 Y126.575 E12.2097
G1 X125.535 Y127.075 E12.23018
G1 X125.032 Y127.441 E12.24673
G1 X124.364 Y127.852 E12.2676
G1 X123.796 Y128.142 E12.28457
G1 X123.068 Y128.443 E12.30553
G1 X122.475 Y128.635 E12.32212
G1 X121.718 Y128.817 E12.34283
G1 X120.996 Y128.922 E12.36225
G1 X119.645 Y128.994 E12.39824
G1 X119.431 Y129 E12.40394
G1 X85.008 Y128.99 E13.31987
G1 X84.444 Y128.95 E13.33492
G1 X83.891 Y128.831 E13.34997
G1 X83.361 Y128.635 E13.365
G1 X82.864 Y128.366 E13.38004
G1 X82.409 Y128.03 E13.39509
G1 X82.007 Y127.633 E13.41012
G1 X81.664 Y127.183 E13.42518
G1 X81.388 Y126.69 E13.44021
G1 X81.185 Y126.162 E13.45526
G1 X81.058 Y125.611 E13.47031
G1 X81.009 Y124.99 E13.48688
G1 X81.01 Y85.009 E14.5507
G1 X81.05 Y84.445 E14.56575
G1 X81.169 Y83.892 E14.5808
G1 X81.365 Y83.362 E14.59583
G1 X81.633 Y82.865 E14.61086
G1 X81.969 Y82.41 E14.62591
G0 F1542.9 X82.365 Y82.567
G1 F900 X82.757 Y82.201 E14.64018
G1 X83.199 Y81.898 E14.65444
G1 X83.682 Y81.663 E14.66873
G1 X84.193 Y81.503 E14.68298
G1 X84.723 Y81.42 E14.69725
G1 X85.012 Y81.409 E14.70495
G1 X120.301 Y81.427 E15.64392
G1 X120.772 Y81.458 E15.65648
G1 X121.504 Y81.555 E15.67613
G1 X122.221 Y81.726 E15.69574
G1 X123.469 Y82.163 E15.73092
G1 X123.96 Y82.378 E15.74519
G1 X124.259 Y82.554 E15.75442
G1 X125.108 Y83.113 E15.78147
G1 X125.601 Y83.504 E15.79821
G1 X126.168 Y84.04 E15.81897
G1 X126.541 Y84.451 E15.83374
G1 X127.019 Y85.068 E15.8545
G1 X127.334 Y85.55 E15.86983
G1 X127.709 Y86.238 E15.89067
G1 X127.994 Y86.918 E15.91029
G1 X128.374 Y88.173 E15.94518
G1 X128.49 Y88.696 E15.95944
G1 X128.523 Y89.025 E15.96824
G1 X128.595 Y90.377 E16.00426
G1 X128.6 Y90.571 E16.00942
G1 X128.573 Y120.302 E16.80051
G1 X128.543 Y120.766 E16.81288
G1 X128.449 Y121.484 E16.83215
G1 X128.278 Y122.202 E16.85179
G1 X127.838 Y123.464 E16.88735
G1 X127.625 Y123.956 E16.90162
G1 X127.451 Y124.251 E16.91073
G1 X126.909 Y125.079 E16.93706
G1 X126.599 Y125.486 E16.95067
G1 X126.223 Y125.913 E16.96581
G1 X125.86 Y126.271 E16.97938
G1 X125.275 Y126.771 E16.99986
G1 X124.822 Y127.1 E17.01475
G1 X124.154 Y127.511 E17.03562
G1 X123.644 Y127.772 E17.05087
G1 X122.916 Y128.073 E17.07183
G1 X122.382 Y128.246 E17.08676
G1 X121.625 Y128.428 E17.10748
G1 X120.975 Y128.523 E17.12496
G1 X119.624 Y128.595 E17.16096
G1 X119.431 Y128.6 E17.16609
G1 X85.008 Y128.59 E18.08202
G1 X84.473 Y128.55 E18.0963
G1 X83.95 Y128.431 E18.11057
G1 X83.451 Y128.235 E18.12484
G1 X82.986 Y127.968 E18.1391
G1 X82.566 Y127.634 E18.15338
G1 X82.2 Y127.242 E18.16765
G1 X81.897 Y126.8 E18.18191
G1 X81.663 Y126.317 E18.19619
G1 X81.503 Y125.806 E18.21044
G1 X81.42 Y125.276 E18.22471
G1 X81.409 Y124.99 E18.23233
G1 X81.41 Y85.009 E19.29615
G1 X81.45 Y84.474 E19.31042
G1 X81.569 Y83.951 E19.32469
G1 X81.764 Y83.452 E19.33895
G1 X82.032 Y82.987 E19.35323
G1 X82.365 Y82.567 E19.36749
G0 F1542.9 X82.76 Y82.734
G1 F900 X83.146 Y82.408 E19.38094
G1 X83.579 Y82.147 E19.39439
G1 X84.047 Y81.957 E19.40783
G1 X84.54 Y81.844 E19.42129
G1 X85.012 Y81.809 E19.43388
G1 X120.301 Y81.827 E20.37285
G1 X120.719 Y81.855 E20.384
G1 X121.451 Y81.952 E20.40365
G1 X122.089 Y82.104 E20.4211
G1 X123.337 Y82.541 E20.45628
G1 X123.799 Y82.745 E20.46972
G1 X124.039 Y82.888 E20.47715
G1 X124.888 Y83.447 E20.5042
G1 X125.326 Y83.795 E20.51909
G1 X125.893 Y84.331 E20.53985
G1 X126.225 Y84.696 E20.55298
G1 X126.703 Y85.313 E20.57374
G1 X126.983 Y85.742 E20.58737
G1 X127.358 Y86.43 E20.60822
G1 X127.611 Y87.034 E20.62565
G1 X127.991 Y88.289 E20.66054
G1 X128.099 Y88.783 E20.67399
G1 X128.123 Y89.046 E20.68102
G1 X128.195 Y90.398 E20.71704
G1 X128.2 Y90.571 E20.72165
G1 X128.173 Y120.302 E21.51274
G1 X128.146 Y120.714 E21.52372
G1 X128.052 Y121.432 E21.54299
G1 X127.901 Y122.07 E21.56043
G1 X127.461 Y123.332 E21.596
G1 X127.257 Y123.795 E21.60946
G1 X127.116 Y124.032 E21.6168
G1 X126.574 Y124.86 E21.64313
G1 X126.299 Y125.222 E21.65522
G1 X125.923 Y125.649 E21.67036
G1 X125.6 Y125.967 E21.68242
G1 X125.015 Y126.467 E21.7029
G1 X124.613 Y126.759 E21.71612
G1 X123.945 Y127.17 E21.73699
G1 X123.491 Y127.402 E21.75056
G1 X122.763 Y127.703 E21.77152
G1 X122.288 Y127.857 E21.7848
G1 X121.531 Y128.039 E21.80552
G1 X120.953 Y128.123 E21.82106
G1 X119.602 Y128.195 E21.85706
G1 X119.431 Y128.2 E21.86161
G1 X85.008 Y128.19 E22.77754
G1 X84.504 Y128.15 E22.791
G1 X84.013 Y128.031 E22.80444
G1 X83.546 Y127.836 E22.8179
G1 X83.116 Y127.57 E22.83136
G1 X82.733 Y127.24 E22.84481
G1 X82.408 Y126.853 E22.85826
G1 X82.147 Y126.42 E22.87171
G1 X81.957 Y125.952 E22.88515
G1 X81.844 Y125.459 E22.89861
G1 X81.809 Y124.99 E22.91112
G1 X81.81 Y85.009 E23.97494
G1 X81.85 Y84.505 E23.98839
G1 X81.969 Y84.014 E24.00183
G1 X82.164 Y83.547 E24.0153
G1 X82.429 Y83.117 E24.02874
G1 X82.76 Y82.734 E24.04221
G1 F1200 E17.54221
G0 F1542.9 X85.614 Y84.335
G0 X85.614 Y85.614
G0 X88.816 Y86
;TYPE:WALL-INNER
G1 F1200 E24.04221
G1 F900 X88.188 Y86.106 E24.05916
G1 X87.577 Y86.35 E24.07666
G1 X87.514 Y86.395 E24.07872
G1 X86.959 Y86.79 E24.09685
G1 X86.466 Y87.379 E24.11729
G1 X86.387 Y87.546 E24.1222
G1 X86.138 Y88.074 E24.13773
G1 X86 Y88.806 E24.15755
G1 X86 Y88.074 E24.16085
G1 X86 Y87.49 E24.17142
G1 X86 Y86 E24.21107
G1 X87.499 Y86 E24.25096
G1 X87.577 Y86 E24.25291
G1 X88.188 Y86 E24.26204
G1 X88.816 Y86 E24.26421
G0 F1542.9 X87.206 Y87.057
G0 X86.773 Y87.575
G0 X86.484 Y88.186
G0 X86.385 Y88.721
G0 X86.501 Y105.431
G1 F900 X86.61 Y107.069 E24.30789
G1 X86.862 Y108.679 E24.35125
G1 X87.257 Y110.274 E24.39497
G1 X87.788 Y111.813 E24.43829
G1 X88.458 Y113.312 E24.48198
G1 X89.251 Y114.733 E24.52528
G1 X90.167 Y116.081 E24.56864
G1 X91.208 Y117.35 E24.61231
G1 X92.344 Y118.515 E24.65561
G1 X93.586 Y119.58 E24.69914
G1 X94.925 Y120.533 E24.74287
G1 X96.338 Y121.362 E24.78646
G1 X97.815 Y122.061 E24.82994
G1 X99.341 Y122.625 E24.87323
G1 X100.921 Y123.054 E24.91679
G1 X102.53 Y123.341 E24.96028
G1 X104.16 Y123.486 E25.00383
G1 X105.795 Y123.485 E25.04733
G1 X107.425 Y123.34 E25.09087
G1 X109.033 Y123.052 E25.13434
G1 X110.612 Y122.621 E25.17789
G1 X112.139 Y122.058 E25.22119
G1 X113.615 Y121.358 E25.26466
G1 X115.028 Y120.528 E25.30826
G1 X116.358 Y119.579 E25.35174
G1 X117.602 Y118.513 E25.39533
G1 X118.742 Y117.345 E25.43876
G1 X119.779 Y116.079 E25.4823
G1 X120.696 Y114.731 E25.52568
G1 X121.492 Y113.303 E25.56918
G1 X122.157 Y111.812 E25.61262
G1 X122.691 Y110.264 E25.65619
G1 X123.083 Y108.679 E25.69964
G1 X123.337 Y107.061 E25.74322
G1 X123.444 Y105.429 E25.78673
G1 X123.409 Y103.795 E25.83022
G1 X123.229 Y102.178 E25.87351
G1 X122.904 Y100.572 E25.91711
G1 X122.441 Y99.007 E25.96054
G1 X121.84 Y97.485 E26.00408
G1 X121.108 Y96.022 E26.04761
G1 X120.246 Y94.631 E26.09115
G1 X119.268 Y93.321 E26.13465
G1 X118.181 Y92.108 E26.17799
G1 X116.986 Y90.99 E26.22153
G1 X115.701 Y89.984 E26.26495
G1 X114.334 Y89.097 E26.30831
G1 X112.881 Y88.328 E26.35205
G1 X111.381 Y87.697 E26.39535
G1 X109.817 Y87.198 E26.43904
G1 X108.227 Y86.84 E26.4824
G1 X106.599 Y86.622 E26.52611
G1 X104.973 Y86.552 E26.56941
G1 X103.346 Y86.622 E26.61274
G1 X101.717 Y86.84 E26.65647
G1 X100.129 Y87.199 E26.69979
G1 X98.572 Y87.694 E26.74327
G1 X97.057 Y88.332 E26.78701
G1 X95.619 Y89.094 E26.83031
G1 X94.247 Y89.984 E26.87382
G1 X92.959 Y90.991 E26.91733
G1 X91.765 Y92.108 E26.96083
G1 X90.673 Y93.326 E27.00436
G1 X89.699 Y94.632 E27.04771
G1 X88.834 Y96.029 E27.09143
G1 X88.105 Y97.486 E27.13478
G1 X87.502 Y99.014 E27.17849
G1 X87.041 Y100.573 E27.22174
G1 X86.716 Y102.176 E27.26526
G1 X86.536 Y103.803 E27.30882
G1 X86.501 Y105.431 E27.35215
G0 F1542.9 X86 Y119.496
G1 F900 X86 Y90.491 E28.12392
G1 X86 Y90.322 E28.12841
G1 X86 Y89.594 E28.14778
G1 X86 Y88.883 E28.1667
G1 X86.051 Y89.594 E28.16794
G1 X86.298 Y90.322 E28.17731
G1 X86.391 Y90.463 E28.18125
G1 X86.722 Y90.964 E28.19723
G1 X87.293 Y91.477 E28.21766
G1 X87.974 Y91.828 E28.23804
G1 X88.724 Y91.997 E28.2585
G1 X89.494 Y91.968 E28.279
G1 X90.228 Y91.745 E28.29941
G1 X90.882 Y91.346 E28.3198
G1 X91.416 Y90.792 E28.34027
G1 X91.78 Y90.141 E28.36012
G1 X91.927 Y89.661 E28.37347
G1 X91.989 Y89.284 E28.38364
G1 X92.001 Y88.873 E28.39458
G1 X91.959 Y88.498 E28.40462
G1 X91.89 Y88.187 E28.4131
G1 X91.775 Y87.859 E28.42235
G1 X91.674 Y87.639 E28.42879
G1 X91.532 Y87.388 E28.43646
G1 X91.372 Y87.16 E28.44387
G1 X91.144 Y86.897 E28.45313
G1 X90.669 Y86.501 E28.46959
G1 X90.51 Y86.418 E28.47436
G1 X90.097 Y86.203 E28.48675
G1 X89.474 Y86.032 E28.50394
G1 X90.096 Y86.032 E28.50735
G1 X90.562 Y86.032 E28.51631
G1 X119.506 Y86.001 E29.28645
G1 X119.715 Y86.001 E29.29201
G1 X119.958 Y86 E29.29848
G1 X120.434 Y86.037 E29.31118
G1 X120.489 Y86.042 E29.31265
G1 X120.433 Y86.046 E29.31268
G1 X120.016 Y86.181 E29.31536
G1 X119.716 Y86.279 E29.32071
G1 X119.54 Y86.391 E29.32545
G1 X119.079 Y86.685 E29.34
G1 X118.566 Y87.234 E29.35999
G1 X118.202 Y87.896 E29.38009
G1 X118.016 Y88.626 E29.40014
G1 X118.016 Y89.381 E29.42023
G1 X118.205 Y90.11 E29.44027
G1 X118.568 Y90.77 E29.46031
G1 X119.085 Y91.319 E29.48037
G1 X119.72 Y91.723 E29.5004
G1 X120.44 Y91.955 E29.52053
G1 X121.193 Y92.001 E29.5406
G1 X121.932 Y91.859 E29.56062
G1 X122.615 Y91.538 E29.5807
G1 X123.194 Y91.057 E29.60073
G1 X123.604 Y90.493 E29.61929
G1 X123.638 Y90.447 E29.62081
G1 X123.825 Y89.97 E29.63444
G1 X123.912 Y89.748 E29.64079
G1 X123.952 Y89.438 E29.6491
G1 X123.976 Y89.743 E29.64969
G1 X124 Y90.039 E29.65283
G1 X124 Y90.447 E29.65993
G1 X124 Y90.505 E29.6614
G1 X124 Y119.495 E30.43277
G1 X124 Y119.55 E30.43423
G1 X124 Y119.961 E30.44517
G1 X123.977 Y120.259 E30.45312
G1 X123.952 Y120.562 E30.46121
G1 X123.912 Y120.254 E30.462
G1 X123.825 Y120.031 E30.46359
G1 X123.636 Y119.55 E30.47358
G1 X123.604 Y119.506 E30.47496
G1 X123.193 Y118.941 E30.49355
G1 X122.611 Y118.459 E30.51366
G1 X121.926 Y118.14 E30.53377
G1 X121.191 Y117.999 E30.55368
G1 X120.435 Y118.045 E30.57383
G1 X119.718 Y118.278 E30.59389
G1 X119.081 Y118.685 E30.61401
G1 X118.569 Y119.23 E30.6339
G1 X118.203 Y119.896 E30.65412
G1 X118.016 Y120.622 E30.67407
G1 X118.015 Y121.375 E30.69411
G1 X118.205 Y122.108 E30.71426
G1 X118.568 Y122.77 E30.73435
G1 X119.085 Y123.319 E30.75441
G1 X119.543 Y123.61 E30.76885
G1 X119.721 Y123.723 E30.77446
G1 X120.016 Y123.818 E30.78271
G1 X120.439 Y123.955 E30.79454
