;FLAVOR:Marlin
;TIME:3831
;Filament used: 4.452m, 0m
;Layer height: 0.2
;POSTPROCESSED
;Generated with Cura_SteamEngine 3.4.1
T0
M190 S75
M104 S240
M109 S240
M82 ;absolute extrusion mode
; Printer start settings begin
M92 X160 Y160 Z1600; Steps per unit
M201 X1000 Y1000 Z50 E1500 E1500 ; Max Accelleration
M203 X800 Y800 Z2 E90 E90 ; Max Feed
M205 X3.0 Y3.0 Z0.3 E5.0 ; Default Jerk
G28
G0 X0 Y0 Z15 F1200
G92 E-35
G1 E0 F200 ;Home
G92 E5
G1 F1000 E0
G29 ;Auto Bed Level
G92 F400 E-5
G1 E0
G0 X0 Y0 Z15.0 F6000 ;Move the platform down 15mm
G92 E0
G1 F200 E3
G92 E0
G92 E0
G1 F1200 E-6.5
;LAYER_COUNT:76
;LAYER:0
M107
G0 F1542.9 X69.509 Y71.881 Z0.16
;TYPE:SKIRT
G1 F1200 E0
G1 F900 X69.974 Y71.472 E0.01648
G1 X70.487 Y71.126 E0.03294
G1 X71.042 Y70.849 E0.04945
G1 X71.627 Y70.646 E0.06592
G1 X72.233 Y70.52 E0.08239
G1 X72.848 Y70.473 E0.0988
G1 X80.855 Y70.378 E0.31187
G1 X86.218 Y69.996 E0.45493
G1 X91.555 Y69.311 E0.5981
G1 X96.868 Y68.32 E0.74191
G1 X99.444 Y67.726 E0.81225
G1 X104.654 Y66.289 E0.95606
G1 X109.814 Y64.546 E1.10098
G1 X112.207 Y63.624 E1.16921
G1 X118.041 Y61.06 E1.33877
G1 X118.591 Y60.857 E1.35437
G1 X119.02 Y60.728 E1.36629
G1 X119.623 Y60.589 E1.38276
G1 X120.356 Y60.525 E1.40234
G1 X126.841 Y60.463 E1.5749
G1 X127.123 Y60.469 E1.5824
G1 X128.324 Y60.528 E1.6144
G1 X128.939 Y60.598 E1.63087
G1 X129.652 Y60.784 E1.65047
G1 X130.238 Y60.986 E1.66697
G1 X130.81 Y61.225 E1.68346
G1 X131.426 Y61.591 E1.70253
G1 X132.109 Y62.069 E1.72471
G1 X132.593 Y62.457 E1.74121
G1 X133.049 Y62.934 E1.75877
G1 X133.354 Y63.301 E1.77147
G1 X133.718 Y63.802 E1.78795
G1 X133.922 Y64.157 E1.79884
G1 X134.178 Y64.65 E1.81362
G1 X134.427 Y65.217 E1.8301
G1 X134.559 Y65.636 E1.84179
G1 X134.698 Y66.162 E1.85627
G1 X134.817 Y66.769 E1.87272
G1 X134.857 Y67.387 E1.8892
G1 X134.867 Y108.001 E2.96986
G1 X134.827 Y108.619 E2.98634
G1 X134.685 Y109.312 E3.00517
G1 X134.438 Y110.183 E3.02925
G1 X134.231 Y110.766 E3.04572
G1 X133.95 Y111.318 E3.0622
G1 X133.74 Y111.643 E3.07249
G1 X133.282 Y112.291 E3.09361
G1 X132.892 Y112.773 E3.1101
G1 X132.444 Y113.201 E3.12659
G1 X132.047 Y113.5 E3.13982
G1 X131.254 Y114.035 E3.16527
G1 X130.719 Y114.348 E3.18176
G1 X130.097 Y114.606 E3.19968
G1 X127.967 Y115.321 E3.25946
G1 X122.885 Y117.249 E3.40409
G1 X117.964 Y119.442 E3.54744
G1 X113.192 Y121.899 E3.69026
G1 X108.549 Y124.634 E3.83364
G1 X104.053 Y127.636 E3.97748
G1 X99.771 Y130.859 E4.12009
G1 X95.629 Y134.362 E4.26443
G1 X94.303 Y135.583 E4.31239
G1 X94.235 Y135.644 E4.31482
G1 X92.832 Y136.887 E4.3647
G1 X92.343 Y137.267 E4.38117
G1 X91.751 Y137.609 E4.39937
G1 X91.057 Y137.947 E4.41991
G1 X90.598 Y138.142 E4.43318
G1 X88.009 Y139.085 E4.50649
G1 X87.414 Y139.259 E4.52299
G1 X87.089 Y139.32 E4.53178
G1 X86.105 Y139.47 E4.55827
G1 X85.488 Y139.524 E4.57475
G1 X84.654 Y139.47 E4.59699
G1 X84.139 Y139.391 E4.61085
G1 X83.534 Y139.257 E4.62734
G1 X83.177 Y139.139 E4.63734
G1 X82.68 Y138.952 E4.65147
G1 X82.115 Y138.696 E4.66798
G1 X81.669 Y138.427 E4.68184
G1 X81.027 Y137.99 E4.7025
G1 X80.643 Y137.699 E4.71532
G1 X78.507 Y135.907 E4.78951
G1 X78.059 Y135.479 E4.80599
G1 X77.805 Y135.18 E4.81643
G1 X77.206 Y134.411 E4.84237
G1 X76.858 Y133.898 E4.85886
G1 X76.546 Y133.267 E4.87759
G1 X73.698 Y126.255 E5.07897
G1 X71.356 Y121.41 E5.22216
G1 X68.729 Y116.68 E5.36612
G1 X65.873 Y112.066 E5.51051
G1 X65.581 Y111.52 E5.52698
G1 X65.363 Y110.94 E5.54347
G1 X65.221 Y110.337 E5.55996
G1 X65.154 Y109.583 E5.5801
G1 X65.1 Y103.513 E5.74161
G1 X65.112 Y103.127 E5.75189
G1 X65.365 Y99.594 E5.84614
G1 X65.595 Y94.151 E5.99109
G1 X65.519 Y88.749 E6.13485
G1 X65.122 Y83.099 E6.28555
G1 X65.11 Y82.763 E6.2945
G1 X65.11 Y78.272 E6.414
G1 X65.15 Y77.654 E6.43047
G1 X65.269 Y77.046 E6.44696
G1 X65.466 Y76.459 E6.46343
G1 X65.736 Y75.902 E6.4799
G1 X66.076 Y75.384 E6.49639
G1 X66.514 Y74.88 E6.51416
G1 X69.509 Y71.881 E6.62693
G0 F1542.9 X69.792 Y72.164
G1 F900 X70.238 Y71.773 E6.64271
G1 X70.733 Y71.447 E6.65849
G1 X71.267 Y71.189 E6.67427
G1 X71.831 Y71.006 E6.69004
G1 X72.414 Y70.9 E6.70581
G1 X72.853 Y70.873 E6.71751
G1 X80.871 Y70.778 E6.93087
G1 X86.263 Y70.393 E7.07471
G1 X91.608 Y69.707 E7.21809
G1 X96.961 Y68.71 E7.36298
G1 X99.521 Y68.119 E7.43289
G1 X104.783 Y66.668 E7.57812
G1 X109.945 Y64.924 E7.7231
G1 X112.36 Y63.994 E7.79196
G1 X118.202 Y61.426 E7.96176
G1 X118.706 Y61.24 E7.97605
G1 X119.135 Y61.111 E7.98797
G1 X119.713 Y60.979 E8.00375
G1 X120.36 Y60.925 E8.02102
G1 X126.845 Y60.863 E8.19359
G1 X127.103 Y60.868 E8.20045
G1 X128.304 Y60.927 E8.23245
G1 X128.893 Y60.996 E8.24823
G1 X129.522 Y61.162 E8.26554
G1 X130.108 Y61.364 E8.28203
G1 X130.654 Y61.595 E8.2978
G1 X131.197 Y61.919 E8.31463
G1 X131.88 Y62.397 E8.33681
G1 X132.342 Y62.769 E8.35259
G1 X132.741 Y63.19 E8.36803
G1 X133.046 Y63.557 E8.38072
G1 X133.393 Y64.037 E8.39648
G1 X133.567 Y64.341 E8.4058
G1 X133.823 Y64.834 E8.42058
G1 X134.06 Y65.378 E8.43637
G1 X134.172 Y65.738 E8.44641
G1 X134.311 Y66.264 E8.46088
G1 X134.423 Y66.846 E8.47665
G1 X134.457 Y67.387 E8.49107
G1 X134.467 Y108.001 E9.57174
G1 X134.427 Y108.593 E9.58752
G1 X134.3 Y109.202 E9.60408
G1 X134.053 Y110.073 E9.62817
G1 X133.853 Y110.632 E9.64396
G1 X133.58 Y111.158 E9.65973
G1 X133.413 Y111.413 E9.66784
G1 X132.955 Y112.061 E9.68896
G1 X132.581 Y112.521 E9.70473
G1 X132.148 Y112.926 E9.72051
G1 X131.823 Y113.169 E9.73131
G1 X131.03 Y113.704 E9.75676
G1 X130.517 Y114.001 E9.77253
G1 X129.969 Y114.227 E9.7883
G1 X127.832 Y114.945 E9.84829
G1 X122.738 Y116.877 E9.99325
G1 X117.797 Y119.079 E10.13719
G1 X112.985 Y121.556 E10.28119
G1 X108.337 Y124.294 E10.42473
G1 X103.836 Y127.3 E10.56875
G1 X99.509 Y130.557 E10.71285
G1 X95.356 Y134.069 E10.85757
G1 X94.032 Y135.288 E10.90546
G1 X93.97 Y135.344 E10.90768
G1 X92.567 Y136.587 E10.95755
G1 X92.097 Y136.95 E10.97336
G1 X91.576 Y137.25 E10.98935
G1 X90.882 Y137.588 E11.00989
G1 X90.461 Y137.766 E11.02205
G1 X87.872 Y138.709 E11.09537
G1 X87.029 Y138.925 E11.11853
G1 X86.045 Y139.075 E11.14501
G1 X85.454 Y139.124 E11.16079
G1 X84.715 Y139.074 E11.1805
G1 X84.2 Y138.995 E11.19436
G1 X83.621 Y138.866 E11.21014
G1 X83.318 Y138.764 E11.21865
G1 X82.821 Y138.577 E11.23278
G1 X82.281 Y138.331 E11.24857
G1 X81.894 Y138.096 E11.26062
G1 X81.252 Y137.659 E11.28128
G1 X80.9 Y137.393 E11.29302
G1 X78.764 Y135.601 E11.36721
G1 X78.336 Y135.19 E11.383
G1 X78.121 Y134.934 E11.39189
G1 X77.522 Y134.165 E11.41783
G1 X77.19 Y133.674 E11.4336
G1 X76.916 Y133.117 E11.45012
G1 X74.06 Y126.084 E11.65209
G1 X71.709 Y121.22 E11.79584
G1 X69.08 Y116.487 E11.9399
G1 X66.213 Y111.856 E12.08482
G1 X65.935 Y111.332 E12.10061
G1 X65.731 Y110.775 E12.11639
G1 X65.603 Y110.196 E12.13217
G1 X65.554 Y109.579 E12.14864
G1 X65.5 Y103.509 E12.31016
G1 X65.511 Y103.156 E12.31955
G1 X65.765 Y99.606 E12.41425
G1 X65.995 Y94.162 E12.55924
G1 X65.919 Y88.733 E12.70371
G1 X65.521 Y83.071 E12.85473
G1 X65.51 Y82.763 E12.86293
G1 X65.51 Y78.272 E12.98243
G1 X65.55 Y77.68 E12.99822
G1 X65.669 Y77.1 E13.01397
G1 X65.865 Y76.54 E13.02976
G1 X66.135 Y76.012 E13.04554
G1 X66.473 Y75.525 E13.06131
G1 X66.797 Y75.163 E13.07424
G1 X69.792 Y72.164 E13.18702
G0 F1542.9 X70.075 Y72.446
G1 F900 X70.501 Y72.076 E13.20203
G1 X70.976 Y71.769 E13.21708
G1 X71.489 Y71.532 E13.23211
G1 X72.031 Y71.37 E13.24717
G1 X72.857 Y71.273 E13.2693
G1 X80.888 Y71.177 E13.483
G1 X86.306 Y70.791 E13.62753
G1 X91.678 Y70.102 E13.77164
G1 X97.01 Y69.108 E13.91596
G1 X99.642 Y68.501 E13.98783
G1 X104.896 Y67.052 E14.13285
G1 X110.069 Y65.304 E14.27814
G1 X112.519 Y64.361 E14.34799
G1 X118.363 Y61.792 E14.51785
G1 X118.821 Y61.623 E14.53084
G1 X119.25 Y61.494 E14.54276
G1 X119.802 Y61.37 E14.55781
G1 X120.364 Y61.325 E14.57281
G1 X126.849 Y61.263 E14.74537
G1 X127.083 Y61.268 E14.7516
G1 X128.284 Y61.327 E14.7836
G1 X128.846 Y61.394 E14.79866
G1 X129.392 Y61.54 E14.81369
G1 X129.978 Y61.742 E14.83019
G1 X130.498 Y61.964 E14.84523
G1 X130.968 Y62.247 E14.85983
G1 X131.651 Y62.725 E14.88201
G1 X132.09 Y63.081 E14.89705
G1 X132.433 Y63.445 E14.91036
G1 X132.738 Y63.812 E14.92305
G1 X133.068 Y64.272 E14.93812
G1 X133.212 Y64.526 E14.94589
G1 X133.468 Y65.019 E14.96067
G1 X133.692 Y65.538 E14.97571
G1 X133.785 Y65.84 E14.98412
G1 X133.924 Y66.366 E14.99859
G1 X134.03 Y66.921 E15.01363
G1 X134.057 Y67.387 E15.02605
G1 X134.067 Y108.001 E16.10671
G1 X134.027 Y108.565 E16.12175
G1 X133.915 Y109.093 E16.13612
G1 X133.668 Y109.964 E16.16021
G1 X133.476 Y110.496 E16.17525
G1 X133.086 Y111.182 E16.19625
G1 X132.628 Y111.83 E16.21737
G1 X132.27 Y112.267 E16.2324
G1 X131.854 Y112.65 E16.24744
G1 X131.599 Y112.837 E16.25586
G1 X130.806 Y113.372 E16.28131
G1 X130.316 Y113.654 E16.29635
G1 X129.842 Y113.848 E16.30998
G1 X127.697 Y114.568 E16.37018
G1 X122.585 Y116.507 E16.51566
G1 X117.615 Y118.722 E16.66044
G1 X112.791 Y121.206 E16.80482
G1 X108.117 Y123.96 E16.94917
G1 X103.607 Y126.971 E17.09346
G1 X99.264 Y130.24 E17.23809
G1 X95.099 Y133.763 E17.38324
G1 X93.761 Y134.994 E17.43162
G1 X93.705 Y135.045 E17.43364
G1 X92.302 Y136.288 E17.48351
G1 X91.853 Y136.632 E17.49856
G1 X91.4 Y136.89 E17.51243
G1 X90.706 Y137.228 E17.53297
G1 X90.324 Y137.39 E17.54401
G1 X87.735 Y138.333 E17.61733
G1 X86.969 Y138.529 E17.63837
G1 X85.985 Y138.679 E17.66485
G1 X85.421 Y138.725 E17.67991
G1 X84.776 Y138.679 E17.69711
G1 X84.261 Y138.6 E17.71098
G1 X83.458 Y138.39 E17.73306
G1 X82.961 Y138.203 E17.74719
G1 X82.448 Y137.967 E17.76222
G1 X82.119 Y137.766 E17.77248
G1 X81.477 Y137.329 E17.79314
G1 X81.157 Y137.086 E17.80383
G1 X79.021 Y135.294 E17.87802
G1 X78.436 Y134.688 E17.90043
G1 X77.837 Y133.919 E17.92637
G1 X77.522 Y133.45 E17.9414
G1 X77.287 Y132.966 E17.95572
G1 X74.425 Y125.918 E18.15812
G1 X72.072 Y121.051 E18.30196
G1 X69.421 Y116.278 E18.44724
G1 X66.553 Y111.645 E18.59222
G1 X66.29 Y111.145 E18.60725
G1 X66.1 Y110.612 E18.62231
G1 X65.988 Y110.058 E18.63735
G1 X65.954 Y109.576 E18.65021
G1 X65.9 Y103.506 E18.81172
G1 X65.91 Y103.184 E18.8203
G1 X66.165 Y99.616 E18.91548
G1 X66.396 Y94.174 E19.06041
G1 X66.318 Y88.717 E19.20562
G1 X65.92 Y83.043 E19.35697
G1 X65.91 Y82.763 E19.36442
G1 X65.91 Y78.272 E19.48392
G1 X65.95 Y77.708 E19.49897
G1 X66.069 Y77.155 E19.51402
G1 X66.265 Y76.625 E19.52905
G1 X66.533 Y76.128 E19.54408
G1 X66.869 Y75.673 E19.55913
G1 X67.08 Y75.445 E19.56739
G1 X70.075 Y72.446 E19.68017
G0 F1542.9 X70.358 Y72.729
G1 F900 X70.764 Y72.379 E19.69443
G1 X71.218 Y72.093 E19.70871
G1 X71.709 Y71.878 E19.72297
G1 X72.226 Y71.738 E19.73722
G1 X72.862 Y71.673 E19.75423
G1 X80.904 Y71.577 E19.96823
G1 X86.333 Y71.19 E20.11305
G1 X91.748 Y70.495 E20.25832
G1 X97.104 Y69.497 E20.40328
G1 X99.748 Y68.887 E20.47548
G1 X105.004 Y67.438 E20.62055
G1 X110.221 Y65.675 E20.76708
G1 X112.654 Y64.738 E20.83645
G1 X118.524 Y62.158 E21.00706
G1 X118.936 Y62.006 E21.01875
G1 X119.365 Y61.877 E21.03067
G1 X119.889 Y61.762 E21.04494
G1 X120.368 Y61.725 E21.05773
G1 X126.853 Y61.663 E21.23029
G1 X127.064 Y61.667 E21.2359
G1 X128.265 Y61.726 E21.2679
G1 X128.797 Y61.792 E21.28216
G1 X129.261 Y61.919 E21.29496
G1 X129.847 Y62.121 E21.31145
G1 X130.34 Y62.333 E21.32573
G1 X130.738 Y62.575 E21.33813
G1 X131.421 Y63.053 E21.36031
G1 X131.836 Y63.392 E21.37457
G1 X132.126 Y63.701 E21.38584
G1 X132.431 Y64.068 E21.39854
G1 X132.857 Y64.71 E21.41904
G1 X133.113 Y65.203 E21.43382
G1 X133.399 Y65.942 E21.45491
G1 X133.538 Y66.468 E21.46938
G1 X133.636 Y66.995 E21.48365
G1 X133.657 Y67.387 E21.49409
G1 X133.667 Y108.001 E22.57475
G1 X133.627 Y108.536 E22.58903
G1 X133.53 Y108.984 E22.60122
G1 X133.283 Y109.855 E22.62531
G1 X133.099 Y110.359 E22.63959
G1 X132.76 Y110.951 E22.65774
G1 X132.302 Y111.599 E22.67886
G1 X131.961 Y112.013 E22.69313
G1 X131.375 Y112.505 E22.71349
G1 X130.582 Y113.04 E22.73894
G1 X130.117 Y113.306 E22.75319
G1 X129.715 Y113.469 E22.76474
G1 X127.555 Y114.194 E22.82536
G1 X122.429 Y116.138 E22.97123
G1 X117.456 Y118.355 E23.11611
G1 X112.598 Y120.856 E23.2615
G1 X107.905 Y123.621 E23.40643
G1 X103.367 Y126.651 E23.55162
G1 X99.021 Y129.922 E23.69635
G1 X94.828 Y133.469 E23.84248
G1 X93.49 Y134.7 E23.89086
G1 X93.439 Y134.746 E23.89269
G1 X92.036 Y135.989 E23.94256
G1 X91.61 Y136.313 E23.9568
G1 X91.225 Y136.531 E23.96858
G1 X90.531 Y136.869 E23.98912
G1 X90.187 Y137.015 E23.99906
G1 X87.598 Y137.958 E24.07237
G1 X86.909 Y138.134 E24.0913
G1 X85.925 Y138.284 E24.11778
G1 X85.39 Y138.325 E24.13206
G1 X84.836 Y138.283 E24.14684
G1 X84.321 Y138.204 E24.16071
G1 X83.599 Y138.015 E24.18056
G1 X83.102 Y137.828 E24.19469
G1 X82.616 Y137.603 E24.20894
G1 X82.344 Y137.435 E24.21745
G1 X81.702 Y136.998 E24.23811
G1 X81.414 Y136.78 E24.24772
G1 X79.278 Y134.988 E24.32191
G1 X78.752 Y134.442 E24.34208
G1 X78.153 Y133.673 E24.36802
G1 X77.856 Y133.227 E24.38228
G1 X77.658 Y132.816 E24.39442
G1 X74.793 Y125.761 E24.59703
G1 X72.425 Y120.862 E24.74181
G1 X69.772 Y116.086 E24.88718
G1 X66.893 Y111.435 E25.03272
G1 X66.645 Y110.959 E25.04701
G1 X66.471 Y110.452 E25.06127
G1 X66.375 Y109.924 E25.07555
G1 X66.354 Y109.572 E25.08493
G1 X66.3 Y103.502 E25.24645
G1 X66.309 Y103.213 E25.25414
G1 X66.563 Y99.662 E25.34887
G1 X66.796 Y94.167 E25.49521
G1 X66.718 Y88.701 E25.64067
G1 X66.319 Y83.015 E25.79233
G1 X66.31 Y82.763 E25.79904
G1 X66.31 Y78.272 E25.91854
G1 X66.35 Y77.737 E25.93281
G1 X66.469 Y77.214 E25.94709
G1 X66.664 Y76.715 E25.96134
G1 X66.932 Y76.25 E25.97562
G1 X67.363 Y75.728 E25.99363
G1 X70.358 Y72.729 E26.10641
G0 F1542.9 X70.641 Y73.012
G1 F900 X71.025 Y72.683 E26.11986
G1 X71.456 Y72.42 E26.1333
G1 X71.924 Y72.227 E26.14677
G1 X72.416 Y72.111 E26.16022
G1 X72.867 Y72.073 E26.17226
G1 X80.921 Y71.977 E26.38658
G1 X86.377 Y71.588 E26.53212
G1 X91.804 Y70.892 E26.67771
G1 X97.194 Y69.887 E26.82359
G1 X99.825 Y69.28 E26.89544
G1 X105.133 Y67.816 E27.04195
G1 X110.353 Y66.053 E27.18855
G1 X112.825 Y65.101 E27.25904
G1 X118.685 Y62.525 E27.42936
G1 X119.052 Y62.39 E27.43976
G1 X119.481 Y62.261 E27.45168
G1 X119.975 Y62.154 E27.46513
G1 X120.371 Y62.125 E27.4757
G1 X126.856 Y62.063 E27.64826
G1 X127.044 Y62.067 E27.65326
G1 X128.245 Y62.126 E27.68526
G1 X128.746 Y62.19 E27.6987
G1 X129.131 Y62.297 E27.70933
G1 X129.717 Y62.499 E27.72582
G1 X130.18 Y62.701 E27.73926
G1 X130.509 Y62.902 E27.74952
G1 X131.192 Y63.38 E27.7717
G1 X131.582 Y63.702 E27.78516
G1 X131.818 Y63.957 E27.79441
G1 X132.123 Y64.324 E27.8071
G1 X132.502 Y64.894 E27.82532
G1 X132.758 Y65.387 E27.8401
G1 X133.012 Y66.044 E27.85884
G1 X133.151 Y66.57 E27.87332
G1 X133.241 Y67.068 E27.88678
G1 X133.257 Y67.387 E27.89528
G1 X133.267 Y108.001 E28.97594
G1 X133.227 Y108.505 E28.98939
G1 X133.146 Y108.875 E28.99947
G1 X132.899 Y109.746 E29.02356
G1 X132.723 Y110.22 E29.03702
G1 X132.433 Y110.72 E29.0524
G1 X131.975 Y111.368 E29.07351
G1 X131.652 Y111.756 E29.08694
G1 X131.152 Y112.174 E29.10428
G1 X130.359 Y112.709 E29.12974
G1 X129.919 Y112.958 E29.14319
G1 X129.587 Y113.09 E29.1527
G1 X127.42 Y113.818 E29.21352
G1 X122.281 Y115.766 E29.35976
G1 X117.274 Y117.998 E29.50562
G1 X112.404 Y120.506 E29.65138
G1 X107.693 Y123.281 E29.79686
G1 X103.141 Y126.321 E29.9425
G1 X98.756 Y129.621 E30.08853
G1 X94.568 Y133.163 E30.23447
G1 X93.219 Y134.405 E30.28326
G1 X93.174 Y134.446 E30.28488
G1 X91.771 Y135.689 E30.33476
G1 X91.367 Y135.994 E30.34823
G1 X91.05 Y136.171 E30.35789
G1 X90.356 Y136.509 E30.37843
G1 X90.05 Y136.639 E30.38728
G1 X87.461 Y137.582 E30.46059
G1 X86.848 Y137.738 E30.47742
G1 X85.864 Y137.888 E30.50391
G1 X85.36 Y137.925 E30.51735
G1 X84.897 Y137.888 E30.52971
G1 X84.382 Y137.809 E30.54358
G1 X83.74 Y137.641 E30.56123
G1 X83.243 Y137.454 E30.57536
G1 X82.785 Y137.239 E30.58882
G1 X82.569 Y137.104 E30.5956
G1 X81.927 Y136.667 E30.61627
G1 X81.671 Y136.474 E30.6248
G1 X79.535 Y134.682 E30.69898
G1 X79.067 Y134.196 E30.71694
G1 X78.468 Y133.427 E30.74287
G1 X78.19 Y133.005 E30.75632
G1 X78.028 Y132.665 E30.76634
G1 X75.154 Y125.589 E30.96956
G1 X72.781 Y120.679 E31.11466
G1 X70.117 Y115.883 E31.26064
G1 X67.233 Y111.224 E31.40643
G1 X67.002 Y110.775 E31.41987
G1 X66.844 Y110.294 E31.43334
G1 X66.754 Y109.568 E31.45281
G1 X66.7 Y103.498 E31.61432
G1 X66.708 Y103.242 E31.62114
