;FLAVOR:Marlin
;TIME:5007
;Filament used: 6.17167m, 0m
;Layer height: 0.2
;POSTPROCESSED
;Generated with Cura_SteamEngine 3.4.1
T0
M190 S65
M104 S198
M109 S198
M82 ;absolute extrusion mode
; Printer start settings begin
; CALIBRATION M92 X160 Y160 Z1600; Steps per unit
M201 X1000 Y1000 Z50 E1500 E1500 ; Max Accelleration
; FEED LINITING M203 X800 Y800 Z2 E90 E90 ; Max Feed
M205 X3.0 Y3.0 Z0.3 E5.0 ; Default Jerk
G28 ;Home
G0 X32 Y0
G92 X0 E5
G1 F1000 E0
;G29 ;Auto Bed Level
G29 X3 Y3 L0 R109 F32 B168
G92 E-5
G1 E0 F400
G0 Z15.0 F100 ;Move the platform down 15mm
G0 X0 Y0 F9000 ;Move to front
G1 F200 E3
G92 E0
G92 E0
G1 F1200 E-5
;LAYER_COUNT:111
;LAYER:0
M107
G0 F1542.9 X34.061 Y84.767 Z0.16
;TYPE:SKIRT
G1 F1200 E0
G1 F900 X34.646 Y84.565 E0.01729
G1 X35.424 Y84.418 E0.03941
G1 X40.468 Y83.896 E0.18109
G1 X45.825 Y83.16 E0.33216
G1 X51.13 Y82.122 E0.48318
G1 X56.365 Y80.788 E0.63412
G1 X61.526 Y79.214 E0.78486
G1 X62.129 Y79.072 E0.80217
G1 X62.933 Y79.005 E0.82471
G1 X66.78 Y79.011 E0.93219
G1 X67.401 Y79.052 E0.94958
G1 X68.696 Y79.223 E0.98607
G1 X69.304 Y79.344 E1.00339
G1 X69.947 Y79.565 E1.02239
G1 X71.256 Y80.122 E1.06213
G1 X71.809 Y80.401 E1.07944
G1 X72.309 Y80.739 E1.0963
G1 X73.364 Y81.553 E1.13353
G1 X73.829 Y81.962 E1.15083
G1 X74.232 Y82.42 E1.16787
G1 X74.996 Y83.41 E1.20281
G1 X75.342 Y83.924 E1.22012
G1 X75.627 Y84.497 E1.238
G1 X76.195 Y85.86 E1.27926
G1 X76.396 Y86.445 E1.29654
G1 X76.536 Y87.187 E1.31763
G1 X76.712 Y88.806 E1.36313
G1 X76.74 Y89.329 E1.37777
G1 X76.712 Y121.186 E2.2678
G1 X76.667 Y121.838 E2.28606
G1 X76.508 Y122.99 E2.31855
G1 X76.384 Y123.597 E2.33586
G1 X76.194 Y124.156 E2.35236
G1 X75.679 Y125.411 E2.39026
G1 X75.407 Y125.968 E2.40758
G1 X75.049 Y126.507 E2.42565
G1 X74.233 Y127.573 E2.46316
G1 X73.826 Y128.039 E2.48045
G1 X73.34 Y128.467 E2.49854
G1 X72.24 Y129.309 E2.53724
G1 X71.724 Y129.652 E2.55455
G1 X71.172 Y129.926 E2.57177
G1 X69.951 Y130.436 E2.60874
G1 X69.365 Y130.638 E2.62606
G1 X68.67 Y130.773 E2.64584
G1 X67.07 Y130.964 E2.69085
G1 X66.491 Y130.998 E2.70706
G1 X62.767 Y130.99 E2.8111
G1 X62.149 Y130.949 E2.82841
G1 X61.359 Y130.776 E2.851
G1 X55.489 Y128.961 E3.02266
G1 X50.23 Y127.669 E3.17396
G1 X47.678 Y127.159 E3.24667
G1 X42.309 Y126.316 E3.39851
G1 X35.466 Y125.595 E3.59075
G1 X34.856 Y125.49 E3.60804
G1 X34.154 Y125.264 E3.62865
G1 X32.94 Y124.768 E3.66528
G1 X32.383 Y124.498 E3.68258
G1 X31.845 Y124.142 E3.7006
G1 X30.822 Y123.362 E3.73654
G1 X30.354 Y122.956 E3.75385
G1 X29.939 Y122.486 E3.77137
G1 X29.142 Y121.458 E3.80771
G1 X28.794 Y120.945 E3.82503
G1 X28.51 Y120.376 E3.8428
G1 X28.005 Y119.174 E3.87922
G1 X27.802 Y118.589 E3.89652
G1 X27.665 Y117.894 E3.91631
G1 X27.478 Y116.354 E3.95966
G1 X27.443 Y115.773 E3.97592
G1 X27.453 Y93.964 E4.58523
G1 X27.494 Y93.338 E4.60276
G1 X27.657 Y92.103 E4.63756
G1 X27.778 Y91.495 E4.65488
G1 X27.972 Y90.916 E4.67194
G1 X28.461 Y89.719 E4.70806
G1 X28.732 Y89.162 E4.72537
G1 X29.085 Y88.627 E4.74328
G1 X29.884 Y87.577 E4.78014
G1 X30.29 Y87.11 E4.79743
G1 X30.765 Y86.689 E4.81516
G1 X31.785 Y85.899 E4.85121
G1 X32.298 Y85.552 E4.86851
G1 X32.867 Y85.268 E4.88628
G1 X34.061 Y84.767 E4.92245
G0 F1542.9 X34.216 Y85.136
G1 F900 X34.777 Y84.944 E4.93902
G1 X35.465 Y84.816 E4.95857
G1 X40.507 Y84.294 E5.10019
G1 X45.903 Y83.553 E5.25236
G1 X51.2 Y82.516 E5.40316
G1 X56.474 Y81.172 E5.55522
G1 X61.643 Y79.596 E5.7062
G1 X62.22 Y79.462 E5.72275
G1 X62.933 Y79.405 E5.74273
G1 X66.78 Y79.411 E5.85021
G1 X67.349 Y79.449 E5.86614
G1 X68.644 Y79.62 E5.90264
G1 X69.225 Y79.737 E5.91919
G1 X69.791 Y79.933 E5.93593
G1 X71.1 Y80.49 E5.97567
G1 X71.629 Y80.759 E5.99225
G1 X72.065 Y81.055 E6.00698
G1 X73.12 Y81.869 E6.04421
G1 X73.564 Y82.262 E6.06077
G1 X73.915 Y82.665 E6.0757
G1 X74.679 Y83.655 E6.11064
G1 X75.009 Y84.148 E6.12721
G1 X75.257 Y84.65 E6.14286
G1 X75.825 Y86.013 E6.18411
G1 X76.016 Y86.575 E6.2007
G1 X76.138 Y87.23 E6.21931
G1 X76.314 Y88.849 E6.26481
G1 X76.34 Y89.329 E6.27824
G1 X76.312 Y121.186 E7.16828
G1 X76.271 Y121.784 E7.18502
G1 X76.112 Y122.936 E7.21751
G1 X75.991 Y123.516 E7.23407
G1 X75.824 Y124.004 E7.24848
G1 X75.309 Y125.259 E7.28638
G1 X75.047 Y125.792 E7.30297
G1 X74.732 Y126.263 E7.3188
G1 X73.916 Y127.329 E7.35631
G1 X73.525 Y127.775 E7.37288
G1 X73.096 Y128.149 E7.38878
G1 X71.996 Y128.991 E7.42748
G1 X71.502 Y129.319 E7.44405
G1 X71.018 Y129.557 E7.45912
G1 X69.797 Y130.067 E7.49609
G1 X69.236 Y130.258 E7.51264
G1 X68.623 Y130.376 E7.53008
G1 X67.023 Y130.567 E7.5751
G1 X66.492 Y130.598 E7.58996
G1 X62.768 Y130.59 E7.69401
G1 X62.176 Y130.549 E7.71059
G1 X61.477 Y130.394 E7.73059
G1 X55.598 Y128.576 E7.90251
G1 X50.317 Y127.279 E8.05444
G1 X47.745 Y126.765 E8.12772
G1 X42.353 Y125.918 E8.28021
G1 X35.508 Y125.197 E8.47251
G1 X34.924 Y125.095 E8.48907
G1 X34.305 Y124.894 E8.50726
G1 X33.091 Y124.398 E8.54389
G1 X32.558 Y124.137 E8.56048
G1 X32.087 Y123.824 E8.57627
G1 X31.064 Y123.044 E8.61222
G1 X30.618 Y122.653 E8.62879
G1 X30.255 Y122.241 E8.64413
G1 X29.458 Y121.213 E8.68047
G1 X29.127 Y120.721 E8.69704
G1 X28.878 Y120.221 E8.71264
G1 X28.373 Y119.019 E8.74907
G1 X28.181 Y118.458 E8.76563
G1 X28.062 Y117.845 E8.78308
G1 X27.875 Y116.305 E8.82642
G1 X27.843 Y115.773 E8.84131
G1 X27.853 Y93.964 E9.45062
G1 X27.891 Y93.39 E9.46669
G1 X28.054 Y92.155 E9.5015
G1 X28.171 Y91.574 E9.51806
G1 X28.343 Y91.067 E9.53301
G1 X28.832 Y89.87 E9.56914
G1 X29.093 Y89.337 E9.58572
G1 X29.403 Y88.87 E9.60138
G1 X30.202 Y87.82 E9.63824
G1 X30.593 Y87.373 E9.65483
G1 X31.01 Y87.005 E9.67037
G1 X32.03 Y86.215 E9.70642
G1 X32.522 Y85.885 E9.72297
G1 X33.022 Y85.637 E9.73856
G1 X34.216 Y85.136 E9.77474
G0 F1542.9 X34.37 Y85.505
G1 F900 X34.906 Y85.323 E9.79055
G1 X35.506 Y85.214 E9.80759
G1 X40.542 Y84.693 E9.94904
G1 X45.965 Y83.948 E10.10197
G1 X51.304 Y82.903 E10.25397
G1 X56.576 Y81.559 E10.40597
G1 X61.759 Y79.979 E10.55736
G1 X62.31 Y79.853 E10.57315
G1 X62.932 Y79.805 E10.59058
G1 X66.779 Y79.811 E10.69806
G1 X67.297 Y79.845 E10.71256
G1 X68.592 Y80.016 E10.74905
G1 X69.145 Y80.13 E10.76483
G1 X69.634 Y80.301 E10.7793
G1 X70.943 Y80.858 E10.81905
G1 X71.446 Y81.116 E10.83484
G1 X71.82 Y81.372 E10.8475
G1 X72.875 Y82.186 E10.88473
G1 X73.298 Y82.562 E10.90054
G1 X73.599 Y82.909 E10.91338
G1 X74.363 Y83.899 E10.94831
G1 X74.676 Y84.37 E10.96411
G1 X74.888 Y84.804 E10.97761
G1 X75.456 Y86.167 E11.01886
G1 X75.636 Y86.703 E11.03466
G1 X75.741 Y87.274 E11.05088
G1 X75.917 Y88.893 E11.09638
G1 X75.94 Y89.329 E11.10858
G1 X75.912 Y121.186 E11.99862
G1 X75.874 Y121.729 E12.01382
G1 X75.715 Y122.881 E12.04631
G1 X75.599 Y123.434 E12.0621
G1 X75.454 Y123.853 E12.07449
G1 X74.939 Y125.108 E12.11239
G1 X74.687 Y125.614 E12.12818
G1 X74.414 Y126.02 E12.14185
G1 X73.598 Y127.086 E12.17936
G1 X73.224 Y127.51 E12.19515
G1 X72.853 Y127.831 E12.20886
G1 X71.753 Y128.673 E12.24756
G1 X71.281 Y128.984 E12.26335
G1 X70.864 Y129.188 E12.27632
G1 X69.643 Y129.698 E12.31329
G1 X69.107 Y129.878 E12.32909
G1 X68.575 Y129.979 E12.34422
G1 X66.975 Y130.17 E12.38924
G1 X66.492 Y130.198 E12.40275
G1 X62.768 Y130.19 E12.5068
G1 X62.205 Y130.149 E12.52257
G1 X61.595 Y130.011 E12.54004
G1 X55.726 Y128.196 E12.71167
G1 X50.395 Y126.887 E12.86504
G1 X47.816 Y126.372 E12.93851
G1 X42.398 Y125.52 E13.09174
G1 X35.55 Y124.799 E13.28413
G1 X34.993 Y124.7 E13.29993
G1 X34.456 Y124.524 E13.31572
G1 X33.242 Y124.028 E13.35236
G1 X32.735 Y123.778 E13.36815
G1 X32.33 Y123.506 E13.38178
G1 X31.307 Y122.726 E13.41772
G1 X30.882 Y122.352 E13.43354
G1 X30.571 Y121.996 E13.44675
G1 X29.774 Y120.968 E13.48309
G1 X29.46 Y120.498 E13.49888
G1 X29.247 Y120.066 E13.51234
G1 X28.742 Y118.864 E13.54876
G1 X28.561 Y118.329 E13.56454
G1 X28.459 Y117.797 E13.57968
G1 X28.272 Y116.257 E13.62302
G1 X28.243 Y115.773 E13.63656
G1 X28.253 Y93.964 E14.24587
G1 X28.287 Y93.443 E14.26046
G1 X28.45 Y92.208 E14.29526
G1 X28.564 Y91.654 E14.31107
G1 X28.713 Y91.218 E14.32394
G1 X29.202 Y90.021 E14.36006
G1 X29.452 Y89.514 E14.37586
G1 X29.722 Y89.112 E14.38939
G1 X30.521 Y88.062 E14.42625
G1 X30.894 Y87.637 E14.44205
G1 X31.255 Y87.322 E14.45543
G1 X32.275 Y86.532 E14.49148
G1 X32.745 Y86.218 E14.50727
G1 X33.176 Y86.006 E14.52069
G1 X34.37 Y85.505 E14.55687
G0 F1542.9 X34.525 Y85.873
G1 F900 X35.034 Y85.703 E14.57186
G1 X35.547 Y85.612 E14.58642
G1 X40.61 Y85.088 E14.72862
G1 X46.025 Y84.344 E14.88133
G1 X51.392 Y83.294 E15.03412
G1 X56.685 Y81.945 E15.18673
G1 X61.876 Y80.362 E15.33835
G1 X62.399 Y80.244 E15.35333
G1 X62.932 Y80.205 E15.36826
G1 X66.779 Y80.211 E15.47574
G1 X67.244 Y80.242 E15.48876
G1 X68.539 Y80.413 E15.52525
G1 X69.064 Y80.523 E15.54024
G1 X69.478 Y80.669 E15.55251
G1 X70.787 Y81.226 E15.59225
G1 X71.263 Y81.473 E15.60723
G1 X71.576 Y81.689 E15.61786
G1 X72.631 Y82.503 E15.65509
G1 X73.03 Y82.861 E15.67006
G1 X73.282 Y83.154 E15.68086
G1 X74.046 Y84.144 E15.7158
G1 X74.341 Y84.591 E15.73076
G1 X74.519 Y84.958 E15.74216
G1 X75.087 Y86.321 E15.78341
G1 X75.256 Y86.83 E15.79839
G1 X75.343 Y87.317 E15.81222
G1 X75.519 Y88.936 E15.85772
G1 X75.54 Y89.328 E15.86868
G1 X75.512 Y121.185 E16.75872
G1 X75.478 Y121.674 E16.77242
G1 X75.319 Y122.826 E16.80491
G1 X75.207 Y123.351 E16.8199
G1 X75.083 Y123.701 E16.83028
G1 X74.568 Y124.956 E16.86818
G1 X74.329 Y125.435 E16.88313
G1 X74.097 Y125.777 E16.89468
G1 X73.281 Y126.843 E16.93219
G1 X72.924 Y127.244 E16.94719
G1 X72.61 Y127.514 E16.95876
G1 X71.51 Y128.356 E16.99746
G1 X71.061 Y128.649 E17.01244
G1 X70.71 Y128.819 E17.02333
G1 X69.489 Y129.329 E17.0603
G1 X68.98 Y129.498 E17.07529
G1 X68.528 Y129.582 E17.08813
G1 X66.928 Y129.773 E17.13315
G1 X66.493 Y129.798 E17.14532
G1 X62.769 Y129.79 E17.24937
G1 X62.235 Y129.749 E17.26433
G1 X61.713 Y129.629 E17.27929
G1 X55.822 Y127.807 E17.45157
G1 X50.477 Y126.494 E17.60534
G1 X47.883 Y125.976 E17.67925
G1 X42.462 Y125.125 E17.83256
G1 X35.592 Y124.401 E18.02556
G1 X35.064 Y124.305 E18.04055
G1 X34.607 Y124.154 E18.054
G1 X33.393 Y123.658 E18.09064
G1 X32.913 Y123.418 E18.10563
G1 X32.572 Y123.188 E18.11712
G1 X31.549 Y122.408 E18.15306
G1 X31.148 Y122.052 E18.16804
G1 X30.887 Y121.751 E18.17917
G1 X30.09 Y120.723 E18.21552
G1 X29.794 Y120.276 E18.23049
G1 X29.616 Y119.911 E18.24184
G1 X29.111 Y118.709 E18.27826
G1 X28.941 Y118.201 E18.29323
G1 X28.856 Y117.749 E18.30608
G1 X28.669 Y116.209 E18.34942
G1 X28.643 Y115.773 E18.36162
G1 X28.653 Y93.964 E18.97094
G1 X28.684 Y93.495 E18.98407
G1 X28.847 Y92.26 E19.01887
G1 X28.957 Y91.735 E19.03386
G1 X29.083 Y91.37 E19.04465
G1 X29.572 Y90.173 E19.08077
G1 X29.812 Y89.693 E19.09576
G1 X30.04 Y89.354 E19.10718
G1 X30.839 Y88.304 E19.14404
G1 X31.195 Y87.903 E19.15902
G1 X31.5 Y87.638 E19.17031
G1 X32.52 Y86.848 E19.20636
G1 X32.967 Y86.552 E19.22133
G1 X33.331 Y86.374 E19.23265
G1 X34.525 Y85.873 E19.26883
G0 F1542.9 X34.68 Y86.242
G1 F900 X35.16 Y86.084 E19.28295
G1 X35.589 Y86.01 E19.29511
G1 X40.642 Y85.487 E19.43704
G1 X46.105 Y84.736 E19.5911
G1 X51.462 Y83.688 E19.74361
G1 X56.794 Y82.329 E19.89734
G1 X61.993 Y80.744 E20.04919
G1 X62.486 Y80.635 E20.0633
G1 X62.931 Y80.605 E20.07576
G1 X66.778 Y80.611 E20.18324
G1 X67.192 Y80.639 E20.19483
G1 X68.487 Y80.81 E20.23132
G1 X68.981 Y80.915 E20.24543
G1 X69.321 Y81.037 E20.25553
G1 X70.63 Y81.594 E20.29527
G1 X71.078 Y81.829 E20.3094
G1 X71.332 Y82.005 E20.31804
G1 X72.387 Y82.819 E20.35527
G1 X72.761 Y83.159 E20.36939
G1 X72.965 Y83.398 E20.37817
G1 X73.729 Y84.388 E20.4131
G1 X74.006 Y84.811 E20.42723
G1 X74.15 Y85.112 E20.43655
G1 X74.718 Y86.475 E20.47781
G1 X74.875 Y86.956 E20.49194
G1 X74.945 Y87.36 E20.5034
G1 X75.121 Y88.979 E20.5489
G1 X75.14 Y89.328 E20.55866
G1 X75.112 Y121.185 E21.4487
G1 X75.082 Y121.62 E21.46088
G1 X74.923 Y122.772 E21.49337
G1 X74.814 Y123.265 E21.50748
G1 X74.713 Y123.549 E21.5159
G1 X74.198 Y124.804 E21.5538
G1 X73.97 Y125.255 E21.56792
G1 X73.779 Y125.534 E21.57737
G1 X72.963 Y126.6 E21.61487
G1 X72.625 Y126.976 E21.629
G1 X72.367 Y127.196 E21.63847
G1 X71.267 Y128.038 E21.67717
G1 X70.843 Y128.313 E21.69129
G1 X70.555 Y128.45 E21.7002
G1 X69.334 Y128.96 E21.73717
G1 X68.854 Y129.117 E21.75128
G1 X68.48 Y129.184 E21.7619
G1 X66.88 Y129.375 E21.80692
G1 X66.494 Y129.398 E21.81772
G1 X62.77 Y129.39 E21.92176
G1 X62.266 Y129.349 E21.93589
G1 X61.832 Y129.247 E21.94835
G1 X55.936 Y127.424 E22.12077
G1 X50.564 Y126.104 E22.27532
G1 X47.949 Y125.582 E22.34982
G1 X42.507 Y124.727 E22.50372
G1 X35.634 Y124.003 E22.69681
G1 X35.137 Y123.911 E22.71093
G1 X34.759 Y123.783 E22.72208
G1 X33.545 Y123.287 E22.75872
G1 X33.093 Y123.06 E22.77285
G1 X32.815 Y122.87 E22.78226
G1 X31.792 Y122.09 E22.8182
G1 X31.415 Y121.752 E22.83234
G1 X31.203 Y121.506 E22.84142
G1 X30.406 Y120.478 E22.87776
G1 X30.129 Y120.055 E22.89188
G1 X29.985 Y119.756 E22.90116
G1 X29.48 Y118.554 E22.93758
G1 X29.321 Y118.074 E22.95171
G1 X29.253 Y117.701 E22.9623
G1 X29.066 Y116.161 E23.00564
G1 X29.043 Y115.774 E23.01647
G1 X29.053 Y93.965 E23.62579
G1 X29.081 Y93.547 E23.63749
G1 X29.244 Y92.312 E23.67229
G1 X29.349 Y91.818 E23.6864
G1 X29.454 Y91.521 E23.6952
G1 X29.943 Y90.324 E23.73133
G1 X30.17 Y89.872 E23.74546
G1 X30.358 Y89.596 E23.75479
G1 X31.157 Y88.546 E23.79165
G1 X31.494 Y88.169 E23.80578
G1 X31.745 Y87.954 E23.81501
G1 X32.765 Y87.164 E23.85106
G1 X33.187 Y86.887 E23.86516
G1 X33.486 Y86.743 E23.87443
G1 X34.68 Y86.242 E23.91061
G0 F1542.9 X62.74 Y88.1
;TYPE:SUPPORT
G1 F900 X62.74 Y84.116 E24.02192
G1 X62.856 Y84 E24.0265
G1 X66.763 Y84.001 E24.13566
G1 X68.013 Y84.164 E24.17088
G1 X69.271 Y84.695 E24.20903
G1 X70.299 Y85.489 E24.24532
G1 X71.049 Y86.467 E24.27975
G1 X71.084 Y86.528 E24.28171
G1 X71.559 Y87.678 E24.31648
G1 X71.576 Y87.739 E24.31824
G1 X71.74 Y88.997 E24.35369
G1 X71.74 Y120.98 E25.24725
G1 X71.562 Y122.322 E25.28507
G1 X71.069 Y123.502 E25.3208
G1 X70.268 Y124.543 E25.35749
G1 X69.248 Y125.32 E25.39332
G1 X69.181 Y125.358 E25.39547
G1 X68.046 Y125.827 E25.42978
G1 X66.73 Y126 E25.46686
G1 X62.856 Y126 E25.5751
G1 X62.74 Y125.884 E25.57968
G1 X62.74 Y121.9 E25.69099
G1 X63.241 Y121.9 E25.70499
G1 X63.64 Y121.501 E25.72075
G1 X63.64 Y88.499 E26.64278
G1 X63.241 Y88.1 E26.65854
G1 X62.74 Y88.1 E26.67254
G0 F1542.9 X63.367 Y88
G1 F900 X71.449 Y88 E26.89834
G0 F1542.9 X71.58 Y89.6
G1 F900 X63.799 Y89.6 E27.11573
G0 F1542.9 X63.799 Y91.2
G1 F900 X71.58 Y91.2 E27.33312
G0 F1542.9 X71.58 Y92.8
G1 F900 X63.799 Y92.8 E27.55051
G0 F1542.9 X63.799 Y94.4
G1 F900 X71.58 Y94.4 E27.7679
G0 F1542.9 X71.58 Y96
G1 F900 X63.799 Y96 E27.98529
G0 F1542.9 X63.799 Y97.6
G1 F900 X71.58 Y97.6 E28.20268
G0 F1542.9 X71.58 Y99.2
G1 F900 X63.799 Y99.2 E28.42007
G0 F1542.9 X63.799 Y100.8
G1 F900 X71.58 Y100.8 E28.63746
G0 F1542.9 X71.58 Y102.4
G1 F900 X63.799 Y102.4 E28.85484
G0 F1542.9 X63.799 Y104
G1 F900 X71.58 Y104 E29.07223
G0 F1542.9 X71.58 Y105.6
G1 F900 X63.799 Y105.6 E29.28962
G0 F1542.9 X63.799 Y107.2
G1 F900 X71.58 Y107.2 E29.50701
G0 F1542.9 X71.58 Y108.8
G1 F900 X63.799 Y108.8 E29.7244
G0 F1542.9 X63.799 Y110.4
G1 F900 X71.58 Y110.4 E29.94179
G0 F1542.9 X71.58 Y112
G1 F900 X63.799 Y112 E30.15918
G0 F1542.9 X63.799 Y113.6
G1 F900 X71.58 Y113.6 E30.37657
G0 F1542.9 X71.58 Y115.2
G1 F900 X63.799 Y115.2 E30.59396
G0 F1542.9 X63.799 Y116.8
G1 F900 X71.58 Y116.8 E30.81135
G0 F1542.9 X71.58 Y118.4
G1 F900 X63.799 Y118.4 E31.02874
G0 F1542.9 X63.799 Y120
G1 F900 X71.579 Y120 E31.2461
G0 F1542.9 X71.495 Y121.6
G1 F900 X63.767 Y121.6 E31.46201
G0 F1542.9 X62.899 Y123.2
G1 F900 X71.02 Y123.2 E31.6889
G0 F1542.9 X70.4 Y124.109
G1 F900 X70.4 Y85.885 E32.75682
G0 F1542.9 X70.796 Y86.4
G1 F900 X62.899 Y86.4 E32.97745
G0 F1542.9 X62.899 Y84.8
G1 F900 X69.11 Y84.8 E33.15098
G0 F1542.9 X68.8 Y84.67
G1 F900 X68.8 Y125.343 E34.28732
G0 F1542.9 X69.666 Y124.8
G1 F900 X62.899 Y124.8 E34.47638
G0 F1542.9 X64 Y125.84
G1 F900 X64 Y84.161 E35.64083
G0 F1542.9 X65.6 Y84.161
G1 F900 X65.6 Y125.84 E36.80528
G0 F1542.9 X67.2 Y125.778
G1 F900 X67.2 Y84.219 E37.96638
G1 F1200 E32.96638
G0 F1542.9 X62.126 Y88.335
G0 X62.126 Y89.614
G0 X61.289 Y106.4
;TYPE:WALL-INNER
G1 F1200 E37.96638
G1 F900 X61.348 Y106.251 E37.97085
G1 X61.555 Y105.723 E37.9867
G1 X61.648 Y105 E38.00706
