;FLAVOR:Marlin
;TIME:2685
;Filament used: 2.76567m, 0m
;Layer height: 0.2
;POSTPROCESSED
;Generated with Cura_SteamEngine 3.4.1
T0
M190 S65
M104 S198
M109 S198
M82 ;absolute extrusion mode
; Printer start settings begin
; CALIBRATION M92 X160 Y160 Z1600; Steps per unit
M201 X1000 Y1000 Z50 E1500 E1500 ; Max Accelleration
; FEED LINITING M203 X800 Y800 Z2 E90 E90 ; Max Feed
M205 X3.0 Y3.0 Z0.3 E5.0 ; Default Jerk
G28 ;Home
G0 X32 Y0
G92 X0 E5
G1 F1000 E0
;G29 ;Auto Bed Level
G29 X3 Y3 L0 R109 F32 B168
G92 E-5
G1 E0 F400
G0 Z15.0 F100 ;Move the platform down 15mm
G0 X0 Y0 F9000 ;Move to front
G1 F200 E3
G92 E0
G92 E0
G1 F1200 E-5
;LAYER_COUNT:51
;LAYER:0
M107
G0 F1542.9 X18.429 Y84.556 Z0.16
;TYPE:SKIRT
G1 F1200 E0
G1 F900 X19.152 Y84.417 E0.02057
G1 X20.78 Y84.231 E0.06635
G1 X21.327 Y84.2 E0.08166
G1 X88.189 Y84.228 E1.94968
G1 X88.844 Y84.273 E1.96802
G1 X89.936 Y84.424 E1.99882
G1 X90.543 Y84.548 E2.01613
G1 X91.098 Y84.737 E2.03251
G1 X92.29 Y85.225 E2.0685
G1 X92.846 Y85.496 E2.08578
G1 X93.381 Y85.849 E2.10369
G1 X94.428 Y86.647 E2.14047
G1 X94.895 Y87.054 E2.15777
G1 X95.317 Y87.531 E2.17557
G1 X96.108 Y88.555 E2.21172
G1 X96.454 Y89.068 E2.229
G1 X96.738 Y89.638 E2.2468
G1 X97.243 Y90.846 E2.28338
G1 X97.444 Y91.431 E2.30066
G1 X97.583 Y92.149 E2.32109
G1 X97.768 Y93.758 E2.36634
G1 X97.799 Y94.309 E2.38176
G1 X97.787 Y116.037 E2.98881
G1 X97.745 Y116.669 E3.0065
G1 X97.579 Y117.913 E3.04157
G1 X97.457 Y118.52 E3.05886
G1 X97.264 Y119.095 E3.07581
G1 X96.776 Y120.288 E3.11182
G1 X96.505 Y120.845 E3.12913
G1 X96.151 Y121.381 E3.14707
G1 X95.353 Y122.428 E3.18385
G1 X94.946 Y122.895 E3.20116
G1 X94.469 Y123.317 E3.21895
G1 X93.446 Y124.107 E3.25506
G1 X92.932 Y124.453 E3.27237
G1 X92.365 Y124.736 E3.29008
G1 X91.156 Y125.242 E3.3267
G1 X90.571 Y125.444 E3.34399
G1 X89.945 Y125.571 E3.36183
G1 X88.649 Y125.746 E3.39837
G1 X88.007 Y125.789 E3.41635
G1 X20.966 Y125.787 E5.28937
G1 X20.332 Y125.745 E5.30712
G1 X19.087 Y125.579 E5.34222
G1 X18.479 Y125.458 E5.35954
G1 X17.902 Y125.263 E5.37655
G1 X16.71 Y124.775 E5.41254
G1 X16.154 Y124.504 E5.42982
G1 X15.619 Y124.151 E5.44773
G1 X14.572 Y123.353 E5.4845
G1 X14.105 Y122.946 E5.50181
G1 X13.683 Y122.469 E5.51961
G1 X12.892 Y121.445 E5.55576
G1 X12.546 Y120.932 E5.57304
G1 X12.262 Y120.362 E5.59084
G1 X11.757 Y119.154 E5.62742
G1 X11.556 Y118.569 E5.6447
G1 X11.429 Y117.945 E5.66249
G1 X11.253 Y116.641 E5.69925
G1 X11.21 Y115.998 E5.71726
G1 X11.213 Y93.965 E6.33282
G1 X11.255 Y93.331 E6.35058
G1 X11.421 Y92.087 E6.38564
G1 X11.543 Y91.48 E6.40294
G1 X11.736 Y90.905 E6.41988
G1 X12.224 Y89.712 E6.45589
G1 X12.495 Y89.155 E6.4732
G1 X12.849 Y88.619 E6.49115
G1 X13.647 Y87.572 E6.52793
G1 X14.054 Y87.105 E6.54523
G1 X14.531 Y86.683 E6.56303
G1 X15.554 Y85.893 E6.59914
G1 X16.068 Y85.547 E6.61645
G1 X16.635 Y85.264 E6.63415
G1 X17.844 Y84.758 E6.67077
G1 X18.429 Y84.556 E6.68806
G0 F1542.9 X18.559 Y84.936
G1 F900 X19.198 Y84.814 E6.70624
G1 X20.826 Y84.628 E6.75202
G1 X21.327 Y84.6 E6.76604
G1 X88.189 Y84.628 E8.63406
G1 X88.79 Y84.669 E8.65089
G1 X89.882 Y84.82 E8.68169
G1 X90.462 Y84.941 E8.69824
G1 X90.946 Y85.107 E8.71254
G1 X92.138 Y85.595 E8.74852
G1 X92.67 Y85.856 E8.76508
G1 X93.138 Y86.168 E8.78079
G1 X94.185 Y86.966 E8.81757
G1 X94.631 Y87.356 E8.83413
G1 X95 Y87.775 E8.84972
G1 X95.791 Y88.799 E8.88587
G1 X96.121 Y89.292 E8.90245
G1 X96.369 Y89.792 E8.91804
G1 X96.874 Y91 E8.95462
G1 X97.065 Y91.561 E8.97118
G1 X97.185 Y92.194 E8.98918
G1 X97.37 Y93.803 E9.03443
G1 X97.399 Y94.308 E9.04856
G1 X97.387 Y116.036 E9.65561
G1 X97.348 Y116.616 E9.67185
G1 X97.182 Y117.86 E9.70691
G1 X97.064 Y118.441 E9.72348
G1 X96.893 Y118.944 E9.73832
G1 X96.405 Y120.137 E9.77433
G1 X96.144 Y120.669 E9.79089
G1 X95.832 Y121.138 E9.80663
G1 X95.034 Y122.185 E9.8434
G1 X94.644 Y122.631 E9.85996
G1 X94.224 Y123 E9.87558
G1 X93.201 Y123.79 E9.91169
G1 X92.709 Y124.12 E9.92824
G1 X92.211 Y124.367 E9.94377
G1 X91.002 Y124.873 E9.98039
G1 X90.441 Y125.064 E9.99694
G1 X89.892 Y125.174 E10.01259
G1 X88.596 Y125.349 E10.04912
G1 X88.007 Y125.389 E10.06562
G1 X20.966 Y125.387 E11.93864
G1 X20.384 Y125.348 E11.95494
G1 X19.139 Y125.182 E11.99003
G1 X18.558 Y125.065 E12.00659
G1 X18.054 Y124.893 E12.02147
G1 X16.862 Y124.405 E12.05745
G1 X16.33 Y124.144 E12.07401
G1 X15.862 Y123.832 E12.08972
G1 X14.815 Y123.034 E12.1265
G1 X14.369 Y122.644 E12.14306
G1 X14 Y122.225 E12.15865
G1 X13.209 Y121.201 E12.1948
G1 X12.879 Y120.708 E12.21138
G1 X12.631 Y120.208 E12.22697
G1 X12.126 Y119 E12.26355
G1 X11.935 Y118.439 E12.28011
G1 X11.826 Y117.892 E12.29569
G1 X11.65 Y116.588 E12.33245
G1 X11.61 Y115.998 E12.34898
G1 X11.613 Y93.965 E12.96455
G1 X11.652 Y93.384 E12.98081
G1 X11.818 Y92.14 E13.01588
G1 X11.936 Y91.559 E13.03244
G1 X12.107 Y91.056 E13.04728
G1 X12.595 Y89.863 E13.0833
G1 X12.856 Y89.331 E13.09985
G1 X13.168 Y88.862 E13.11559
G1 X13.966 Y87.815 E13.15237
G1 X14.356 Y87.369 E13.16892
G1 X14.776 Y87 E13.18454
G1 X15.799 Y86.21 E13.22065
G1 X16.291 Y85.88 E13.2372
G1 X16.789 Y85.633 E13.25273
G1 X17.998 Y85.127 E13.28935
G1 X18.559 Y84.936 E13.30591
G0 F1542.9 X18.688 Y85.315
G1 F900 X19.243 Y85.212 E13.32168
G1 X20.871 Y85.026 E13.36746
G1 X21.327 Y85 E13.38022
G1 X88.189 Y85.028 E15.24824
G1 X88.735 Y85.066 E15.26354
G1 X89.827 Y85.217 E15.29433
G1 X90.38 Y85.334 E15.31013
G1 X90.794 Y85.477 E15.32236
G1 X91.986 Y85.965 E15.35835
G1 X92.493 Y86.216 E15.37415
G1 X92.896 Y86.486 E15.38771
G1 X93.943 Y87.284 E15.42449
G1 X94.367 Y87.657 E15.44026
G1 X94.684 Y88.02 E15.45373
G1 X95.475 Y89.044 E15.48988
G1 X95.788 Y89.514 E15.50566
G1 X95.999 Y89.946 E15.51909
G1 X96.504 Y91.154 E15.55567
G1 X96.685 Y91.69 E15.57147
G1 X96.788 Y92.24 E15.58711
G1 X96.973 Y93.849 E15.63236
G1 X96.999 Y94.308 E15.6452
G1 X96.987 Y116.036 E16.25225
G1 X96.952 Y116.563 E16.267
G1 X96.786 Y117.807 E16.30207
G1 X96.672 Y118.361 E16.31787
G1 X96.523 Y118.792 E16.33061
G1 X96.035 Y119.985 E16.36662
G1 X95.785 Y120.492 E16.38242
G1 X95.514 Y120.896 E16.39601
G1 X94.716 Y121.943 E16.43279
G1 X94.343 Y122.367 E16.44856
G1 X93.98 Y122.684 E16.46203
G1 X92.957 Y123.474 E16.49814
G1 X92.486 Y123.787 E16.51394
G1 X92.056 Y123.998 E16.52732
G1 X90.847 Y124.504 E16.56394
G1 X90.312 Y124.685 E16.57972
G1 X89.838 Y124.778 E16.59321
G1 X88.542 Y124.953 E16.62975
G1 X88.007 Y124.989 E16.64473
G1 X20.966 Y124.987 E18.51776
G1 X20.437 Y124.952 E18.53257
G1 X19.192 Y124.786 E18.56766
G1 X18.639 Y124.672 E18.58343
G1 X18.206 Y124.523 E18.59623
G1 X17.014 Y124.035 E18.63221
G1 X16.507 Y123.784 E18.64802
G1 X16.104 Y123.514 E18.66157
G1 X15.057 Y122.716 E18.69835
G1 X14.633 Y122.343 E18.71413
G1 X14.316 Y121.98 E18.72759
G1 X13.525 Y120.956 E18.76374
G1 X13.212 Y120.486 E18.77952
G1 X13.001 Y120.054 E18.79295
G1 X12.496 Y118.846 E18.82953
G1 X12.315 Y118.31 E18.84534
G1 X12.222 Y117.838 E18.85878
G1 X12.046 Y116.534 E18.89554
G1 X12.01 Y115.998 E18.91055
G1 X12.013 Y93.965 E19.52612
G1 X12.048 Y93.437 E19.5409
G1 X12.214 Y92.193 E19.57597
G1 X12.328 Y91.639 E19.59177
G1 X12.477 Y91.208 E19.60451
G1 X12.965 Y90.015 E19.64052
G1 X13.215 Y89.508 E19.65631
G1 X13.486 Y89.104 E19.66991
G1 X14.284 Y88.057 E19.70668
G1 X14.657 Y87.633 E19.72246
G1 X15.02 Y87.316 E19.73593
G1 X16.043 Y86.526 E19.77204
G1 X16.514 Y86.213 E19.78784
G1 X16.944 Y86.002 E19.80122
G1 X18.153 Y85.496 E19.83784
G1 X18.688 Y85.315 E19.85362
G0 F1542.9 X18.816 Y85.695
G1 F900 X19.288 Y85.609 E19.86702
G1 X20.916 Y85.423 E19.9128
G1 X21.327 Y85.4 E19.9243
G1 X88.189 Y85.428 E21.79232
G1 X88.68 Y85.462 E21.80608
G1 X89.772 Y85.613 E21.83687
G1 X90.296 Y85.726 E21.85185
G1 X90.643 Y85.847 E21.86212
G1 X91.835 Y86.335 E21.8981
G1 X92.315 Y86.575 E21.9131
G1 X92.653 Y86.804 E21.9245
G1 X93.7 Y87.602 E21.96128
G1 X94.101 Y87.958 E21.97626
G1 X94.367 Y88.264 E21.98759
G1 X95.158 Y89.288 E22.02374
G1 X95.453 Y89.736 E22.03873
G1 X95.63 Y90.1 E22.05004
G1 X96.135 Y91.308 E22.08662
G1 X96.305 Y91.817 E22.10161
G1 X96.39 Y92.286 E22.11493
G1 X96.575 Y93.895 E22.16018
G1 X96.599 Y94.308 E22.17173
G1 X96.587 Y116.036 E22.77878
G1 X96.555 Y116.51 E22.79206
G1 X96.389 Y117.754 E22.82712
G1 X96.279 Y118.279 E22.8421
G1 X96.153 Y118.641 E22.85281
G1 X95.665 Y119.834 E22.88883
G1 X95.426 Y120.314 E22.90381
G1 X95.196 Y120.653 E22.91525
G1 X94.398 Y121.7 E22.95203
G1 X94.042 Y122.101 E22.96701
G1 X93.735 Y122.367 E22.97836
G1 X92.712 Y123.157 E23.01447
G1 X92.265 Y123.453 E23.02945
G1 X91.902 Y123.629 E23.04072
G1 X90.693 Y124.135 E23.07734
G1 X90.184 Y124.305 E23.09233
G1 X89.785 Y124.382 E23.10368
G1 X88.489 Y124.557 E23.14022
G1 X88.007 Y124.589 E23.15372
G1 X20.966 Y124.587 E25.02674
G1 X20.49 Y124.555 E25.04007
G1 X19.245 Y124.389 E25.07516
G1 X18.72 Y124.279 E25.09015
G1 X18.357 Y124.153 E25.10088
G1 X17.165 Y123.665 E25.13687
G1 X16.685 Y123.425 E25.15186
G1 X16.347 Y123.196 E25.16327
G1 X15.3 Y122.398 E25.20005
G1 X14.899 Y122.042 E25.21503
G1 X14.633 Y121.736 E25.22636
G1 X13.842 Y120.712 E25.26251
G1 X13.547 Y120.264 E25.2775
G1 X13.37 Y119.9 E25.2888
G1 X12.865 Y118.692 E25.32538
G1 X12.695 Y118.183 E25.34038
G1 X12.618 Y117.785 E25.3517
G1 X12.442 Y116.481 E25.38846
G1 X12.41 Y115.999 E25.40196
G1 X12.413 Y93.966 E26.01753
G1 X12.445 Y93.49 E26.03086
G1 X12.611 Y92.246 E26.06592
G1 X12.721 Y91.721 E26.08091
G1 X12.847 Y91.359 E26.09162
G1 X13.335 Y90.166 E26.12763
G1 X13.574 Y89.686 E26.14261
G1 X13.804 Y89.347 E26.15405
G1 X14.602 Y88.3 E26.19083
G1 X14.958 Y87.899 E26.20582
G1 X15.265 Y87.633 E26.21716
G1 X16.288 Y86.843 E26.25328
G1 X16.735 Y86.547 E26.26825
G1 X17.098 Y86.371 E26.27952
G1 X18.307 Y85.865 E26.31614
G1 X18.816 Y85.695 E26.33113
G0 F1542.9 X18.942 Y86.076
G1 F900 X19.334 Y86.007 E26.34225
G1 X20.962 Y85.821 E26.38803
G1 X21.326 Y85.8 E26.39822
G1 X88.188 Y85.828 E28.26625
G1 X88.625 Y85.858 E28.27848
G1 X89.717 Y86.009 E28.30928
G1 X90.211 Y86.118 E28.32342
G1 X90.491 Y86.218 E28.33172
G1 X91.683 Y86.706 E28.36771
G1 X92.135 Y86.933 E28.38184
G1 X92.411 Y87.122 E28.39119
G1 X93.458 Y87.92 E28.42797
G1 X93.834 Y88.257 E28.44207
G1 X94.05 Y88.509 E28.45134
G1 X94.841 Y89.533 E28.4875
G1 X95.118 Y89.956 E28.50162
G1 X95.261 Y90.255 E28.51088
G1 X95.766 Y91.463 E28.54746
G1 X95.924 Y91.943 E28.56158
G1 X95.993 Y92.331 E28.57259
G1 X96.178 Y93.94 E28.61784
G1 X96.199 Y94.308 E28.62814
G1 X96.187 Y116.036 E29.23519
G1 X96.159 Y116.457 E29.24697
G1 X95.993 Y117.701 E29.28204
G1 X95.887 Y118.196 E29.29618
G1 X95.783 Y118.49 E29.30489
G1 X95.295 Y119.683 E29.3409
G1 X95.067 Y120.134 E29.35502
G1 X94.878 Y120.411 E29.36439
G1 X94.08 Y121.458 E29.40117
G1 X93.743 Y121.834 E29.41528
G1 X93.491 Y122.051 E29.42457
G1 X92.468 Y122.841 E29.46068
G1 X92.045 Y123.117 E29.47479
G1 X91.747 Y123.26 E29.48403
G1 X90.538 Y123.766 E29.52064
G1 X90.058 Y123.924 E29.53476
G1 X89.731 Y123.985 E29.54405
G1 X88.435 Y124.16 E29.58059
G1 X88.007 Y124.189 E29.59258
G1 X20.966 Y124.187 E31.4656
G1 X20.543 Y124.159 E31.47745
G1 X19.298 Y123.993 E31.51254
G1 X18.804 Y123.887 E31.52665
G1 X18.509 Y123.782 E31.5354
G1 X17.317 Y123.294 E31.57139
G1 X16.865 Y123.067 E31.58552
G1 X16.589 Y122.878 E31.59486
G1 X15.542 Y122.08 E31.63164
G1 X15.166 Y121.743 E31.64575
G1 X14.95 Y121.491 E31.65502
G1 X14.159 Y120.467 E31.69117
G1 X13.882 Y120.044 E31.7053
G1 X13.739 Y119.745 E31.71456
G1 X13.234 Y118.537 E31.75114
G1 X13.076 Y118.057 E31.76526
G1 X13.015 Y117.731 E31.77452
G1 X12.839 Y116.427 E31.81129
G1 X12.81 Y115.999 E31.82327
G1 X12.813 Y93.966 E32.43884
G1 X12.841 Y93.543 E32.45069
G1 X13.007 Y92.299 E32.48575
G1 X13.113 Y91.804 E32.49989
G1 X13.217 Y91.51 E32.5086
G1 X13.705 Y90.317 E32.54462
G1 X13.933 Y89.866 E32.55873
G1 X14.122 Y89.589 E32.5681
G1 X14.92 Y88.542 E32.60488
G1 X15.257 Y88.166 E32.61899
G1 X15.509 Y87.949 E32.62828
G1 X16.532 Y87.159 E32.66439
G1 X16.955 Y86.883 E32.6785
G1 X17.253 Y86.74 E32.68774
G1 X18.462 Y86.234 E32.72435
G1 X18.942 Y86.076 E32.73847
G1 F1200 E27.73847
G0 F1542.9 X21.994 Y88.371
G0 X22.029 Y88.397
G0 X31.606 Y95.6
G0 X40.847 Y95.653
G0 X40.847 Y99.347
G0 X36.654 Y99.397
G0 X42.399 Y103.718
G0 X42.45 Y103.756
G0 X43.691 Y104.691
G0 X49.921 Y102.966
G0 X49.991 Y103.016
G0 X49.935 Y102.929
;TYPE:WALL-OUTER
G1 F1200 E32.73847
G1 F900 X50.012 Y102.902 E32.74075
G1 X50.118 Y102.906 E32.74372
G1 X50.166 Y102.926 E32.74517
G1 X50.209 Y102.979 E32.74708
G1 X50.226 Y103.021 E32.74834
G1 X50.23 Y103.063 E32.74952
G1 X50.261 Y103.346 E32.75747
G1 X50.261 Y103.471 E32.76097
G1 X49.863 Y103.471 E32.77209
G1 X49.851 Y103.471 E32.77242
G1 X49.851 Y103.309 E32.77518
G1 X49.863 Y103.104 E32.77994
G1 X49.905 Y102.956 E32.78388
G1 X49.935 Y102.929 E32.78501
G0 F1542.9 X50.012 Y102.902
G0 X50.118 Y102.906
G0 X50.13 Y102.911
G0 X50.253 Y103.296
G1 F1200 E27.78501
G0 F1542.9 X50.156 Y103.307
G0 X50.247 Y103.457
G0 X50.445 Y105.924
G0 X50.82 Y106.036
G0 X50.847 Y105.94
;TYPE:WALL-INNER
G1 F1200 E32.78501
G1 F900 X50.892 Y105.953 E32.78632
G1 X50.954 Y105.995 E32.78841
G1 X50.979 Y106.034 E32.78971
G1 X50.993 Y106.117 E32.79206
G1 X50.979 Y106.188 E32.79408
G1 X50.947 Y106.225 E32.79545
G1 X50.932 Y106.234 E32.79593
G1 X50.884 Y106.262 E32.79749
G1 X50.836 Y106.281 E32.79893
G1 X50.826 Y106.283 E32.79921
G1 X50.744 Y106.302 E32.8013
G1 X50.575 Y106.315 E32.80603
G1 X50.413 Y106.302 E32.81057
G1 X50.357 Y106.29 E32.81217
G1 X50.32 Y106.281 E32.81324
G1 X50.295 Y106.271 E32.81399
G1 X50.256 Y106.255 E32.81517
G1 X50.228 Y106.237 E32.8161
G1 X50.205 Y106.222 E32.81686
G1 X50.186 Y106.194 E32.81781
G1 X50.174 Y106.149 E32.81911
G1 X50.178 Y106.054 E32.82177
G1 X50.195 Y106.01 E32.82309
G1 X50.237 Y105.97 E32.82471
G1 X50.275 Y105.949 E32.82592
G1 X50.289 Y105.945 E32.82623
G1 X50.359 Y105.92 E32.82831
G1 X50.443 Y105.905 E32.83057
G1 X50.588 Y105.898 E32.83462
G1 X50.74 Y105.91 E32.83884
G1 X50.847 Y105.94 E32.84164
G0 F1542.9 X50.82 Y106.036
G0 X50.349 Y106.186
G0 X50.2 Y106.664
;TYPE:WALL-OUTER
G1 F900 X50.074 Y106.614 E32.84542
G1 X49.951 Y106.534 E32.84952
G1 X49.903 Y106.486 E32.85142
G1 X49.855 Y106.422 E32.85366
G1 X49.819 Y106.357 E32.85573
G1 X49.791 Y106.274 E32.85818
G1 X49.777 Y106.205 E32.86015
G1 X49.77 Y106.12 E32.86253
G1 X49.784 Y105.975 E32.8666
G1 X49.815 Y105.875 E32.86952
G1 X49.857 Y105.794 E32.87207
G1 X49.921 Y105.712 E32.87498
G1 X50.007 Y105.64 E32.87811
G1 X50.114 Y105.581 E32.88153
G1 X50.263 Y105.531 E32.88592
G1 X50.392 Y105.508 E32.88958
G1 X50.598 Y105.497 E32.89534
G1 X50.801 Y105.513 E32.90103
G1 X50.964 Y105.552 E32.90571
G1 X51.058 Y105.588 E32.90853
G1 X51.163 Y105.648 E32.9119
G1 X51.251 Y105.723 E32.91513
G1 X51.312 Y105.804 E32.91797
G1 X51.351 Y105.883 E32.92043
G1 X51.381 Y105.98 E32.92327
G1 X51.394 Y106.109 E32.92689
G1 X51.387 Y106.216 E32.92988
G1 X51.35 Y106.344 E32.93361
G1 X51.315 Y106.408 E32.93564
G1 X51.263 Y106.476 E32.93804
G1 X51.208 Y106.529 E32.94017
G1 X51.14 Y106.579 E32.94253
G1 X51.057 Y106.624 E32.94517
G1 X50.956 Y106.664 E32.9482
G1 X50.801 Y106.699 E32.95264
G1 X50.575 Y106.716 E32.95897
G1 X50.352 Y106.699 E32.96522
G1 X50.2 Y106.664 E32.96958
G0 F1542.9 X50.074 Y106.614
G0 X50.02 Y106.579
G0 X50.477 Y106.305
G1 F1200 E27.96958
G0 F1542.9 X50.485 Y106.208
G0 X50.962 Y106.18
G0 X55.927 Y109.32
G0 X56.055 Y109.405
G0 X56.121 Y109.324
G1 F1200 E32.96958
G1 F900 X56.142 Y109.348 E32.97047
G1 X56.162 Y109.406 E32.97218
G1 X56.173 Y109.479 E32.97425
G1 X56.18 Y109.611 E32.97794
G1 X56.18 Y109.682 E32.97992
G1 X56.18 Y109.909 E32.98626
G1 X55.851 Y109.909 E32.99446
G1 X55.851 Y109.682 E32.99967
G1 X55.856 Y109.591 E33.0018
G1 X55.865 Y109.452 E33.0049
G1 X55.873 Y109.414 E33.00556
G1 X55.882 Y109.374 E33.00628
G1 X55.895 Y109.346 E33.00675
G1 X55.915 Y109.305 E33.00757
G1 X55.958 Y109.292 E33.00882
G1 X56.053 Y109.294 E33.01148
G1 X56.121 Y109.324 E33.01355
G0 F1542.9 X56.142 Y109.348
G0 X56.162 Y109.406
G0 X56.173 Y109.479
G0 X56.174 Y109.514
G1 F1200 E28.01355
G0 F1542.9 X56.074 Y109.519
G0 X56.154 Y109.481
G0 X57.006 Y109.535
G0 X57.095 Y109.397
G0 X56.996 Y109.381
G1 F1200 E33.01355
G1 F900 X57.009 Y109.328 E33.01508
G1 X57.021 Y109.282 E33.01641
G1 X57.053 Y109.227 E33.01818
