;FLAVOR:Marlin
;TIME:755
;Filament used: 0.68392m, 0m
;Layer height: 0.2
;POSTPROCESSED
;Generated with Cura_SteamEngine 3.4.1
T0
M190 S65
M104 S198
M109 S198
M82 ;absolute extrusion mode
; Printer start settings begin
; CALIBRATION M92 X160 Y160 Z1600; Steps per unit
M201 X1000 Y1000 Z50 E1500 E1500 ; Max Accelleration
; FEED LINITING M203 X800 Y800 Z2 E90 E90 ; Max Feed
M205 X3.0 Y3.0 Z0.3 E5.0 ; Default Jerk
G28 ;Home
G0 X32 Y0
G92 X0 E5
G1 F1000 E0
;G29 ;Auto Bed Level
G29 X3 Y3 L0 R109 F32 B168
G92 E-5
G1 E0 F400
G0 Z15.0 F100 ;Move the platform down 15mm
G0 X0 Y0 F9000 ;Move to front
G1 F200 E3
G92 E0
G92 E0
G1 F1200 E-5
;LAYER_COUNT:86
;LAYER:0
M107
G0 F1542.9 X37.397 Y79.587 Z0.16
;TYPE:SKIRT
G1 F1200 E0
G1 F900 X38.38 Y79.189 E0.02963
G1 X38.967 Y78.994 E0.04691
G1 X39.624 Y78.87 E0.06559
G1 X40.676 Y78.747 E0.09518
G1 X41.294 Y78.715 E0.11247
G1 X41.901 Y78.762 E0.12948
G1 X42.677 Y78.871 E0.15137
G1 X43.283 Y78.996 E0.16866
G1 X43.641 Y79.11 E0.17916
G1 X44.634 Y79.469 E0.20866
G1 X45.412 Y79.832 E0.23264
G1 X51.446 Y83.334 E0.42756
G1 X56.252 Y85.766 E0.57804
G1 X61.176 Y87.919 E0.72819
G1 X66.259 Y89.804 E0.87965
G1 X71.199 Y91.436 E1.025
G1 X71.773 Y91.668 E1.0423
G1 X72.51 Y92.108 E1.06628
G1 X73.364 Y92.727 E1.09575
G1 X73.841 Y93.122 E1.11305
G1 X74.296 Y93.615 E1.1318
G1 X74.959 Y94.444 E1.16145
G1 X75.313 Y94.952 E1.17875
G1 X75.612 Y95.528 E1.19688
G1 X76.032 Y96.494 E1.22631
G1 X76.242 Y97.077 E1.24363
G1 X76.384 Y97.748 E1.26279
G1 X76.539 Y98.865 E1.29429
G1 X76.585 Y99.483 E1.31161
G1 X76.533 Y100.232 E1.33258
G1 X76.37 Y101.327 E1.36351
G1 X76.239 Y101.932 E1.38081
G1 X75.977 Y102.639 E1.40187
G1 X75.469 Y103.735 E1.43562
G1 X75.173 Y104.278 E1.4529
G1 X74.956 Y104.594 E1.46361
G1 X72.665 Y107.652 E1.57037
G1 X69.625 Y112.128 E1.72153
G1 X66.734 Y116.951 E1.87863
G1 X66.382 Y117.46 E1.89592
G1 X65.967 Y117.92 E1.91323
G1 X65.497 Y118.323 E1.93053
G1 X64.978 Y118.662 E1.94785
G1 X64.421 Y118.931 E1.96513
G1 X63.833 Y119.126 E1.98244
G1 X63.225 Y119.244 E1.99974
G1 X62.62 Y119.283 E2.01668
G1 X53.984 Y119.289 E2.25796
G1 X53.366 Y119.249 E2.27526
G1 X52.758 Y119.131 E2.29256
G1 X52.171 Y118.935 E2.30985
G1 X51.614 Y118.665 E2.32715
G1 X51.096 Y118.325 E2.34446
G1 X50.626 Y117.921 E2.36177
G1 X50.212 Y117.461 E2.37906
G1 X49.792 Y116.832 E2.40019
G1 X49.144 Y115.673 E2.43729
G1 X46.167 Y110.695 E2.59934
G1 X42.4 Y105.212 E2.7852
G1 X42.201 Y104.897 E2.79561
G1 X40.853 Y102.566 E2.87084
G1 X37.927 Y97.965 E3.02318
G1 X36.417 Y95.802 E3.09688
G1 X34.041 Y92.633 E3.20754
G1 X33.702 Y92.114 E3.22485
G1 X33.557 Y91.838 E3.23356
G1 X33.041 Y90.768 E3.26675
G1 X32.809 Y90.194 E3.28405
G1 X32.622 Y89.42 E3.3063
G1 X32.437 Y88.229 E3.33997
G1 X32.381 Y87.612 E3.35728
G1 X32.422 Y86.856 E3.37843
G1 X32.556 Y85.854 E3.40668
G1 X32.678 Y85.246 E3.424
G1 X32.872 Y84.67 E3.44098
G1 X33.274 Y83.689 E3.4706
G1 X33.546 Y83.132 E3.48792
G1 X33.911 Y82.583 E3.50634
G1 X34.553 Y81.748 E3.53577
G1 X34.961 Y81.283 E3.55305
G1 X35.455 Y80.852 E3.57137
G1 X36.295 Y80.214 E3.60084
G1 X36.811 Y79.872 E3.61813
G1 X37.397 Y79.587 E3.63634
G0 F1542.9 X37.547 Y79.958
G1 F900 X38.53 Y79.56 E3.66597
G1 X39.093 Y79.375 E3.68252
G1 X39.67 Y79.268 E3.69892
G1 X40.722 Y79.145 E3.72851
G1 X41.314 Y79.116 E3.74507
G1 X41.845 Y79.158 E3.75995
G1 X42.621 Y79.267 E3.78184
G1 X43.201 Y79.389 E3.7984
G1 X43.505 Y79.486 E3.80732
G1 X44.498 Y79.845 E3.83682
G1 X45.211 Y80.178 E3.8588
G1 X51.257 Y83.687 E4.05411
G1 X56.083 Y86.129 E4.20522
G1 X61.02 Y88.287 E4.35575
G1 X66.137 Y90.185 E4.50823
G1 X71.073 Y91.816 E4.65347
G1 X71.622 Y92.04 E4.67003
G1 X72.275 Y92.431 E4.6913
G1 X73.129 Y93.05 E4.72077
G1 X73.585 Y93.43 E4.73735
G1 X73.983 Y93.865 E4.75382
G1 X74.646 Y94.694 E4.78348
G1 X74.985 Y95.181 E4.80006
G1 X75.245 Y95.688 E4.81598
G1 X75.665 Y96.654 E4.84541
G1 X75.864 Y97.212 E4.86196
G1 X75.988 Y97.803 E4.87883
G1 X76.143 Y98.92 E4.91033
G1 X76.185 Y99.512 E4.92692
G1 X76.137 Y100.173 E4.94543
G1 X75.974 Y101.268 E4.97636
G1 X75.847 Y101.847 E4.99292
G1 X75.614 Y102.47 E5.01151
G1 X75.106 Y103.566 E5.04526
G1 X74.821 Y104.086 E5.06182
G1 X74.635 Y104.354 E5.07094
G1 X72.346 Y107.41 E5.17761
G1 X69.289 Y111.91 E5.3296
G1 X66.391 Y116.745 E5.48709
G1 X66.052 Y117.232 E5.50367
G1 X65.652 Y117.669 E5.52022
G1 X65.196 Y118.048 E5.53679
G1 X64.693 Y118.363 E5.55337
G1 X64.152 Y118.606 E5.56994
G1 X63.584 Y118.775 E5.58649
G1 X62.998 Y118.866 E5.60306
G1 X62.62 Y118.883 E5.61363
G1 X53.984 Y118.889 E5.85491
G1 X53.392 Y118.849 E5.87149
G1 X52.811 Y118.731 E5.88805
G1 X52.252 Y118.535 E5.9046
G1 X51.723 Y118.266 E5.92118
G1 X51.236 Y117.928 E5.93774
G1 X50.799 Y117.528 E5.95429
G1 X50.419 Y117.072 E5.97088
G1 X50.141 Y116.637 E5.9853
G1 X49.479 Y115.453 E6.0232
G1 X46.508 Y110.485 E6.18492
G1 X42.73 Y104.986 E6.37132
G1 X42.547 Y104.696 E6.3809
G1 X41.2 Y102.367 E6.45607
G1 X38.256 Y97.738 E6.60934
G1 X36.742 Y95.568 E6.68326
G1 X34.361 Y92.393 E6.79414
G1 X33.918 Y91.664 E6.81797
G1 X33.402 Y90.594 E6.85116
G1 X33.181 Y90.044 E6.86772
G1 X33.017 Y89.358 E6.88743
G1 X32.832 Y88.167 E6.9211
G1 X32.781 Y87.577 E6.93765
G1 X32.819 Y86.909 E6.95634
G1 X32.953 Y85.907 E6.98458
G1 X33.071 Y85.326 E7.00115
G1 X33.243 Y84.822 E7.01603
G1 X33.645 Y83.841 E7.04565
G1 X33.906 Y83.308 E7.06223
G1 X34.228 Y82.827 E7.0784
G1 X34.87 Y81.992 E7.10782
G1 X35.262 Y81.547 E7.12439
G1 X35.697 Y81.17 E7.14048
G1 X36.537 Y80.532 E7.16995
G1 X37.032 Y80.206 E7.1865
G1 X37.547 Y79.958 E7.20247
G0 F1542.9 X37.697 Y80.328
G1 F900 X38.68 Y79.93 E7.2321
G1 X39.218 Y79.756 E7.2479
G1 X39.716 Y79.665 E7.26205
G1 X40.768 Y79.542 E7.29164
G1 X41.333 Y79.516 E7.30744
G1 X41.789 Y79.554 E7.32022
G1 X42.565 Y79.663 E7.34212
G1 X43.369 Y79.862 E7.36526
G1 X44.362 Y80.221 E7.39476
G1 X45.01 Y80.523 E7.41473
G1 X51.075 Y84.043 E7.61065
G1 X55.913 Y86.491 E7.76213
G1 X60.871 Y88.659 E7.91332
G1 X66.007 Y90.564 E8.06636
G1 X70.948 Y92.196 E8.21174
G1 X71.471 Y92.411 E8.22754
G1 X72.04 Y92.755 E8.24611
G1 X72.894 Y93.374 E8.27558
G1 X73.328 Y93.738 E8.29141
G1 X73.671 Y94.115 E8.30565
G1 X74.334 Y94.944 E8.33531
G1 X74.655 Y95.409 E8.35109
G1 X74.878 Y95.847 E8.36482
G1 X75.298 Y96.813 E8.39425
G1 X75.486 Y97.346 E8.41004
G1 X75.592 Y97.858 E8.42465
G1 X75.747 Y98.975 E8.45616
G1 X75.785 Y99.539 E8.47195
G1 X75.741 Y100.114 E8.48806
G1 X75.578 Y101.209 E8.51899
G1 X75.456 Y101.761 E8.53479
G1 X75.251 Y102.302 E8.55095
G1 X74.743 Y103.398 E8.5847
G1 X74.315 Y104.114 E8.608
G1 X72.017 Y107.181 E8.71508
G1 X68.958 Y111.685 E8.86719
G1 X66.048 Y116.54 E9.02533
G1 X65.724 Y117.003 E9.04112
G1 X65.337 Y117.415 E9.05691
G1 X64.897 Y117.77 E9.07271
G1 X64.411 Y118.058 E9.08849
G1 X63.889 Y118.275 E9.10428
G1 X63.341 Y118.417 E9.1201
G1 X62.62 Y118.483 E9.14033
G1 X53.984 Y118.489 E9.3816
G1 X53.42 Y118.449 E9.3974
G1 X52.867 Y118.331 E9.4132
G1 X52.337 Y118.135 E9.42899
G1 X51.839 Y117.867 E9.44479
G1 X51.384 Y117.531 E9.46059
G1 X50.981 Y117.135 E9.47637
G1 X50.638 Y116.686 E9.49216
G1 X50.49 Y116.442 E9.50013
G1 X49.828 Y115.258 E9.53803
G1 X46.844 Y110.267 E9.70049
G1 X43.059 Y104.759 E9.88721
G1 X42.893 Y104.496 E9.8959
G1 X41.537 Y102.151 E9.97158
G1 X38.589 Y97.516 E10.12505
G1 X37.066 Y95.334 E10.19939
G1 X34.681 Y92.153 E10.31047
G1 X34.278 Y91.49 E10.33215
G1 X33.762 Y90.42 E10.36534
G1 X33.553 Y89.895 E10.38112
G1 X33.412 Y89.297 E10.39829
G1 X33.227 Y88.106 E10.43196
G1 X33.18 Y87.543 E10.44775
G1 X33.215 Y86.962 E10.46401
G1 X33.349 Y85.96 E10.49225
G1 X33.464 Y85.406 E10.50806
G1 X33.613 Y84.973 E10.52085
G1 X34.015 Y83.992 E10.55047
G1 X34.266 Y83.486 E10.56625
G1 X34.545 Y83.071 E10.58022
G1 X35.187 Y82.236 E10.60965
G1 X35.562 Y81.813 E10.62544
G1 X35.939 Y81.489 E10.63933
G1 X36.779 Y80.851 E10.6688
G1 X37.252 Y80.541 E10.6846
G1 X37.697 Y80.328 E10.69839
G0 F1542.9 X37.847 Y80.699
G1 F900 X38.83 Y80.301 E10.72802
G1 X39.341 Y80.137 E10.74301
G1 X39.763 Y80.062 E10.75498
G1 X40.815 Y79.939 E10.78458
G1 X41.351 Y79.917 E10.79956
G1 X41.734 Y79.95 E10.8103
G1 X42.51 Y80.059 E10.8322
G1 X43.233 Y80.238 E10.85301
G1 X44.226 Y80.597 E10.88251
G1 X44.809 Y80.869 E10.90048
G1 X50.886 Y84.396 E11.09679
G1 X55.744 Y86.854 E11.2489
G1 X60.714 Y89.027 E11.40044
G1 X65.886 Y90.945 E11.55456
G1 X70.822 Y92.576 E11.69979
G1 X71.317 Y92.781 E11.71476
G1 X71.806 Y93.079 E11.73076
G1 X72.66 Y93.698 E11.76023
G1 X73.069 Y94.044 E11.7752
G1 X73.358 Y94.365 E11.78726
G1 X74.021 Y95.194 E11.81692
G1 X74.324 Y95.636 E11.83189
G1 X74.511 Y96.007 E11.8435
G1 X74.931 Y96.973 E11.87293
G1 X75.108 Y97.479 E11.88791
G1 X75.196 Y97.913 E11.90028
G1 X75.351 Y99.03 E11.93179
G1 X75.385 Y99.565 E11.94676
G1 X75.346 Y100.055 E11.9605
G1 X75.183 Y101.15 E11.99143
G1 X75.065 Y101.673 E12.0064
G1 X74.888 Y102.134 E12.0202
G1 X74.38 Y103.23 E12.05395
G1 X73.995 Y103.874 E12.07491
G1 X71.696 Y106.943 E12.18205
G1 X68.617 Y111.477 E12.33517
G1 X65.705 Y116.334 E12.49338
G1 X65.396 Y116.772 E12.50836
G1 X65.025 Y117.159 E12.52334
G1 X64.6 Y117.487 E12.53834
G1 X64.132 Y117.749 E12.55332
G1 X63.63 Y117.938 E12.56831
G1 X63.106 Y118.05 E12.58328
G1 X62.62 Y118.083 E12.59689
G1 X53.984 Y118.089 E12.83817
G1 X53.449 Y118.049 E12.85315
G1 X52.926 Y117.931 E12.86813
G1 X52.426 Y117.736 E12.88313
G1 X51.961 Y117.469 E12.89811
G1 X51.541 Y117.136 E12.91308
G1 X51.175 Y116.744 E12.92807
G1 X50.839 Y116.246 E12.94485
G1 X50.177 Y115.063 E12.98272
G1 X47.182 Y110.053 E13.1458
G1 X43.389 Y104.533 E13.33292
G1 X43.239 Y104.296 E13.34076
G1 X41.878 Y101.942 E13.41672
G1 X38.918 Y97.289 E13.5708
G1 X37.391 Y95.1 E13.64536
G1 X35.001 Y91.913 E13.75666
G1 X34.638 Y91.317 E13.77616
G1 X34.122 Y90.247 E13.80935
G1 X33.926 Y89.748 E13.82432
G1 X33.808 Y89.236 E13.839
G1 X33.623 Y88.045 E13.87268
G1 X33.58 Y87.51 E13.88767
G1 X33.612 Y87.015 E13.90153
G1 X33.746 Y86.013 E13.92977
G1 X33.856 Y85.488 E13.94476
G1 X33.983 Y85.125 E13.95551
G1 X34.385 Y84.144 E13.98513
G1 X34.625 Y83.664 E14.00012
G1 X34.862 Y83.315 E14.0119
G1 X35.504 Y82.48 E14.04133
G1 X35.862 Y82.08 E14.05633
G1 X36.181 Y81.807 E14.06806
G1 X37.021 Y81.169 E14.09753
G1 X37.471 Y80.878 E14.1125
G1 X37.847 Y80.699 E14.12414
G0 F1542.9 X37.997 Y81.07
G1 F900 X38.98 Y80.672 E14.15377
G1 X39.462 Y80.52 E14.16789
G1 X39.809 Y80.46 E14.17772
G1 X40.861 Y80.337 E14.20732
G1 X41.367 Y80.318 E14.22146
G1 X41.678 Y80.346 E14.23019
G1 X42.454 Y80.455 E14.25208
G1 X43.097 Y80.615 E14.27059
G1 X44.09 Y80.974 E14.30009
G1 X44.608 Y81.215 E14.31605
G1 X50.69 Y84.745 E14.51252
G1 X55.568 Y87.213 E14.66526
G1 X60.573 Y89.401 E14.81787
G1 X65.731 Y91.315 E14.97158
G1 X70.697 Y92.955 E15.11769
G1 X71.163 Y93.151 E15.13181
G1 X71.571 Y93.403 E15.14521
G1 X72.425 Y94.022 E15.17468
G1 X72.81 Y94.35 E15.18881
G1 X73.046 Y94.614 E15.1987
G1 X73.709 Y95.443 E15.22836
G1 X73.993 Y95.862 E15.2425
G1 X74.145 Y96.166 E15.252
G1 X74.565 Y97.132 E15.28143
G1 X74.729 Y97.61 E15.29555
G1 X74.8 Y97.968 E15.30574
G1 X74.955 Y99.085 E15.33725
G1 X74.984 Y99.59 E15.35138
G1 X74.95 Y99.996 E15.36276
G1 X74.787 Y101.091 E15.39369
G1 X74.673 Y101.584 E15.40783
G1 X74.525 Y101.966 E15.41928
G1 X74.017 Y103.062 E15.45303
G1 X73.675 Y103.635 E15.47167
G1 X71.36 Y106.725 E15.57954
G1 X68.281 Y111.259 E15.73266
G1 X65.362 Y116.128 E15.89127
G1 X65.068 Y116.54 E15.90541
G1 X64.714 Y116.9 E15.91951
G1 X64.307 Y117.2 E15.93364
G1 X63.858 Y117.433 E15.94777
G1 X63.378 Y117.591 E15.96189
G1 X62.879 Y117.672 E15.97601
G1 X62.619 Y117.683 E15.98328
G1 X53.983 Y117.689 E16.22456
G1 X53.479 Y117.649 E16.23869
G1 X52.988 Y117.531 E16.2528
G1 X52.521 Y117.337 E16.26692
G1 X52.091 Y117.071 E16.28105
G1 X51.708 Y116.741 E16.29517
G1 X51.381 Y116.355 E16.30931
G1 X51.188 Y116.051 E16.31937
G1 X50.527 Y114.869 E16.35721
G1 X47.511 Y109.824 E16.52142
G1 X43.719 Y104.306 E16.70848
G1 X43.586 Y104.096 E16.71542
G1 X42.219 Y101.732 E16.79172
G1 X39.259 Y97.078 E16.94581
G1 X37.716 Y94.867 E17.02114
G1 X35.321 Y91.673 E17.13268
G1 X34.999 Y91.143 E17.15
G1 X34.483 Y90.073 E17.18319
G1 X34.3 Y89.602 E17.19731
G1 X34.203 Y89.174 E17.20957
G1 X34.018 Y87.983 E17.24324
G1 X33.98 Y87.479 E17.25737
G1 X34.008 Y87.068 E17.26888
G1 X34.142 Y86.066 E17.29712
G1 X34.249 Y85.572 E17.31124
G1 X34.353 Y85.277 E17.31998
G1 X34.755 Y84.296 E17.3496
G1 X34.983 Y83.844 E17.36374
G1 X35.179 Y83.559 E17.37341
G1 X35.821 Y82.724 E17.40283
G1 X36.16 Y82.348 E17.41698
G1 X36.423 Y82.126 E17.42659
G1 X37.263 Y81.488 E17.45606
G1 X37.688 Y81.215 E17.47018
G1 X37.997 Y81.07 E17.47971
G1 F1200 E12.47971
G0 F1542.9 X39.906 Y83.027
G0 X40.368 Y84.221
G0 X42.752 Y84.969
;TYPE:WALL-INNER
G1 F1200 E17.47971
G1 F900 X42.717 Y84.946 E17.48088
G1 X42.755 Y84.964 E17.4809
G1 X42.79 Y84.993 E17.48217
G1 X42.752 Y84.969
G0 F1542.9 X43.398 Y85.513
G1 F900 X43.363 Y85.476 E17.4836
G1 X43.324 Y85.435 E17.48518
G1 X43.368 Y85.471
G1 X43.398 Y85.513 E17.48519
G0 F1542.9 X43.824 Y86.121
G1 F900 X43.837 Y86.158 E17.48629
G1 X43.819 Y86.125
G1 X43.789 Y86.071 E17.48797
G1 X43.824 Y86.121 E17.48799
G0 F1542.9 X43.793 Y87.831
G0 X43.628 Y88.473
G0 X43.308 Y89.054
G0 X43.052 Y89.326
G0 X41.732 Y90.454
G1 F900 X41.761 Y90.445 E17.48884
G1 X42.451 Y90.221 E17.5091
G1 X43.087 Y89.817 E17.53015
G1 X43.602 Y89.268 E17.55118
G1 X43.693 Y89.103 E17.55645
G1 X43.815 Y88.881 E17.56353
G1 X43.966 Y88.608 E17.57224
G1 X44.008 Y88.444 E17.57697
G1 X43.977 Y88.61 E17.57702
G1 X43.915 Y88.936 E17.57879
G1 X44.041 Y89.155 E17.58364
G1 X49.666 Y98.894 E17.89786
G1 X49.674 Y100.499 E17.9427
G1 X53.792 Y100.499 E18.05775
G1 X53.992 Y100.499 E18.06334
G1 X53.992 Y100.699 E18.06696
G1 X53.991 Y101.499 E18.08931
G1 X47.533 Y101.498 E18.26973
G1 X47.532 Y101.498 E18.26976
G1 X47.332 Y101.498 E18.27535
G1 X47.332 Y101.298 E18.27897
G1 X47.333 Y101.297 E18.27901
G1 X47.337 Y100.862 E18.29116
G1 X41.444 Y90.655 E18.62045
G1 X41.429 Y90.629 E18.62124
G1 X41.42 Y90.614 E18.62173
G1 X40.981 Y90.503 E18.63438
G1 X40.943 Y90.493 E18.63548
G1 X40.981 Y90.5
G1 X41.411 Y90.474 E18.63748
G1 X41.732 Y90.454 E18.64467
G0 F1542.9 X39.271 Y89.802
G1 F900 X39.303 Y89.828 E18.64582
G1 X39.268 Y89.807
G1 X39.24 Y89.776 E18.64698
G1 X39.271 Y89.802
G0 F1542.9 X39.27 Y89.282
G1 F900 X39.774 Y89.698 E18.66524
G1 X40.364 Y89.976 E18.68346
G1 X41.006 Y90.098 E18.70172
G1 X41.657 Y90.058 E18.71994
G1 X42.279 Y89.856 E18.73821
G1 X42.83 Y89.506 E18.75645
G1 X43.276 Y89.031 E18.77465
G1 X43.591 Y88.459 E18.79289
G1 X43.754 Y87.826 E18.81116
G1 X43.754 Y87.173 E18.8294
G1 X43.591 Y86.54 E18.84766
G1 X43.276 Y85.969 E18.86588
G1 X42.83 Y85.492 E18.88413
G1 X42.279 Y85.143 E18.90235
G1 X41.658 Y84.941 E18.92059
G1 X41.006 Y84.9 E18.93884
G1 X40.364 Y85.022 E18.9571
G1 X39.774 Y85.301 E18.97534
G1 X39.27 Y85.716 E18.99358
G1 X38.887 Y86.245 E19.01182
G1 X38.647 Y86.851 E19.03003
G1 X38.564 Y87.499 E19.04828
G1 X38.647 Y88.147 E19.06654
G1 X38.887 Y88.754 E19.08477
G1 X39.27 Y89.282 E19.103
G0 F1542.9 X39.198 Y89.35
G0 X38.852 Y88.773
G0 X38.609 Y88.156
G0 X38.524 Y87.499
G0 X38.609 Y86.842
G0 X38.852 Y86.226
G0 X40.387 Y84.299
G0 X40.364 Y84.202
G1 F900 X41.262 Y84.107 E19.12823
G1 X42.149 Y84.25 E19.15333
G1 X42.969 Y84.622 E19.17848
G1 X43.664 Y85.197 E19.20369
G1 X44.182 Y85.935 E19.22888
G1 X44.487 Y86.782 E19.25403
G1 X44.56 Y87.679 E19.27917
G1 X44.336 Y88.864 E19.31286
G1 X50.066 Y98.787 E19.633
G1 X50.072 Y100.099 E19.66966
G1 X54.192 Y100.099 E19.78476
G1 X54.392 Y100.099 E19.79035
G1 X54.392 Y100.299 E19.79397
G1 X54.391 Y101.899 E19.83867
G1 X46.939 Y101.899 E20.04687
G1 X46.932 Y101.495 E20.05816
G1 X46.936 Y100.968 E20.07288
G1 X41.158 Y90.96 E20.39574
G1 X39.862 Y90.631 E20.4331
G1 X39.011 Y90.119 E20.46085
G1 X38.347 Y89.384 E20.48852
G1 X37.922 Y88.483 E20.51635
G1 X37.775 Y87.491 E20.54437
G1 X37.893 Y86.607 E20.56929
G1 X38.244 Y85.777 E20.59446
G1 X38.801 Y85.066 E20.6197
G1 X39.522 Y84.531 E20.64478
G1 X40.364 Y84.202 E20.67004
G0 F1542.9 X40.267 Y83.81
;TYPE:WALL-OUTER
G1 F900 X41.273 Y83.703 E20.6983
G1 X42.264 Y83.863 E20.72635
G1 X43.183 Y84.28 E20.75454
G1 X43.96 Y84.923 E20.78272
G1 X44.54 Y85.749 E20.81092
G1 X44.882 Y86.698 E20.8391
G1 X44.963 Y87.699 E20.86716
