;FLAVOR:Marlin
;TIME:2424
;Filament used: 2.49834m, 0m
;Layer height: 0.2
;POSTPROCESSED
;Generated with Cura_SteamEngine 3.4.1
T0
M190 S65
M104 S190
M109 S190
M82 ;absolute extrusion mode
; Printer start settings begin
M92 X160 Y160 Z1600; Steps per unit
M201 X1000 Y1000 Z50 E1500 E1500 ; Max Accelleration
M203 X800 Y800 Z2 E90 E90 ; Max Feed
M205 X3.0 Y3.0 Z0.3 E5.0 ; Default Jerk
M851 Z-4.3; Z-4.3 ; PLA

G28
G0 X0 Y0 Z15 F1200
G92 E-35
G1 E0 F200 ;Home
G92 E5
G1 F1000 E0
G29 ;Auto Bed Level
G92 F400 E-5
G1 E0
G0 X0 Y0 Z15.0 F6000 ;Move the platform down 15mm
G92 E0
G1 F200 E3
G92 E0
G92 E0
G1 F1200 E-5
;LAYER_COUNT:51
;LAYER:0
M107
G0 F1542.9 X61.576 Y91.041 Z0.16
;TYPE:SKIRT
G1 F1200 E0
G1 F900 X62.02 Y90.811 E0.01397
G1 X64.206 Y89.821 E0.08102
G1 X69.063 Y87.371 E0.233
G1 X73.719 Y84.683 E0.3832
G1 X78.233 Y81.725 E0.53398
G1 X82.555 Y78.53 E0.68414
G1 X86.702 Y75.085 E0.83477
G1 X90.664 Y71.394 E0.98605
G1 X92.146 Y69.914 E1.04457
G1 X92.612 Y69.505 E1.06189
G1 X93.126 Y69.16 E1.07919
G1 X93.68 Y68.884 E1.09648
G1 X94.266 Y68.682 E1.1138
G1 X94.872 Y68.556 E1.13109
G1 X95.538 Y68.51 E1.14974
G1 X105.461 Y68.51 E1.42697
G1 X106.079 Y68.55 E1.44428
G1 X106.687 Y68.669 E1.46158
G1 X107.274 Y68.866 E1.47888
G1 X107.831 Y69.136 E1.49618
G1 X108.349 Y69.476 E1.51349
G1 X108.82 Y69.881 E1.53084
G1 X113.563 Y74.527 E1.71634
G1 X117.609 Y78.038 E1.866
G1 X121.883 Y81.342 E2.01693
G1 X126.321 Y84.388 E2.16732
G1 X130.925 Y87.178 E2.31772
G1 X135.708 Y89.719 E2.46904
G1 X138.046 Y90.839 E2.54147
G1 X138.586 Y91.142 E2.55877
G1 X138.873 Y91.344 E2.56857
G1 X139.905 Y92.127 E2.60476
G1 X140.374 Y92.532 E2.62208
G1 X140.797 Y93.009 E2.63989
G1 X141.596 Y94.039 E2.67631
G1 X141.943 Y94.552 E2.69361
G1 X142.224 Y95.112 E2.71112
G1 X142.73 Y96.309 E2.74742
G1 X142.934 Y96.894 E2.76473
G1 X143.079 Y97.641 E2.78599
G1 X143.27 Y99.336 E2.83365
G1 X143.3 Y99.88 E2.84887
G1 X143.267 Y121.745 E3.45975
G1 X143.222 Y122.397 E3.47801
G1 X143.08 Y123.422 E3.50692
G1 X142.955 Y124.028 E3.5242
G1 X142.768 Y124.58 E3.54049
G1 X142.272 Y125.793 E3.5771
G1 X142.001 Y126.35 E3.59441
G1 X141.652 Y126.878 E3.61209
G1 X140.871 Y127.907 E3.64818
G1 X140.466 Y128.375 E3.66547
G1 X139.988 Y128.799 E3.68332
G1 X138.948 Y129.605 E3.72008
G1 X138.435 Y129.952 E3.73739
G1 X137.866 Y130.237 E3.75517
G1 X136.68 Y130.735 E3.7911
G1 X136.095 Y130.937 E3.80839
G1 X135.475 Y131.064 E3.82608
G1 X134.149 Y131.246 E3.86347
G1 X133.497 Y131.291 E3.88173
G1 X67.209 Y131.3 E5.73372
G1 X66.784 Y131.281 E5.7456
G1 X64.812 Y131.106 E5.80091
G1 X64.2 Y131.012 E5.81821
G1 X63.418 Y130.767 E5.84111
G1 X62.206 Y130.271 E5.8777
G1 X61.649 Y130 E5.895
G1 X61.122 Y129.652 E5.91265
G1 X60.093 Y128.871 E5.94874
G1 X59.625 Y128.466 E5.96603
G1 X59.201 Y127.989 E5.98386
G1 X58.394 Y126.948 E6.02066
G1 X58.047 Y126.435 E6.03796
G1 X57.762 Y125.863 E6.05582
G1 X57.265 Y124.678 E6.09172
G1 X57.062 Y124.093 E6.10902
G1 X56.925 Y123.392 E6.12897
G1 X56.735 Y121.802 E6.17371
G1 X56.701 Y121.229 E6.18975
G1 X56.713 Y99.463 E6.79786
G1 X56.754 Y98.839 E6.81533
G1 X56.916 Y97.61 E6.84996
G1 X57.037 Y97.002 E6.86728
G1 X57.232 Y96.42 E6.88443
G1 X57.728 Y95.207 E6.92104
G1 X57.999 Y94.65 E6.93835
G1 X58.348 Y94.122 E6.95603
G1 X59.129 Y93.093 E6.99212
G1 X59.534 Y92.625 E7.00942
G1 X60.014 Y92.199 E7.02735
G1 X60.761 Y91.62 E7.05375
G0 F810 X61.063 Y91.387
G0 X61.576 Y91.041
G0 F1542.9 X61.8 Y91.373
G1 F1200 E7.08169
G1 F900 X62.185 Y91.175 E7.09379
G1 X64.392 Y90.175 E7.16148
G1 X69.244 Y87.728 E7.3133
G1 X73.938 Y85.019 E7.46472
G1 X78.453 Y82.06 E7.61554
G1 X82.805 Y78.842 E7.76675
G1 X86.955 Y75.394 E7.9175
G1 X90.966 Y71.659 E8.07062
G1 X92.429 Y70.197 E8.1284
G1 X92.876 Y69.807 E8.14498
G1 X93.371 Y69.481 E8.16154
G1 X93.905 Y69.224 E8.17809
G1 X94.47 Y69.042 E8.19468
G1 X95.053 Y68.937 E8.21123
G1 X95.538 Y68.91 E8.2248
G1 X105.461 Y68.91 E8.50203
G1 X106.053 Y68.95 E8.51861
G1 X106.633 Y69.069 E8.53515
G1 X107.193 Y69.265 E8.55173
G1 X107.721 Y69.535 E8.5683
G1 X108.208 Y69.873 E8.58486
G1 X108.54 Y70.167 E8.59725
G1 X113.287 Y74.816 E8.78288
G1 X117.367 Y78.357 E8.93381
G1 X121.638 Y81.658 E9.08463
G1 X126.101 Y84.722 E9.23587
G1 X130.73 Y87.527 E9.38709
G1 X135.536 Y90.08 E9.53913
G1 X137.873 Y91.2 E9.61154
G1 X138.632 Y91.663 E9.63637
G1 X139.664 Y92.446 E9.67257
G1 X140.111 Y92.835 E9.68912
G1 X140.481 Y93.254 E9.70474
G1 X141.28 Y94.284 E9.74116
G1 X141.611 Y94.776 E9.75773
G1 X141.856 Y95.268 E9.77308
G1 X142.362 Y96.465 E9.80939
G1 X142.555 Y97.025 E9.82594
G1 X142.681 Y97.685 E9.84471
G1 X142.872 Y99.38 E9.89237
G1 X142.9 Y99.88 E9.90636
G1 X142.867 Y121.745 E10.51723
G1 X142.825 Y122.342 E10.53395
G1 X142.683 Y123.367 E10.56286
G1 X142.563 Y123.947 E10.57941
G1 X142.398 Y124.428 E10.59362
G1 X141.902 Y125.641 E10.63023
G1 X141.641 Y126.174 E10.64681
G1 X141.334 Y126.636 E10.66231
G1 X140.553 Y127.665 E10.6984
G1 X140.163 Y128.112 E10.71498
G1 X139.743 Y128.483 E10.73063
G1 X138.703 Y129.289 E10.76739
G1 X138.211 Y129.62 E10.78396
G1 X137.711 Y129.868 E10.79955
G1 X136.525 Y130.366 E10.83549
G1 X135.965 Y130.558 E10.85203
G1 X135.42 Y130.668 E10.86756
G1 X134.094 Y130.85 E10.90496
G1 X133.497 Y130.891 E10.92168
G1 X67.209 Y130.9 E12.77366
G1 X66.819 Y130.883 E12.78457
G1 X64.847 Y130.708 E12.83988
G1 X64.261 Y130.616 E12.85645
G1 X63.569 Y130.397 E12.87673
G1 X62.357 Y129.901 E12.91332
G1 X61.825 Y129.64 E12.92988
G1 X61.364 Y129.334 E12.94534
G1 X60.335 Y128.553 E12.98143
G1 X59.888 Y128.163 E12.998
G1 X59.518 Y127.744 E13.01362
G1 X58.711 Y126.703 E13.05042
G1 X58.38 Y126.211 E13.06698
G1 X58.13 Y125.709 E13.08265
G1 X57.633 Y124.524 E13.11855
G1 X57.441 Y123.963 E13.13512
G1 X57.322 Y123.344 E13.15273
G1 X57.132 Y121.754 E13.19747
G1 X57.101 Y121.23 E13.21213
G1 X57.113 Y99.464 E13.82024
G1 X57.151 Y98.891 E13.83629
G1 X57.313 Y97.662 E13.87092
G1 X57.43 Y97.081 E13.88748
G1 X57.602 Y96.572 E13.90249
G1 X58.098 Y95.359 E13.9391
G1 X58.359 Y94.826 E13.95568
G1 X58.666 Y94.364 E13.97118
G1 X59.447 Y93.335 E14.00727
G1 X59.837 Y92.888 E14.02385
G1 X60.259 Y92.516 E14.03956
G1 X60.986 Y91.953 E14.06525
G0 F810 X61.308 Y91.704
G0 X61.8 Y91.373
G0 F1542.9 X62.023 Y91.706
G1 F1200 E14.09319
G1 F900 X62.35 Y91.539 E14.10345
G1 X64.587 Y90.525 E14.17207
G1 X69.431 Y88.082 E14.32364
G1 X74.139 Y85.365 E14.47551
G1 X78.688 Y82.384 E14.62746
G1 X83.043 Y79.164 E14.77878
G1 X87.229 Y75.686 E14.93083
G1 X91.224 Y71.966 E15.08334
G1 X92.711 Y70.48 E15.14207
G1 X93.139 Y70.11 E15.15788
G1 X93.614 Y69.803 E15.17368
G1 X94.127 Y69.567 E15.18945
G1 X94.669 Y69.405 E15.20526
G1 X95.228 Y69.322 E15.22105
G1 X95.538 Y69.31 E15.22972
G1 X105.461 Y69.31 E15.50695
G1 X106.025 Y69.35 E15.52275
G1 X106.578 Y69.469 E15.53855
G1 X107.108 Y69.665 E15.55434
G1 X107.605 Y69.933 E15.57011
G1 X108.26 Y70.453 E15.59348
G1 X113.01 Y75.106 E15.77925
G1 X117.114 Y78.667 E15.93105
G1 X121.412 Y81.989 E16.08282
G1 X125.88 Y85.056 E16.23423
G1 X130.527 Y87.872 E16.38604
G1 X135.354 Y90.437 E16.53876
G1 X137.701 Y91.561 E16.61146
G1 X138.39 Y91.981 E16.634
G1 X139.422 Y92.764 E16.6702
G1 X139.847 Y93.137 E16.68599
G1 X140.165 Y93.499 E16.69946
G1 X140.964 Y94.529 E16.73588
G1 X141.278 Y94.999 E16.75167
G1 X141.487 Y95.424 E16.7649
G1 X141.993 Y96.621 E16.80121
G1 X142.176 Y97.156 E16.817
G1 X142.284 Y97.73 E16.83332
G1 X142.475 Y99.425 E16.88098
G1 X142.5 Y99.879 E16.89368
G1 X142.467 Y121.744 E17.50456
G1 X142.429 Y122.287 E17.51977
G1 X142.287 Y123.312 E17.54868
G1 X142.17 Y123.865 E17.56447
G1 X142.027 Y124.277 E17.57665
G1 X141.531 Y125.49 E17.61327
G1 X141.281 Y125.997 E17.62906
G1 X141.015 Y126.394 E17.64241
G1 X140.234 Y127.423 E17.6785
G1 X139.861 Y127.848 E17.6943
G1 X139.498 Y128.167 E17.7078
G1 X138.458 Y128.973 E17.74456
G1 X137.988 Y129.287 E17.76035
G1 X137.557 Y129.499 E17.77377
G1 X136.371 Y129.997 E17.80971
G1 X135.835 Y130.179 E17.82552
G1 X135.366 Y130.272 E17.83888
G1 X134.04 Y130.454 E17.87628
G1 X133.497 Y130.491 E17.89148
G1 X67.209 Y130.5 E19.74347
G1 X66.854 Y130.484 E19.7534
G1 X64.882 Y130.309 E19.80871
G1 X64.324 Y130.22 E19.8245
G1 X63.721 Y130.027 E19.84219
G1 X62.509 Y129.531 E19.87877
G1 X62.002 Y129.28 E19.89458
G1 X61.606 Y129.015 E19.90789
G1 X60.577 Y128.234 E19.94398
G1 X60.152 Y127.861 E19.95978
G1 X59.834 Y127.499 E19.97324
G1 X59.027 Y126.458 E20.01004
G1 X58.713 Y125.988 E20.02583
G1 X58.499 Y125.554 E20.03935
G1 X58.002 Y124.369 E20.07526
G1 X57.821 Y123.834 E20.09103
G1 X57.719 Y123.297 E20.10631
G1 X57.529 Y121.707 E20.15104
G1 X57.501 Y121.23 E20.16439
G1 X57.513 Y99.464 E20.7725
G1 X57.547 Y98.943 E20.78709
G1 X57.709 Y97.714 E20.82172
G1 X57.823 Y97.16 E20.83753
G1 X57.973 Y96.723 E20.85043
G1 X58.469 Y95.51 E20.88705
G1 X58.719 Y95.003 E20.90284
G1 X58.985 Y94.606 E20.91619
G1 X59.766 Y93.577 E20.95228
G1 X60.139 Y93.152 E20.96808
G1 X60.504 Y92.832 E20.98164
G1 X61.209 Y92.286 E21.00656
G0 F810 X61.553 Y92.02
G0 X62.023 Y91.706
G0 F1542.9 X62.245 Y92.04
G1 F1200 E21.03449
G1 F900 X62.515 Y91.904 E21.04294
G1 X64.744 Y90.894 E21.11131
G1 X69.618 Y88.436 E21.26382
G1 X74.357 Y85.7 E21.4167
G1 X78.908 Y82.718 E21.56871
G1 X83.293 Y79.476 E21.72107
G1 X87.492 Y75.987 E21.8736
G1 X91.51 Y72.245 E22.027
G1 X92.994 Y70.763 E22.08559
G1 X93.401 Y70.413 E22.10059
G1 X93.855 Y70.128 E22.11557
G1 X94.346 Y69.913 E22.13054
G1 X94.864 Y69.774 E22.14553
G1 X95.538 Y69.71 E22.16444
G1 X105.461 Y69.71 E22.44167
G1 X105.996 Y69.75 E22.45666
G1 X106.519 Y69.869 E22.47165
G1 X107.018 Y70.064 E22.48662
G1 X107.483 Y70.332 E22.50161
G1 X107.98 Y70.738 E22.51954
G1 X112.75 Y75.411 E22.7061
G1 X116.854 Y78.972 E22.85791
G1 X121.17 Y82.308 E23.01031
G1 X125.66 Y85.39 E23.16246
G1 X130.338 Y88.226 E23.3153
G1 X135.154 Y90.783 E23.46764
G1 X137.528 Y91.921 E23.5412
G1 X138.148 Y92.3 E23.5615
G1 X139.18 Y93.083 E23.59769
G1 X139.582 Y93.438 E23.61267
G1 X139.848 Y93.744 E23.624
G1 X140.647 Y94.774 E23.66042
G1 X140.944 Y95.221 E23.67542
G1 X141.119 Y95.579 E23.68655
G1 X141.625 Y96.776 E23.72286
G1 X141.796 Y97.284 E23.73783
G1 X141.886 Y97.775 E23.75178
G1 X142.077 Y99.47 E23.79943
G1 X142.1 Y99.878 E23.81085
G1 X142.067 Y121.743 E24.42173
G1 X142.033 Y122.232 E24.43542
G1 X141.891 Y123.257 E24.46433
G1 X141.778 Y123.781 E24.47931
G1 X141.657 Y124.126 E24.48952
G1 X141.161 Y125.339 E24.52614
G1 X140.922 Y125.818 E24.54109
G1 X140.697 Y126.152 E24.55234
G1 X139.916 Y127.181 E24.58843
G1 X139.56 Y127.583 E24.60344
G1 X139.253 Y127.85 E24.6148
G1 X138.213 Y128.656 E24.65156
G1 X137.766 Y128.953 E24.66656
G1 X137.402 Y129.13 E24.67787
G1 X136.216 Y129.628 E24.7138
G1 X135.707 Y129.798 E24.7288
G1 X135.312 Y129.876 E24.74005
G1 X133.986 Y130.058 E24.77744
G1 X133.496 Y130.091 E24.79116
G1 X67.208 Y130.1 E26.64315
G1 X66.89 Y130.086 E26.65204
G1 X64.918 Y129.911 E26.70735
G1 X64.389 Y129.824 E26.72233
G1 X63.872 Y129.657 E26.73751
G1 X62.66 Y129.161 E26.7741
G1 X62.181 Y128.921 E26.78907
G1 X61.848 Y128.697 E26.80028
G1 X60.819 Y127.916 E26.83637
G1 X60.417 Y127.56 E26.85137
G1 X60.15 Y127.254 E26.86272
G1 X59.343 Y126.213 E26.89952
G1 X59.047 Y125.766 E26.9145
G1 X58.868 Y125.399 E26.9259
G1 X58.371 Y124.214 E26.96181
G1 X58.201 Y123.706 E26.97677
G1 X58.116 Y123.249 E26.98976
G1 X57.926 Y121.659 E27.0345
G1 X57.901 Y121.23 E27.0465
G1 X57.913 Y99.464 E27.65461
G1 X57.944 Y98.996 E27.66772
G1 X58.106 Y97.767 E27.70235
G1 X58.215 Y97.242 E27.71733
G1 X58.343 Y96.874 E27.72822
G1 X58.839 Y95.661 E27.76483
G1 X59.078 Y95.182 E27.77979
G1 X59.303 Y94.848 E27.79104
G1 X60.084 Y93.819 E27.82713
G1 X60.44 Y93.417 E27.84213
G1 X60.748 Y93.148 E27.85356
G1 X61.43 Y92.62 E27.87765
G0 F810 X61.797 Y92.336
G0 X62.245 Y92.04
G0 F1542.9 X62.68 Y92.268
G1 F1200 E27.90559
G1 F900 X64.92 Y91.253 E27.9743
G1 X69.82 Y88.782 E28.12762
G1 X74.55 Y86.051 E28.28021
G1 X79.143 Y83.042 E28.43362
G1 X83.55 Y79.783 E28.58675
G1 X87.747 Y76.296 E28.7392
G1 X91.798 Y72.523 E28.89387
G1 X93.277 Y71.046 E28.95226
G1 X93.662 Y70.718 E28.9664
G1 X94.093 Y70.455 E28.9805
G1 X94.561 Y70.263 E28.99463
G1 X95.053 Y70.147 E29.00876
G1 X95.538 Y70.11 E29.02235
G1 X105.461 Y70.11 E29.29958
G1 X105.965 Y70.15 E29.31371
G1 X106.456 Y70.269 E29.32782
G1 X106.923 Y70.463 E29.34195
G1 X107.353 Y70.729 E29.35608
G1 X107.7 Y71.024 E29.3688
G1 X112.473 Y75.7 E29.55548
G1 X116.601 Y79.282 E29.70818
G1 X120.941 Y82.636 E29.86142
G1 X125.44 Y85.724 E30.01387
G1 X130.143 Y88.575 E30.16753
G1 X134.981 Y91.145 E30.32058
G1 X137.355 Y92.282 E30.39412
G1 X137.906 Y92.619 E30.41217
G1 X138.938 Y93.402 E30.44836
G1 X139.316 Y93.738 E30.46249
G1 X139.532 Y93.99 E30.47176
G1 X140.331 Y95.02 E30.50818
G1 X140.609 Y95.442 E30.5223
G1 X140.75 Y95.735 E30.53138
G1 X141.256 Y96.932 E30.56769
G1 X141.416 Y97.412 E30.58183
G1 X141.489 Y97.82 E30.59341
G1 X141.68 Y99.515 E30.64106
G1 X141.7 Y99.878 E30.65122
G1 X141.667 Y121.743 E31.2621
G1 X141.637 Y122.177 E31.27425
G1 X141.495 Y123.202 E31.30316
G1 X141.386 Y123.696 E31.31729
G1 X141.287 Y123.974 E31.32554
G1 X140.791 Y125.187 E31.36215
G1 X140.563 Y125.639 E31.3763
G1 X140.378 Y125.911 E31.38549
G1 X139.597 Y126.94 E31.42158
G1 X139.26 Y127.317 E31.43571
G1 X139.008 Y127.534 E31.445
G1 X137.968 Y128.34 E31.48176
G1 X137.545 Y128.617 E31.49588
G1 X137.247 Y128.761 E31.50513
G1 X136.061 Y129.259 E31.54107
G1 X135.581 Y129.418 E31.55519
G1 X135.257 Y129.479 E31.56441
G1 X133.931 Y129.661 E31.6018
G1 X133.496 Y129.691 E31.61398
G1 X67.208 Y129.7 E33.46597
G1 X66.925 Y129.687 E33.47389
G1 X64.953 Y129.512 E33.5292
G1 X64.455 Y129.428 E33.54331
G1 X64.024 Y129.287 E33.55598
G1 X62.812 Y128.791 E33.59256
G1 X62.361 Y128.563 E33.60668
G1 X62.089 Y128.378 E33.61587
G1 X61.06 Y127.597 E33.65196
G1 X60.683 Y127.26 E33.66609
G1 X60.466 Y127.009 E33.67536
G1 X59.659 Y125.968 E33.71216
G1 X59.382 Y125.545 E33.72629
G1 X59.237 Y125.245 E33.7356
G1 X58.74 Y124.06 E33.7715
G1 X58.582 Y123.579 E33.78564
G1 X58.514 Y123.202 E33.79635
G1 X58.324 Y121.612 E33.84108
G1 X58.301 Y121.23 E33.85178
G1 X58.313 Y99.464 E34.45989
G1 X58.34 Y99.048 E34.47153
G1 X58.502 Y97.819 E34.50617
G1 X58.608 Y97.324 E34.52031
G1 X58.713 Y97.026 E34.52914
G1 X59.209 Y95.813 E34.56575
G1 X59.437 Y95.361 E34.57989
G1 X59.622 Y95.089 E34.58908
G1 X60.403 Y94.06 E34.62518
G1 X60.74 Y93.683 E34.6393
G1 X60.993 Y93.465 E34.64863
G1 X61.841 Y92.809 E34.67859
G0 F810 X62.042 Y92.653
G0 X62.68 Y92.268
G0 F1542.9 X95.5 Y93.5
;TYPE:SUPPORT
G1 F1200 E34.70653
G1 F900 X95.5 Y73.616 E35.26205
G1 X95.616 Y73.5 E35.26664
G1 X105.384 Y73.5 E35.53954
G1 X105.5 Y73.616 E35.54412
G1 X105.5 Y93.5 E36.09965
G1 X96.5 Y93.5 E36.3511
G0 F810 X95.5 Y93.5
G0 F1542.9 X95.66 Y93.31
G1 F1200 E36.37904
G1 F900 X105.34 Y93.31 E36.64948
G0 F1542.9 X103.974 Y93.34
G1 F900 X103.974 Y73.66 E37.19931
G0 F1542.9 X105.34 Y74.648
G1 F900 X95.66 Y74.648 E37.46976
G0 F1542.9 X95.976 Y73.66
G1 F900 X95.976 Y93.34 E38.01959
G0 F1542.9 X98.642 Y93.34
G1 F900 X98.642 Y73.66 E38.56942
G0 F1542.9 X101.308 Y73.66
G1 F900 X101.308 Y93.34 E39.11925
G0 F1542.9 X105.34 Y90.644
G1 F900 X95.66 Y90.644 E39.38969
G0 F1542.9 X95.66 Y87.978
G1 F900 X105.34 Y87.978 E39.66014
G0 F1542.9 X105.34 Y85.312
G1 F900 X95.66 Y85.312 E39.93058
G0 F1542.9 X95.66 Y82.646
G1 F900 X105.34 Y82.646 E40.20103
G0 F1542.9 X105.34 Y79.98
G1 F900 X95.66 Y79.98 E40.47147
G0 F1542.9 X95.66 Y77.314
G1 F900 X105.34 Y77.314 E40.74192
G1 F1200 E35.74192
G0 F1542.9 X105.34 Y93.835
G0 X105.34 Y95.12
G0 X112 Y98.5
;TYPE:WALL-INNER
G1 F1200 E40.74192
G1 F900 X112 Y105.5 E40.93749
G1 X130 Y105.5 E41.44038
G1 X130 Y98.5 E41.63595
G1 X113 Y98.5 E42.1109
G0 F810 X112 Y98.5
G0 F1542.9 X112.372 Y105.128
G0 X114.815 Y109.277
G1 F1200 E42.13884
G1 F900 X114.549 Y108.6 E42.15916
G1 X114.12 Y108.009 E42.17957
G1 X113.558 Y107.546 E42.19991
G1 X112.899 Y107.233 E42.22029
G1 X112.182 Y107.099 E42.24067
G1 X111.455 Y107.144 E42.26102
G1 X110.761 Y107.369 E42.28141
G1 X110.147 Y107.759 E42.30173
G1 X109.648 Y108.29 E42.32209
G1 X109.296 Y108.931 E42.34252
G1 X109.115 Y109.635 E42.36283
G1 X109.115 Y110.365 E42.38322
G1 X109.296 Y111.069 E42.40353
G1 X109.648 Y111.71 E42.42396
G1 X110.147 Y112.241 E42.44432
