;FLAVOR:Marlin
;TIME:2432
;Filament used: 2.49953m, 0m
;Layer height: 0.2
;POSTPROCESSED
;Generated with Cura_SteamEngine 3.4.1
T0
M190 S65
M104 S190
M109 S190
M82 ;absolute extrusion mode
; Printer start settings begin
M92 X160 Y160 Z1600; Steps per unit
M201 X1000 Y1000 Z50 E1500 E1500 ; Max Accelleration
M203 X800 Y800 Z2 E90 E90 ; Max Feed
M205 X3.0 Y3.0 Z0.3 E5.0 ; Default Jerk
M851 Z-4.3; Z-4.3 ; PLA

G28
G0 X0 Y0 Z15 F1200
G92 E-35
G1 E0 F200 ;Home
G92 E5
G1 F1000 E0
G29 ;Auto Bed Level
G92 F400 E-5
G1 E0
G0 X0 Y0 Z15.0 F6000 ;Move the platform down 15mm
G92 E0
G1 F200 E3
G92 E0
G92 E0
G1 F1200 E-5
;LAYER_COUNT:51
;LAYER:0
M107
G0 F1542.9 X60.012 Y71.201 Z0.16
;TYPE:SKIRT
G1 F1200 E0
G1 F900 X61.052 Y70.395 E0.03676
G1 X61.565 Y70.048 E0.05406
G1 X62.134 Y69.763 E0.07184
G1 X63.32 Y69.265 E0.10778
G1 X63.905 Y69.063 E0.12507
G1 X64.609 Y68.925 E0.14512
G1 X66.2 Y68.735 E0.18988
G1 X66.771 Y68.701 E0.20586
G1 X133.74 Y68.733 E2.07688
G1 X134.396 Y68.778 E2.09525
G1 X135.422 Y68.92 E2.12419
G1 X136.029 Y69.045 E2.1415
G1 X136.58 Y69.232 E2.15776
G1 X137.791 Y69.727 E2.19431
G1 X138.348 Y69.998 E2.21161
G1 X138.877 Y70.347 E2.22932
G1 X139.906 Y71.128 E2.26541
G1 X140.374 Y71.533 E2.2827
G1 X140.797 Y72.009 E2.30049
G1 X141.596 Y73.039 E2.33691
G1 X141.943 Y73.552 E2.35422
G1 X142.224 Y74.112 E2.37172
G1 X142.73 Y75.309 E2.40803
G1 X142.934 Y75.894 E2.42534
G1 X143.079 Y76.641 E2.4466
G1 X143.27 Y78.336 E2.49425
G1 X143.3 Y78.88 E2.50948
G1 X143.267 Y100.745 E3.12035
G1 X143.222 Y101.397 E3.13861
G1 X143.08 Y102.422 E3.16752
G1 X142.955 Y103.028 E3.18481
G1 X142.768 Y103.58 E3.20109
G1 X142.272 Y104.793 E3.2377
G1 X142.001 Y105.35 E3.25501
G1 X141.652 Y105.878 E3.27269
G1 X140.871 Y106.907 E3.30878
G1 X140.466 Y107.375 E3.32608
G1 X139.986 Y107.801 E3.34401
G1 X138.937 Y108.613 E3.38107
G1 X138.159 Y109.104 E3.40677
G1 X132.421 Y111.995 E3.58628
G1 X127.775 Y114.698 E3.73645
G1 X123.29 Y117.659 E3.8866
G1 X118.97 Y120.876 E4.03708
G1 X114.811 Y124.353 E4.18854
G1 X112.863 Y126.128 E4.26217
G1 X108.833 Y130.106 E4.42037
G1 X108.365 Y130.512 E4.43768
G1 X107.849 Y130.854 E4.45498
G1 X107.293 Y131.127 E4.47228
G1 X106.706 Y131.326 E4.4896
G1 X106.099 Y131.447 E4.50689
G1 X105.461 Y131.49 E4.52476
G1 X95.543 Y131.49 E4.80185
G1 X94.925 Y131.45 E4.81915
G1 X94.317 Y131.331 E4.83646
G1 X93.73 Y131.134 E4.85376
G1 X93.173 Y130.864 E4.87106
G1 X92.655 Y130.524 E4.88837
G1 X92.158 Y130.093 E4.90675
G1 X90.234 Y128.179 E4.98257
G1 X86.239 Y124.508 E5.13415
G1 X82.071 Y121.093 E5.28469
G1 X77.725 Y117.924 E5.43496
G1 X73.211 Y115.009 E5.58509
G1 X68.517 Y112.34 E5.73595
G1 X63.647 Y109.926 E5.88781
G1 X62.055 Y109.208 E5.9366
G1 X61.508 Y108.917 E5.95391
G1 X61.126 Y108.656 E5.96684
G1 X60.093 Y107.872 E6.00307
G1 X59.625 Y107.466 E6.02038
G1 X59.201 Y106.989 E6.03821
G1 X58.394 Y105.948 E6.07501
G1 X58.047 Y105.435 E6.09231
G1 X57.762 Y104.863 E6.11017
G1 X57.265 Y103.678 E6.14607
G1 X57.062 Y103.093 E6.16337
G1 X56.925 Y102.392 E6.18332
G1 X56.735 Y100.802 E6.22806
G1 X56.701 Y100.229 E6.2441
G1 X56.713 Y78.463 E6.85221
G1 X56.754 Y77.839 E6.86968
G1 X56.916 Y76.61 E6.90431
G1 X57.037 Y76.002 E6.92163
G1 X57.232 Y75.42 E6.93878
G1 X57.728 Y74.207 E6.97539
G1 X57.999 Y73.65 E6.9927
G1 X58.348 Y73.122 E7.01038
G1 X59.129 Y72.093 E7.04647
G1 X59.297 Y71.899 E7.05364
G0 F810 X59.534 Y71.625
G0 X60.012 Y71.201
G0 F1542.9 X60.257 Y71.517
G1 F1200 E7.08158
G1 F900 X61.297 Y70.711 E7.11834
G1 X61.789 Y70.38 E7.13491
G1 X62.289 Y70.132 E7.1505
G1 X63.475 Y69.634 E7.18644
G1 X64.035 Y69.442 E7.20298
G1 X64.656 Y69.322 E7.22065
G1 X66.247 Y69.132 E7.26542
G1 X66.771 Y69.101 E7.28008
G1 X133.74 Y69.133 E9.1511
G1 X134.341 Y69.175 E9.16793
G1 X135.367 Y69.317 E9.19687
G1 X135.948 Y69.437 E9.21344
G1 X136.429 Y69.602 E9.22765
G1 X137.64 Y70.097 E9.2642
G1 X138.172 Y70.358 E9.28076
G1 X138.635 Y70.665 E9.29628
G1 X139.664 Y71.446 E9.33237
G1 X140.111 Y71.836 E9.34894
G1 X140.481 Y72.254 E9.36454
G1 X141.28 Y73.284 E9.40096
G1 X141.611 Y73.776 E9.41752
G1 X141.856 Y74.268 E9.43288
G1 X142.362 Y75.465 E9.46919
G1 X142.555 Y76.025 E9.48574
G1 X142.681 Y76.685 E9.50451
G1 X142.872 Y78.38 E9.55216
G1 X142.9 Y78.88 E9.56616
G1 X142.867 Y100.745 E10.17703
G1 X142.825 Y101.342 E10.19375
G1 X142.683 Y102.367 E10.22266
G1 X142.563 Y102.947 E10.23921
G1 X142.398 Y103.428 E10.25342
G1 X141.902 Y104.641 E10.29003
G1 X141.641 Y105.174 E10.30661
G1 X141.334 Y105.636 E10.32211
G1 X140.553 Y106.665 E10.3582
G1 X140.163 Y107.112 E10.37477
G1 X139.741 Y107.484 E10.39049
G1 X138.692 Y108.296 E10.42755
G1 X137.979 Y108.746 E10.45111
G1 X132.239 Y111.638 E10.63068
G1 X127.567 Y114.356 E10.78169
G1 X123.056 Y117.333 E10.93269
G1 X118.72 Y120.563 E11.08375
G1 X114.555 Y124.045 E11.23542
G1 X112.583 Y125.842 E11.30996
G1 X108.552 Y129.821 E11.46821
G1 X108.103 Y130.209 E11.48479
G1 X107.606 Y130.532 E11.50135
G1 X107.07 Y130.785 E11.51791
G1 X106.504 Y130.964 E11.53449
G1 X105.92 Y131.066 E11.55105
G1 X105.461 Y131.09 E11.5639
G1 X95.543 Y131.09 E11.84099
G1 X94.951 Y131.05 E11.85757
G1 X94.371 Y130.931 E11.87411
G1 X93.811 Y130.735 E11.89068
G1 X93.283 Y130.465 E11.90725
G1 X92.796 Y130.127 E11.92382
G1 X92.44 Y129.81 E11.93713
G1 X90.504 Y127.885 E12.01341
G1 X86.499 Y124.205 E12.16537
G1 X82.315 Y120.776 E12.3165
G1 X77.952 Y117.594 E12.46737
G1 X73.413 Y114.663 E12.61833
G1 X68.7 Y111.983 E12.7698
G1 X63.822 Y109.565 E12.92191
G1 X62.22 Y108.843 E12.971
G1 X61.697 Y108.564 E12.98756
G1 X61.368 Y108.337 E12.99873
G1 X60.335 Y107.553 E13.03496
G1 X59.888 Y107.163 E13.05154
G1 X59.518 Y106.744 E13.06715
G1 X58.711 Y105.703 E13.10395
G1 X58.38 Y105.211 E13.12052
G1 X58.13 Y104.709 E13.13619
G1 X57.633 Y103.524 E13.17209
G1 X57.441 Y102.963 E13.18866
G1 X57.322 Y102.344 E13.20627
G1 X57.132 Y100.754 E13.251
G1 X57.101 Y100.23 E13.26567
G1 X57.113 Y78.464 E13.87378
G1 X57.151 Y77.891 E13.88982
G1 X57.313 Y76.662 E13.92446
G1 X57.43 Y76.081 E13.94101
G1 X57.602 Y75.572 E13.95603
G1 X58.098 Y74.359 E13.99264
G1 X58.359 Y73.826 E14.00922
G1 X58.666 Y73.364 E14.02472
G1 X59.447 Y72.335 E14.06081
G1 X59.548 Y72.219 E14.06511
G0 F810 X59.837 Y71.888
G0 X60.257 Y71.517
G0 F1542.9 X60.502 Y71.833
G1 F1200 E14.09304
G1 F900 X61.542 Y71.027 E14.1298
G1 X62.012 Y70.713 E14.1456
G1 X62.443 Y70.501 E14.15902
G1 X63.629 Y70.003 E14.19495
G1 X64.165 Y69.821 E14.21077
G1 X64.704 Y69.719 E14.22609
G1 X66.295 Y69.529 E14.27086
G1 X66.771 Y69.501 E14.28418
G1 X133.74 Y69.533 E16.1552
G1 X134.286 Y69.571 E16.17049
G1 X135.312 Y69.713 E16.19943
G1 X135.865 Y69.83 E16.21522
G1 X136.277 Y69.972 E16.22739
G1 X137.488 Y70.467 E16.26394
G1 X137.995 Y70.718 E16.27975
G1 X138.393 Y70.984 E16.29312
G1 X139.422 Y71.765 E16.32922
G1 X139.847 Y72.138 E16.34501
G1 X140.165 Y72.499 E16.35845
G1 X140.964 Y73.529 E16.39487
G1 X141.278 Y73.999 E16.41067
G1 X141.487 Y74.424 E16.4239
G1 X141.993 Y75.621 E16.46021
G1 X142.176 Y76.156 E16.476
G1 X142.284 Y76.73 E16.49232
G1 X142.475 Y78.425 E16.53998
G1 X142.5 Y78.879 E16.55268
G1 X142.467 Y100.744 E17.16356
G1 X142.429 Y101.287 E17.17876
G1 X142.287 Y102.312 E17.20768
G1 X142.17 Y102.865 E17.22347
G1 X142.027 Y103.277 E17.23565
G1 X141.531 Y104.49 E17.27226
G1 X141.281 Y104.997 E17.28806
G1 X141.015 Y105.394 E17.30141
G1 X140.234 Y106.423 E17.3375
G1 X139.861 Y106.848 E17.3533
G1 X139.496 Y107.168 E17.36686
G1 X138.447 Y107.98 E17.40392
G1 X137.799 Y108.389 E17.42533
G1 X132.043 Y111.289 E17.6054
G1 X127.35 Y114.019 E17.75709
G1 X122.831 Y117.003 E17.90838
G1 X118.478 Y120.244 E18.06001
G1 X114.276 Y123.757 E18.21303
G1 X112.328 Y125.533 E18.28668
G1 X108.271 Y129.537 E18.44593
G1 X107.842 Y129.904 E18.4617
G1 X107.365 Y130.208 E18.4775
G1 X106.85 Y130.441 E18.4933
G1 X106.307 Y130.6 E18.5091
G1 X105.747 Y130.68 E18.52491
G1 X105.461 Y130.69 E18.5329
G1 X95.543 Y130.69 E18.81
G1 X94.979 Y130.65 E18.8258
G1 X94.426 Y130.531 E18.8416
G1 X93.896 Y130.335 E18.85739
G1 X93.399 Y130.067 E18.87316
G1 X92.944 Y129.731 E18.88896
G1 X92.722 Y129.526 E18.89741
G1 X90.774 Y127.589 E18.97416
G1 X86.777 Y123.916 E19.12582
G1 X82.559 Y120.459 E19.27818
G1 X78.171 Y117.259 E19.42992
G1 X73.614 Y114.317 E19.58146
G1 X68.897 Y111.634 E19.73307
G1 X64.007 Y109.211 E19.88554
G1 X62.384 Y108.479 E19.93529
G1 X61.886 Y108.21 E19.9511
G1 X61.61 Y108.018 E19.96049
G1 X60.577 Y107.234 E19.99672
G1 X60.152 Y106.862 E20.0125
G1 X59.834 Y106.499 E20.02599
G1 X59.027 Y105.458 E20.06279
G1 X58.713 Y104.988 E20.07858
G1 X58.499 Y104.554 E20.0921
G1 X58.002 Y103.369 E20.128
G1 X57.821 Y102.834 E20.14378
G1 X57.719 Y102.297 E20.15905
G1 X57.529 Y100.707 E20.20379
G1 X57.501 Y100.23 E20.21714
G1 X57.513 Y78.464 E20.82525
G1 X57.547 Y77.943 E20.83983
G1 X57.709 Y76.714 E20.87447
G1 X57.823 Y76.16 E20.89027
G1 X57.973 Y75.723 E20.90318
G1 X58.469 Y74.51 E20.93979
G1 X58.719 Y74.003 E20.95558
G1 X58.985 Y73.606 E20.96893
G1 X59.766 Y72.577 E21.00503
G1 X59.798 Y72.54 E21.00639
G0 F810 X60.139 Y72.152
G0 X60.502 Y71.833
G0 F1542.9 X60.747 Y72.15
G1 F1200 E21.03433
G1 F900 X61.787 Y71.344 E21.07109
G1 X62.234 Y71.047 E21.08609
G1 X62.598 Y70.87 E21.09739
G1 X63.784 Y70.372 E21.13333
G1 X64.293 Y70.202 E21.14832
G1 X64.751 Y70.116 E21.16134
G1 X66.342 Y69.926 E21.20611
G1 X66.771 Y69.901 E21.21812
G1 X133.74 Y69.933 E23.08913
G1 X134.232 Y69.967 E23.10291
G1 X135.258 Y70.109 E23.13185
G1 X135.782 Y70.222 E23.14682
G1 X136.126 Y70.343 E23.15701
G1 X137.337 Y70.838 E23.19356
G1 X137.817 Y71.077 E23.20854
G1 X138.151 Y71.302 E23.21979
G1 X139.18 Y72.083 E23.25589
G1 X139.582 Y72.439 E23.27089
G1 X139.848 Y72.744 E23.2822
G1 X140.647 Y73.774 E23.31862
G1 X140.944 Y74.221 E23.33361
G1 X141.119 Y74.579 E23.34474
G1 X141.625 Y75.776 E23.38105
G1 X141.796 Y76.284 E23.39602
G1 X141.886 Y76.775 E23.40997
G1 X142.077 Y78.47 E23.45763
G1 X142.1 Y78.878 E23.46904
G1 X142.067 Y100.743 E24.07992
G1 X142.033 Y101.232 E24.09361
G1 X141.891 Y102.257 E24.12253
G1 X141.778 Y102.781 E24.1375
G1 X141.657 Y103.126 E24.14772
G1 X141.161 Y104.339 E24.18433
G1 X140.922 Y104.818 E24.19929
G1 X140.697 Y105.152 E24.21054
G1 X139.916 Y106.181 E24.24663
G1 X139.56 Y106.583 E24.26163
G1 X139.252 Y106.852 E24.27306
G1 X138.203 Y107.664 E24.31012
G1 X137.619 Y108.032 E24.3294
G1 X131.853 Y110.937 E24.50979
G1 X127.15 Y113.674 E24.66181
G1 X122.585 Y116.686 E24.81461
G1 X118.228 Y119.931 E24.96639
G1 X114.033 Y123.439 E25.11917
G1 X112.034 Y125.26 E25.19472
G1 X107.99 Y129.252 E25.35348
G1 X107.581 Y129.599 E25.36846
G1 X107.126 Y129.882 E25.38343
G1 X106.633 Y130.094 E25.39843
G1 X106.114 Y130.23 E25.41342
G1 X105.461 Y130.29 E25.43174
G1 X95.543 Y130.29 E25.70883
G1 X95.008 Y130.25 E25.72382
G1 X94.485 Y130.131 E25.73881
G1 X93.986 Y129.936 E25.75377
G1 X93.521 Y129.668 E25.76877
G1 X93.004 Y129.243 E25.78747
G1 X91.056 Y127.306 E25.86422
G1 X87.018 Y123.596 E26.01742
G1 X82.814 Y120.15 E26.16929
G1 X78.398 Y116.93 E26.32198
G1 X73.823 Y113.975 E26.47414
G1 X69.093 Y111.286 E26.62616
G1 X64.158 Y108.84 E26.78004
G1 X62.548 Y108.114 E26.82938
G1 X62.077 Y107.858 E26.84436
G1 X61.852 Y107.7 E26.85204
G1 X60.819 Y106.916 E26.88827
G1 X60.417 Y106.56 E26.90327
G1 X60.15 Y106.254 E26.91462
G1 X59.343 Y105.213 E26.95142
G1 X59.047 Y104.766 E26.9664
G1 X58.868 Y104.399 E26.97781
G1 X58.371 Y103.214 E27.01371
G1 X58.201 Y102.706 E27.02867
G1 X58.116 Y102.249 E27.04166
G1 X57.926 Y100.659 E27.0864
G1 X57.901 Y100.23 E27.0984
G1 X57.913 Y78.464 E27.70651
G1 X57.944 Y77.996 E27.71962
G1 X58.106 Y76.767 E27.75425
G1 X58.215 Y76.242 E27.76923
G1 X58.343 Y75.874 E27.78012
G1 X58.839 Y74.661 E27.81673
G1 X59.078 Y74.182 E27.83169
G1 X59.303 Y73.848 E27.84294
G1 X60.049 Y72.865 E27.87741
G0 F810 X60.084 Y72.819
G0 X60.44 Y72.417
G0 X60.747 Y72.15
G0 F1542.9 X60.992 Y72.466
G1 F1200 E27.90535
G1 F900 X62.032 Y71.66 E27.94211
G1 X62.455 Y71.383 E27.95624
G1 X62.753 Y71.239 E27.96549
G1 X63.939 Y70.741 E28.00142
G1 X64.419 Y70.582 E28.01555
G1 X64.799 Y70.514 E28.02634
G1 X66.39 Y70.324 E28.0711
G1 X66.771 Y70.301 E28.08177
G1 X133.74 Y70.333 E29.95278
G1 X134.177 Y70.363 E29.96502
G1 X135.203 Y70.505 E29.99396
G1 X135.696 Y70.614 E30.00806
G1 X135.975 Y70.713 E30.01633
G1 X137.186 Y71.208 E30.05289
G1 X137.637 Y71.436 E30.067
G1 X137.91 Y71.621 E30.07622
G1 X138.939 Y72.402 E30.11231
G1 X139.316 Y72.739 E30.12644
G1 X139.532 Y72.99 E30.13569
G1 X140.331 Y74.02 E30.17211
G1 X140.609 Y74.442 E30.18623
G1 X140.75 Y74.735 E30.19531
G1 X141.256 Y75.932 E30.23162
G1 X141.416 Y76.412 E30.24576
G1 X141.489 Y76.82 E30.25734
G1 X141.68 Y78.515 E30.30499
G1 X141.7 Y78.878 E30.31515
G1 X141.667 Y100.743 E30.92602
G1 X141.637 Y101.177 E30.93818
G1 X141.495 Y102.202 E30.96709
G1 X141.386 Y102.696 E30.98122
G1 X141.287 Y102.974 E30.98947
G1 X140.791 Y104.187 E31.02608
G1 X140.563 Y104.639 E31.04022
G1 X140.378 Y104.911 E31.04941
G1 X139.597 Y105.94 E31.08551
G1 X139.26 Y106.317 E31.09963
G1 X139.007 Y106.535 E31.10896
G1 X137.958 Y107.347 E31.14603
G1 X137.439 Y107.675 E31.16318
G1 X131.657 Y110.588 E31.34406
G1 X126.942 Y113.332 E31.49648
G1 X122.363 Y116.354 E31.64976
G1 X117.966 Y119.628 E31.80292
G1 X113.777 Y123.131 E31.95548
G1 X111.754 Y124.974 E32.03194
G1 X107.709 Y128.967 E32.19073
G1 X107.322 Y129.293 E32.20487
G1 X106.889 Y129.554 E32.219
G1 X106.42 Y129.743 E32.23312
G1 X105.927 Y129.856 E32.24725
G1 X105.461 Y129.89 E32.26031
G1 X95.543 Y129.89 E32.5374
G1 X95.039 Y129.85 E32.55153
G1 X94.548 Y129.731 E32.56564
G1 X94.081 Y129.537 E32.57977
G1 X93.651 Y129.271 E32.5939
G1 X93.287 Y128.959 E32.60729
G1 X91.34 Y127.023 E32.684
G1 X87.289 Y123.3 E32.83772
G1 X83.058 Y119.833 E32.99054
G1 X78.625 Y116.601 E33.14382
G1 X74.037 Y113.638 E33.29641
G1 X69.262 Y110.923 E33.44987
G1 X64.333 Y108.479 E33.60358
G1 X62.713 Y107.749 E33.65322
G1 X62.093 Y107.381 E33.67336
G1 X61.06 Y106.597 E33.7096
G1 X60.683 Y106.261 E33.7237
G1 X60.466 Y106.009 E33.733
G1 X59.659 Y104.968 E33.7698
G1 X59.382 Y104.545 E33.78392
G1 X59.237 Y104.245 E33.79323
G1 X58.74 Y103.06 E33.82913
G1 X58.582 Y102.579 E33.84328
G1 X58.514 Y102.202 E33.85398
G1 X58.324 Y100.612 E33.89872
G1 X58.301 Y100.23 E33.90941
G1 X58.313 Y78.464 E34.51752
G1 X58.34 Y78.048 E34.52917
G1 X58.502 Y76.819 E34.5638
G1 X58.608 Y76.324 E34.57794
G1 X58.713 Y76.026 E34.58677
G1 X59.209 Y74.813 E34.62338
G1 X59.437 Y74.361 E34.63753
G1 X59.622 Y74.089 E34.64672
G1 X60.305 Y73.189 E34.67828
G0 F810 X60.403 Y73.06
G0 X60.74 Y72.683
G0 X60.992 Y72.466
G1 F1200 E29.67828
G0 F1542.9 X60.837 Y78.447
G0 X60.836 Y100.539
G0 X61.02 Y101.95
G0 X61.584 Y103.321
G0 X62.481 Y104.498
G0 X63.653 Y105.401
G0 X65.022 Y105.973
G0 X66.175 Y106.126
G0 X95.5 Y106.5
;TYPE:SUPPORT
G1 F1200 E34.70622
G1 F900 X105.5 Y106.5 E34.98561
G1 X105.5 Y126.384 E35.54114
G1 X105.384 Y126.5 E35.54572
G1 X95.616 Y126.5 E35.81862
G1 X95.5 Y126.384 E35.82321
G1 X95.5 Y107.5 E36.3508
G0 F810 X95.5 Y106.5
G0 F1542.9 X95.976 Y106.66
G1 F1200 E36.37874
G1 F900 X95.976 Y126.34 E36.92857
G0 F1542.9 X95.659 Y125.302
G1 F900 X105.339 Y125.302 E37.19901
G0 F1542.9 X103.974 Y126.34
G1 F900 X103.974 Y106.66 E37.74884
G0 F1542.9 X101.308 Y106.66
G1 F900 X101.308 Y126.34 E38.29867
G0 F1542.9 X98.642 Y126.34
G1 F900 X98.642 Y106.66 E38.8485
G0 F1542.9 X95.66 Y109.306
G1 F900 X105.34 Y109.306 E39.11895
G0 F1542.9 X105.34 Y111.972
G1 F900 X95.66 Y111.972 E39.38939
G0 F1542.9 X95.66 Y114.638
G1 F900 X105.34 Y114.638 E39.65983
G0 F1542.9 X105.34 Y117.304
G1 F900 X95.66 Y117.304 E39.93028
G0 F1542.9 X95.659 Y119.97
G1 F900 X105.339 Y119.97 E40.20072
G0 F1542.9 X105.339 Y122.636
G1 F900 X95.659 Y122.636 E40.47117
G1 F1200 E35.47117
G0 F1542.9 X95.659 Y106.165
G0 X95.659 Y104.88
G0 X88 Y100.5
;TYPE:WALL-INNER
G1 F1200 E40.47117
G1 F900 X88 Y93.5 E40.66674
G1 X70 Y93.5 E41.16963
G1 X70 Y100.5 E41.3652
G1 X87 Y100.5 E41.84016
G0 F810 X88 Y100.5
G0 F1542.9 X87.523 Y91.999
G0 X86.916 Y91.802
G0 X86.379 Y91.46
G0 X85.942 Y90.996
G0 X85.634 Y90.435
G0 X85.476 Y89.819
G0 X85.476 Y89.181
G0 X85.634 Y88.565
G0 X85.942 Y88.004
G0 X86.189 Y87.742
G0 X87.455 Y86.644
G1 F1200 E41.86809
G1 F900 X86.761 Y86.869 E41.88848
G1 X86.147 Y87.259 E41.9088
