;FLAVOR:Marlin
;TIME:2193
;Filament used: 2.23547m, 0m
;Layer height: 0.2
;POSTPROCESSED
;Generated with Cura_SteamEngine 3.4.1
T0
M190 S65
M104 S190
M109 S190
M82 ;absolute extrusion mode
; Printer start settings begin
M92 X160 Y160 Z1600; Steps per unit
M201 X1000 Y1000 Z50 E1500 E1500 ; Max Accelleration
M203 X800 Y800 Z2 E90 E90 ; Max Feed
M205 X3.0 Y3.0 Z0.3 E5.0 ; Default Jerk
M851 Z-4.3; Z-4.3 ; PLA

G28
G0 X0 Y0 Z15 F1200
G92 E-35
G1 E0 F200 ;Home
G92 E5
G1 F1000 E0
G29 ;Auto Bed Level
G92 F400 E-5
G1 E0
G0 X0 Y0 Z15.0 F6000 ;Move the platform down 15mm
G92 E0
G1 F200 E3
G92 E0
G92 E0
G1 F1200 E-5
;LAYER_COUNT:16
;LAYER:0
M107
G0 F1542.9 X60.529 Y81.242 Z0.16
;TYPE:SKIRT
G1 F1200 E0
G1 F900 X60.879 Y80.997 E0.01194
G1 X61.605 Y80.535 E0.03598
G1 X62.417 Y80.121 E0.06144
G1 X63.436 Y79.718 E0.09206
G1 X64.264 Y79.474 E0.11617
G1 X64.917 Y79.344 E0.13478
G1 X65.531 Y79.263 E0.15208
G1 X65.85 Y79.252 E0.161
G1 X132.789 Y79.2 E2.03117
G1 X132.98 Y79.204 E2.03651
G1 X134.341 Y79.257 E2.07456
G1 X135.199 Y79.368 E2.09874
G1 X136.028 Y79.553 E2.12247
G1 X136.729 Y79.767 E2.14294
G1 X137.359 Y80.013 E2.16184
G1 X138.088 Y80.372 E2.18454
G1 X139.01 Y80.927 E2.21461
G1 X139.519 Y81.28 E2.23191
G1 X139.927 Y81.643 E2.24717
G1 X140.845 Y82.56 E2.28342
G1 X141.254 Y83.025 E2.30072
G1 X141.503 Y83.379 E2.31282
G1 X141.965 Y84.105 E2.33686
G1 X142.377 Y84.914 E2.36222
G1 X142.78 Y85.931 E2.39279
G1 X143.026 Y86.762 E2.417
G1 X143.156 Y87.415 E2.4356
G1 X143.237 Y88.029 E2.4529
G1 X143.248 Y88.341 E2.46163
G1 X143.3 Y110.247 E3.07365
G1 X143.297 Y110.44 E3.07904
G1 X143.244 Y111.834 E3.11802
G1 X143.18 Y112.45 E3.13532
G1 X143.085 Y112.888 E3.14784
G1 X142.756 Y114.123 E3.18355
G1 X142.434 Y114.988 E3.20933
G1 X142.138 Y115.596 E3.22823
G1 X141.749 Y116.255 E3.24961
G1 X141.257 Y116.955 E3.27351
G1 X140.661 Y117.651 E3.29911
G1 X139.865 Y118.418 E3.32999
G1 X139.392 Y118.819 E3.34732
G1 X138.927 Y119.123 E3.36284
G1 X137.804 Y119.769 E3.39904
G1 X136.969 Y120.148 E3.42466
G1 X136.354 Y120.359 E3.44282
G1 X135.625 Y120.547 E3.46385
G1 X134.781 Y120.695 E3.48779
G1 X133.954 Y120.767 E3.51099
G1 X66.743 Y120.793 E5.38876
G1 X66.398 Y120.781 E5.39841
G1 X65.309 Y120.703 E5.42891
G1 X64.695 Y120.619 E5.44622
G1 X64.331 Y120.53 E5.45669
G1 X63.283 Y120.23 E5.48715
G1 X62.486 Y119.922 E5.51102
G1 X61.876 Y119.622 E5.53001
G1 X61.339 Y119.314 E5.54731
G1 X61.07 Y119.122 E5.55654
G1 X60.048 Y118.337 E5.59255
G1 X59.582 Y117.928 E5.60987
G1 X59.294 Y117.614 E5.62177
G1 X58.754 Y116.97 E5.64525
G1 X58.387 Y116.471 E5.66256
G1 X58.178 Y116.11 E5.67421
G1 X57.559 Y114.926 E5.71154
G1 X57.308 Y114.36 E5.72884
G1 X57.129 Y113.751 E5.74657
G1 X56.849 Y112.501 E5.78236
G1 X56.753 Y111.889 E5.79967
G1 X56.733 Y111.458 E5.81172
G1 X56.707 Y89.247 E6.43227
G1 X56.719 Y88.898 E6.44202
G1 X56.797 Y87.809 E6.47253
G1 X56.881 Y87.195 E6.48984
G1 X56.971 Y86.828 E6.5004
G1 X57.274 Y85.772 E6.53109
G1 X57.483 Y85.189 E6.54839
G1 X57.731 Y84.696 E6.56381
G1 X58.389 Y83.556 E6.60059
G1 X58.732 Y83.041 E6.61787
G1 X59.154 Y82.56 E6.63575
G1 X59.795 Y81.92 E6.66106
G0 F810 X60.064 Y81.651
G0 X60.529 Y81.242
G0 F1542.9 X60.793 Y81.544
G1 F1200 E6.689
G1 F900 X61.094 Y81.335 E6.69923
G1 X61.82 Y80.873 E6.72328
G1 X62.564 Y80.493 E6.74662
G1 X63.583 Y80.09 E6.77723
G1 X64.342 Y79.867 E6.79933
G1 X64.995 Y79.737 E6.81794
G1 X65.851 Y79.652 E6.84197
G1 X132.79 Y79.6 E8.71214
G1 X132.964 Y79.603 E8.71701
G1 X134.325 Y79.656 E8.75506
G1 X135.112 Y79.759 E8.77724
G1 X135.941 Y79.944 E8.80097
G1 X136.583 Y80.139 E8.81971
G1 X137.213 Y80.385 E8.83861
G1 X137.882 Y80.714 E8.85944
G1 X138.804 Y81.269 E8.8895
G1 X139.29 Y81.609 E8.90607
G1 X139.645 Y81.926 E8.91937
G1 X140.563 Y82.843 E8.95562
G1 X140.953 Y83.289 E8.97217
G1 X141.165 Y83.594 E8.98255
G1 X141.627 Y84.32 E9.00659
G1 X142.006 Y85.061 E9.02985
G1 X142.409 Y86.078 E9.06041
G1 X142.633 Y86.84 E9.0826
G1 X142.763 Y87.493 E9.1012
G1 X142.848 Y88.342 E9.12504
G1 X142.9 Y110.248 E9.73706
G1 X142.897 Y110.425 E9.74201
G1 X142.844 Y111.819 E9.78098
G1 X142.781 Y112.409 E9.79756
G1 X142.699 Y112.785 E9.80831
G1 X142.37 Y114.02 E9.84402
G1 X142.074 Y114.813 E9.86767
G1 X141.778 Y115.421 E9.88656
G1 X141.422 Y116.025 E9.90615
G1 X140.93 Y116.725 E9.93005
G1 X140.383 Y117.363 E9.95353
G1 X139.587 Y118.13 E9.98442
G1 X139.133 Y118.512 E10.00099
G1 X138.728 Y118.776 E10.0145
G1 X137.605 Y119.422 E10.05069
G1 X136.839 Y119.77 E10.0742
G1 X136.224 Y119.981 E10.09237
G1 X135.556 Y120.153 E10.11164
G1 X134.712 Y120.301 E10.13558
G1 X133.954 Y120.367 E10.15683
G1 X66.743 Y120.393 E12.03461
G1 X66.427 Y120.382 E12.04344
G1 X65.338 Y120.304 E12.07395
G1 X64.75 Y120.222 E12.09053
G1 X64.441 Y120.145 E12.09943
G1 X63.393 Y119.845 E12.12989
G1 X62.662 Y119.563 E12.15178
G1 X62.052 Y119.263 E12.17077
G1 X61.314 Y118.804 E12.19505
G1 X60.292 Y118.019 E12.23105
G1 X59.847 Y117.627 E12.24762
G1 X59.6 Y117.357 E12.25785
G1 X59.06 Y116.713 E12.28133
G1 X58.711 Y116.234 E12.29788
G1 X58.533 Y115.925 E12.30785
G1 X57.914 Y114.741 E12.34517
G1 X57.675 Y114.198 E12.36175
G1 X57.519 Y113.664 E12.37729
G1 X57.239 Y112.414 E12.41308
G1 X57.149 Y111.828 E12.42964
G1 X57.133 Y111.457 E12.44002
G1 X57.107 Y89.246 E13.06056
G1 X57.118 Y88.927 E13.06948
G1 X57.196 Y87.838 E13.09998
G1 X57.278 Y87.25 E13.11657
G1 X57.356 Y86.938 E13.12556
G1 X57.659 Y85.882 E13.15625
G1 X57.86 Y85.325 E13.17279
G1 X58.077 Y84.896 E13.18622
G1 X58.735 Y83.756 E13.223
G1 X59.066 Y83.264 E13.23957
G1 X59.436 Y82.843 E13.25522
G1 X60.058 Y82.221 E13.2798
G0 F810 X60.346 Y81.934
G0 X60.793 Y81.544
G0 F1542.9 X61.056 Y81.847
G1 F1200 E13.30774
G1 F900 X61.308 Y81.672 E13.31631
G1 X62.034 Y81.21 E13.34035
G1 X62.711 Y80.865 E13.36158
G1 X63.73 Y80.462 E13.3922
G1 X64.42 Y80.259 E13.41229
G1 X65.073 Y80.129 E13.43089
G1 X65.851 Y80.052 E13.45274
G1 X132.79 Y80 E15.32291
G1 X132.949 Y80.003 E15.32736
G1 X134.31 Y80.056 E15.36541
G1 X135.025 Y80.149 E15.38555
G1 X135.854 Y80.334 E15.40928
G1 X136.438 Y80.512 E15.42634
G1 X137.068 Y80.758 E15.44524
G1 X137.676 Y81.057 E15.46417
G1 X138.598 Y81.612 E15.49423
G1 X139.06 Y81.937 E15.51001
G1 X139.362 Y82.209 E15.52137
G1 X140.28 Y83.126 E15.55762
G1 X140.651 Y83.553 E15.57342
G1 X140.828 Y83.808 E15.5821
G1 X141.29 Y84.534 E15.60614
G1 X141.634 Y85.208 E15.62728
G1 X142.037 Y86.225 E15.65784
G1 X142.241 Y86.918 E15.67803
G1 X142.371 Y87.571 E15.69663
G1 X142.448 Y88.343 E15.7183
G1 X142.5 Y110.249 E16.33033
G1 X142.497 Y110.41 E16.33482
G1 X142.444 Y111.804 E16.3738
G1 X142.383 Y112.366 E16.38959
G1 X142.312 Y112.682 E16.39864
G1 X141.983 Y113.917 E16.43435
G1 X141.714 Y114.638 E16.45585
G1 X141.418 Y115.246 E16.47474
G1 X141.095 Y115.795 E16.49254
G1 X140.603 Y116.495 E16.51644
G1 X140.105 Y117.075 E16.5378
G1 X139.309 Y117.842 E16.56868
G1 X138.876 Y118.205 E16.58447
G1 X138.529 Y118.429 E16.59601
G1 X137.406 Y119.075 E16.6322
G1 X136.709 Y119.392 E16.6536
G1 X136.094 Y119.603 E16.67176
G1 X135.487 Y119.759 E16.68927
G1 X134.643 Y119.907 E16.71321
G1 X133.954 Y119.967 E16.73253
G1 X66.743 Y119.993 E18.61031
G1 X66.455 Y119.983 E18.61836
G1 X65.366 Y119.905 E18.64886
G1 X64.551 Y119.761 E18.67199
G1 X63.503 Y119.461 E18.70244
G1 X62.839 Y119.204 E18.72233
G1 X62.229 Y118.904 E18.74133
G1 X61.557 Y118.487 E18.76342
G1 X60.535 Y117.702 E18.79943
G1 X60.113 Y117.327 E18.8152
G1 X59.907 Y117.1 E18.82376
G1 X59.367 Y116.456 E18.84724
G1 X59.035 Y115.998 E18.86305
G1 X58.887 Y115.739 E18.87138
G1 X58.268 Y114.555 E18.90871
G1 X58.042 Y114.037 E18.9245
G1 X57.91 Y113.576 E18.93789
G1 X57.63 Y112.326 E18.97368
G1 X57.545 Y111.767 E18.98948
G1 X57.533 Y111.457 E18.99815
G1 X57.507 Y89.246 E19.61869
G1 X57.517 Y88.955 E19.62683
G1 X57.595 Y87.866 E19.65733
G1 X57.74 Y87.049 E19.68051
G1 X58.043 Y85.993 E19.7112
G1 X58.237 Y85.462 E19.727
G1 X58.424 Y85.096 E19.73848
G1 X59.082 Y83.956 E19.77526
G1 X59.398 Y83.488 E19.79103
G1 X59.719 Y83.126 E19.80455
G1 X60.322 Y82.524 E19.82836
G0 F810 X60.629 Y82.217
G0 X61.056 Y81.847
G0 F1542.9 X61.523 Y82.01
G1 F1200 E19.85629
G1 F900 X62.249 Y81.548 E19.88034
G1 X62.858 Y81.237 E19.89944
G1 X63.877 Y80.834 E19.93006
G1 X64.498 Y80.651 E19.94814
G1 X65.151 Y80.521 E19.96675
G1 X65.851 Y80.452 E19.9864
G1 X132.79 Y80.4 E21.85657
G1 X132.933 Y80.403 E21.86057
G1 X134.294 Y80.456 E21.89862
G1 X134.938 Y80.539 E21.91676
G1 X135.767 Y80.724 E21.9405
G1 X136.292 Y80.885 E21.95584
G1 X136.922 Y81.131 E21.97473
G1 X137.47 Y81.4 E21.99179
G1 X138.392 Y81.955 E22.02185
G1 X138.829 Y82.265 E22.03682
G1 X139.079 Y82.492 E22.04626
G1 X139.997 Y83.409 E22.08251
G1 X140.49 Y84.023 E22.10451
G1 X140.952 Y84.749 E22.12855
G1 X141.262 Y85.356 E22.14759
G1 X141.665 Y86.373 E22.17816
G1 X141.849 Y86.996 E22.1963
G1 X141.979 Y87.649 E22.21491
G1 X142.048 Y88.343 E22.23439
G1 X142.1 Y110.249 E22.84641
G1 X142.097 Y110.395 E22.85049
G1 X142.044 Y111.789 E22.88947
G1 X141.926 Y112.579 E22.91179
G1 X141.597 Y113.814 E22.94749
G1 X141.355 Y114.463 E22.96684
G1 X141.059 Y115.071 E22.98574
G1 X140.767 Y115.565 E23.00177
G1 X140.275 Y116.265 E23.02567
G1 X139.828 Y116.787 E23.04487
G1 X139.032 Y117.554 E23.07576
G1 X138.619 Y117.897 E23.09076
G1 X138.329 Y118.083 E23.10038
G1 X137.206 Y118.729 E23.13658
G1 X136.579 Y119.013 E23.15581
G1 X135.964 Y119.224 E23.17397
G1 X135.418 Y119.365 E23.18973
G1 X134.574 Y119.513 E23.21367
G1 X133.953 Y119.567 E23.23108
G1 X66.742 Y119.593 E25.10886
G1 X66.484 Y119.584 E25.11607
G1 X65.395 Y119.506 E25.14657
G1 X64.661 Y119.376 E25.1674
G1 X63.613 Y119.076 E25.19786
G1 X63.015 Y118.845 E25.21577
G1 X62.405 Y118.545 E25.23476
G1 X61.801 Y118.17 E25.25462
G1 X60.779 Y117.385 E25.29063
G1 X60.213 Y116.843 E25.31252
G1 X59.673 Y116.199 E25.336
G1 X59.242 Y115.554 E25.35767
G1 X58.623 Y114.37 E25.395
G1 X58.41 Y113.877 E25.41
G1 X58.3 Y113.489 E25.42127
G1 X58.02 Y112.239 E25.45706
G1 X57.933 Y111.456 E25.47907
G1 X57.907 Y89.245 E26.09961
G1 X57.916 Y88.984 E26.10691
G1 X57.994 Y87.895 E26.13741
G1 X58.125 Y87.159 E26.1583
G1 X58.428 Y86.103 E26.18899
G1 X58.614 Y85.6 E26.20398
G1 X58.77 Y85.296 E26.21352
G1 X59.428 Y84.156 E26.2503
G1 X59.73 Y83.713 E26.26528
G1 X60.002 Y83.409 E26.27667
G1 X60.759 Y82.653 E26.30656
G0 F810 X60.912 Y82.5
G0 X61.523 Y82.01
G0 F1542.9 X61.738 Y82.347
G1 F1200 E26.3345
G1 F900 X62.464 Y81.885 E26.35854
G1 X63.005 Y81.609 E26.37551
G1 X64.024 Y81.206 E26.40613
G1 X64.576 Y81.044 E26.4222
G1 X65.229 Y80.914 E26.4408
G1 X65.852 Y80.852 E26.45829
G1 X132.791 Y80.8 E28.32847
G1 X132.918 Y80.802 E28.33202
G1 X134.279 Y80.855 E28.37007
G1 X134.851 Y80.93 E28.38619
G1 X135.68 Y81.115 E28.40992
G1 X136.147 Y81.257 E28.42356
G1 X136.777 Y81.503 E28.44245
G1 X137.263 Y81.742 E28.45758
G1 X138.185 Y82.297 E28.48765
G1 X138.597 Y82.592 E28.50181
G1 X138.797 Y82.775 E28.50938
G1 X139.715 Y83.692 E28.54563
G1 X140.153 Y84.238 E28.56519
G1 X140.615 Y84.964 E28.58923
G1 X140.89 Y85.503 E28.60613
G1 X141.293 Y86.52 E28.6367
G1 X141.456 Y87.074 E28.65283
G1 X141.586 Y87.727 E28.67143
G1 X141.648 Y88.344 E28.68876
G1 X141.7 Y110.25 E29.30078
G1 X141.698 Y110.38 E29.30441
G1 X141.645 Y111.774 E29.34339
G1 X141.539 Y112.476 E29.36322
G1 X141.21 Y113.711 E29.39893
G1 X140.995 Y114.288 E29.41613
G1 X140.699 Y114.896 E29.43503
G1 X140.44 Y115.335 E29.44927
G1 X139.948 Y116.035 E29.47317
G1 X139.55 Y116.499 E29.49025
G1 X138.754 Y117.266 E29.52113
G1 X138.364 Y117.587 E29.53525
G1 X138.13 Y117.736 E29.543
G1 X137.007 Y118.382 E29.57919
G1 X136.449 Y118.635 E29.59631
G1 X135.834 Y118.846 E29.61447
G1 X135.349 Y118.971 E29.62847
G1 X134.505 Y119.119 E29.65241
G1 X133.953 Y119.167 E29.66789
G1 X66.742 Y119.193 E31.54566
G1 X66.512 Y119.185 E31.55209
G1 X65.423 Y119.107 E31.5826
G1 X64.771 Y118.991 E31.6011
G1 X63.723 Y118.691 E31.63155
G1 X63.192 Y118.487 E31.64745
G1 X62.582 Y118.187 E31.66644
G1 X62.045 Y117.853 E31.68411
G1 X61.023 Y117.068 E31.72011
G1 X60.52 Y116.586 E31.73957
G1 X59.98 Y115.942 E31.76305
G1 X59.596 Y115.369 E31.78233
G1 X58.977 Y114.185 E31.81965
G1 X58.779 Y113.719 E31.8338
G1 X58.69 Y113.401 E31.84302
G1 X58.41 Y112.151 E31.87881
G1 X58.333 Y111.456 E31.89835
G1 X58.307 Y89.245 E32.51889
G1 X58.315 Y89.012 E32.52541
G1 X58.393 Y87.923 E32.55591
G1 X58.509 Y87.269 E32.57447
G1 X58.812 Y86.213 E32.60516
G1 X58.99 Y85.74 E32.61928
G1 X59.117 Y85.496 E32.62696
G1 X59.775 Y84.356 E32.66374
G1 X60.061 Y83.94 E32.67784
G1 X60.285 Y83.692 E32.68718
G1 X60.98 Y82.997 E32.71464
G0 F810 X61.195 Y82.783
G0 X61.738 Y82.347
G1 F1200 E27.71464
G0 F1542.9 X61.305 Y86.754
G0 X62.457 Y87.318
G0 X62.476 Y109.819
G0 X62.564 Y110.167
G0 X63.147 Y111.741
;TYPE:WALL-INNER
G1 F1200 E32.74258
G1 F900 X63.761 Y112.131 E32.7629
G1 X64.455 Y112.356 E32.78328
G1 X65.182 Y112.401 E32.80363
G1 X65.899 Y112.267 E32.82401
G1 X66.558 Y111.954 E32.84439
G1 X67.12 Y111.491 E32.86474
G1 X67.549 Y110.9 E32.88514
G1 X67.815 Y110.223 E32.90546
G1 X67.908 Y109.5 E32.92583
G1 X67.815 Y108.777 E32.9462
G1 X67.549 Y108.1 E32.96652
G1 X67.12 Y107.509 E32.98692
G1 X66.558 Y107.046 E33.00726
G1 X65.899 Y106.733 E33.02765
G1 X65.182 Y106.599 E33.04803
G1 X64.455 Y106.644 E33.06838
G1 X63.761 Y106.869 E33.08876
G1 X63.147 Y107.259 E33.10908
G1 X62.865 Y107.559 E33.12058
G1 X62.648 Y107.79 E33.12944
G1 X62.5 Y108.06 E33.13804
G1 X62.5 Y107.79 E33.13922
G1 X62.5 Y107.472 E33.14551
G1 X62.5 Y91.528 E33.59096
G1 X62.5 Y91.21 E33.59984
G1 X62.5 Y90.94 E33.60739
G1 X62.648 Y91.21 E33.60961
G1 X62.865 Y91.441 E33.61586
G1 X63.147 Y91.741 E33.62736
G1 X63.761 Y92.131 E33.64768
G1 X64.455 Y92.356 E33.66807
G1 X65.182 Y92.401 E33.68842
G1 X65.899 Y92.267 E33.7088
G1 X66.558 Y91.954 E33.72918
G1 X67.12 Y91.491 E33.74952
G1 X67.549 Y90.9 E33.76993
G1 X67.815 Y90.223 E33.79025
G1 X67.908 Y89.5 E33.81061
G1 X67.815 Y88.777 E33.83098
G1 X67.549 Y88.1 E33.8513
G1 X67.12 Y87.509 E33.8717
G1 X66.558 Y87.046 E33.89205
G1 X65.899 Y86.733 E33.91243
G1 X65.182 Y86.599 E33.93281
G1 X64.455 Y86.644 E33.95316
G1 X63.761 Y86.869 E33.97354
G1 X63.433 Y87.078 E33.98441
G1 X63.18 Y87.238 E33.99277
G1 X63.147 Y87.259 E33.99386
G1 X62.889 Y87.533 E34.00438
G1 X62.727 Y87.706 E34.011
G1 X62.811 Y87.461 E34.01236
G1 X62.956 Y87.166 E34.01566
G1 X63.034 Y87.007 E34.01945
G1 X63.2 Y86.758 E34.02651
G1 X63.33 Y86.564 E34.03304
G1 X63.673 Y86.173 E34.04757
G1 X64.064 Y85.83 E34.0621
G1 X64.507 Y85.534 E34.07699
G1 X64.961 Y85.311 E34.09112
G1 X65.476 Y85.135 E34.10632
G1 X65.971 Y85.036 E34.12043
G1 X66.535 Y85 E34.13622
G1 X133.465 Y85 E36.00614
G1 X134.029 Y85.036 E36.02193
G1 X134.524 Y85.135 E36.03603
G1 X135.039 Y85.311 E36.05124
G1 X135.493 Y85.534 E36.06537
G1 X135.936 Y85.83 E36.08026
G1 X136.327 Y86.173 E36.09479
G1 X136.67 Y86.564 E36.10932
G1 X136.818 Y86.786 E36.11677
G1 X136.858 Y86.846 E36.11879
G1 X136.966 Y87.007 E36.1242
G1 X137.189 Y87.461 E36.13834
G1 X137.196 Y87.482 E36.13895
G1 X137.282 Y87.732 E36.14634
G1 X137.12 Y87.509 E36.14731
G1 X136.782 Y87.231 E36.15264
G1 X136.558 Y87.046 E36.15949
G1 X136.493 Y87.016 E36.16139
G1 X135.899 Y86.733 E36.17978
G1 X135.182 Y86.599 E36.20015
G1 X134.455 Y86.644 E36.22051
G1 X133.761 Y86.869 E36.24089
G1 X133.147 Y87.259 E36.26121
G1 X132.648 Y87.79 E36.28157
G1 X132.296 Y88.431 E36.302
G1 X132.115 Y89.135 E36.32231
G1 X132.115 Y89.865 E36.3427
G1 X132.296 Y90.569 E36.36301
G1 X132.648 Y91.21 E36.38344
G1 X133.147 Y91.741 E36.4038
G1 X133.761 Y92.131 E36.42412
G1 X134.455 Y92.356 E36.44451
G1 X135.182 Y92.401 E36.46486
G1 X135.899 Y92.267 E36.48523
G1 X136.558 Y91.954 E36.50562
G1 X137.104 Y91.504 E36.52538
G1 X137.12 Y91.491 E36.52596
G1 X137.5 Y90.968 E36.54402
G1 X137.5 Y91.491 E36.55048
G1 X137.5 Y91.512 E36.55105
G1 X137.5 Y107.488 E36.9974
G1 X137.5 Y107.509 E36.99798
G1 X137.5 Y108.032 E37.0126
G1 X137.12 Y107.509 E37.0225
G1 X137.104 Y107.496 E37.02306
G1 X136.558 Y107.046 E37.04283
G1 X135.899 Y106.733 E37.06321
G1 X135.182 Y106.599 E37.08359
G1 X134.455 Y106.644 E37.10394
G1 X133.761 Y106.869 E37.12432
G1 X133.147 Y107.259 E37.14464
G1 X132.648 Y107.79 E37.165
G1 X132.296 Y108.431 E37.18543
G1 X132.115 Y109.135 E37.20574
G1 X132.115 Y109.865 E37.22614
