;FLAVOR:Marlin
;TIME:3617
;Filament used: 2.95234m, 0m
;Layer height: 0.2
;POSTPROCESSED
;Generated with Cura_SteamEngine 3.4.1
T0
M190 S65
M104 S198
M109 S198
M82 ;absolute extrusion mode
; Printer start settings begin
M92 X160 Y160 Z1600; Steps per unit
M201 X1000 Y1000 Z50 E1500 E1500 ; Max Accelleration
M203 X800 Y800 Z2 E90 E90 ; Max Feed
M205 X3.0 Y3.0 Z0.3 E5.0 ; Default Jerk
G28
G0 X0 Y0 Z15 F1200
G92 E-35
G1 E0 F200 ;Home
G92 E5
G1 F1000 E0
G29 ;Auto Bed Level
G92 F400 E-5
G1 E0
G0 X0 Y0 Z15.0 F6000 ;Move the platform down 15mm
G92 E0
G1 F200 E3
G92 E0
G92 E0
;LAYER_COUNT:69
;LAYER:0
M107
G0 F1542.9 X59.264 Y79.45 Z0.16
;TYPE:SKIRT
G1 F900 X59.494 Y79.28 E0.00761
G1 X59.544 Y79.244 E0.00925
G1 X59.762 Y79.093 E0.01631
G1 X59.845 Y79.038 E0.01895
G1 X60.519 Y78.619 E0.04007
G1 X60.606 Y78.568 E0.04276
G1 X60.792 Y78.465 E0.04841
G1 X60.851 Y78.434 E0.05019
G1 X61.029 Y78.343 E0.05551
G1 X61.073 Y78.321 E0.05681
G1 X61.558 Y78.088 E0.07113
G1 X61.636 Y78.053 E0.07341
G1 X61.797 Y77.984 E0.07807
G1 X61.848 Y77.963 E0.07953
G1 X62.065 Y77.877 E0.08574
G1 X62.152 Y77.845 E0.08821
G1 X63.167 Y77.496 E0.11677
G1 X63.229 Y77.475 E0.11851
G1 X63.255 Y77.467 E0.11924
G1 X63.361 Y77.438 E0.12216
G1 X63.836 Y77.32 E0.13518
G1 X63.929 Y77.299 E0.13772
G1 X64.322 Y77.221 E0.14838
G1 X64.387 Y77.209 E0.15014
G1 X64.606 Y77.173 E0.15605
G1 X64.661 Y77.165 E0.15752
G1 X65.191 Y77.093 E0.17176
G1 X65.297 Y77.082 E0.17459
G1 X65.614 Y77.056 E0.18305
G1 X65.707 Y77.05 E0.18553
G1 X66.875 Y77.009 E0.21663
G1 X66.927 Y77.008 E0.21802
G1 X67.793 Y77 E0.24106
G1 X132.522 Y77 E1.96338
G1 X132.827 Y77.002 E1.97149
G1 X132.875 Y77.003 E1.97277
G1 X133.885 Y77.034 E1.99966
G1 X133.95 Y77.037 E2.00139
G1 X134.599 Y77.078 E2.01869
G1 X134.663 Y77.083 E2.0204
G1 X134.967 Y77.112 E2.02852
G1 X135.076 Y77.125 E2.03144
G1 X135.48 Y77.186 E2.04232
G1 X135.536 Y77.196 E2.04383
G1 X135.841 Y77.251 E2.05208
G1 X135.928 Y77.268 E2.05443
G1 X136.343 Y77.362 E2.06576
G1 X136.389 Y77.373 E2.06702
G1 X136.544 Y77.412 E2.07127
G1 X136.606 Y77.429 E2.07298
G1 X136.889 Y77.51 E2.08081
G1 X136.945 Y77.527 E2.08237
G1 X137.335 Y77.651 E2.09326
G1 X137.378 Y77.665 E2.09446
G1 X137.483 Y77.701 E2.09741
G1 X137.524 Y77.716 E2.09858
G1 X137.66 Y77.766 E2.10243
G1 X137.772 Y77.811 E2.10564
G1 X138.448 Y78.107 E2.12528
G1 X138.523 Y78.142 E2.12748
G1 X139.269 Y78.506 E2.14957
G1 X139.366 Y78.556 E2.15247
G1 X139.479 Y78.619 E2.15591
G1 X139.53 Y78.649 E2.15749
G1 X139.793 Y78.806 E2.16564
G1 X139.874 Y78.856 E2.16817
G1 X140.293 Y79.134 E2.18155
G1 X140.342 Y79.168 E2.18314
G1 X140.646 Y79.383 E2.19304
G1 X140.699 Y79.422 E2.1948
G1 X140.732 Y79.447 E2.1959
G1 X140.766 Y79.473 E2.19704
G1 X141.136 Y79.766 E2.20959
G1 X141.219 Y79.836 E2.21248
G1 X141.495 Y80.08 E2.22229
G1 X141.53 Y80.112 E2.22355
G1 X141.819 Y80.38 E2.23403
G1 X141.866 Y80.425 E2.23577
G1 X141.972 Y80.53 E2.23974
G1 X142.002 Y80.56 E2.24086
G1 X142.213 Y80.778 E2.24894
G1 X142.256 Y80.824 E2.25061
G1 X142.506 Y81.099 E2.2605
G1 X142.563 Y81.164 E2.2628
G1 X142.871 Y81.534 E2.27561
G1 X142.919 Y81.595 E2.27768
G1 X142.939 Y81.621 E2.27855
G1 X142.96 Y81.649 E2.27948
G1 X143.247 Y82.036 E2.2923
G1 X143.276 Y82.075 E2.29359
G1 X143.376 Y82.217 E2.29822
G1 X143.405 Y82.26 E2.2996
G1 X143.465 Y82.35 E2.30247
G1 X143.494 Y82.394 E2.30388
G1 X143.759 Y82.815 E2.31711
G1 X143.814 Y82.907 E2.31996
G1 X144.114 Y83.446 E2.33638
G1 X144.146 Y83.507 E2.33821
G1 X144.208 Y83.628 E2.34183
G1 X144.223 Y83.659 E2.34274
G1 X144.303 Y83.822 E2.34758
G1 X144.324 Y83.865 E2.34885
G1 X144.378 Y83.982 E2.35228
G1 X144.426 Y84.094 E2.35552
G1 X144.751 Y84.928 E2.37934
G1 X144.776 Y84.998 E2.38131
G1 X144.958 Y85.522 E2.39607
G1 X144.977 Y85.579 E2.39767
G1 X145.004 Y85.665 E2.40007
G1 X145.022 Y85.724 E2.40171
G1 X145.1 Y86.002 E2.4094
G1 X145.11 Y86.039 E2.41042
G1 X145.13 Y86.116 E2.41253
G1 X145.146 Y86.185 E2.41442
G1 X145.208 Y86.464 E2.42202
G1 X145.219 Y86.513 E2.42336
G1 X145.288 Y86.865 E2.4329
G1 X145.304 Y86.959 E2.43544
G1 X145.378 Y87.462 E2.44897
G1 X145.386 Y87.526 E2.45068
G1 X145.42 Y87.824 E2.45866
G1 X145.426 Y87.882 E2.46022
G1 X145.44 Y88.047 E2.46462
G1 X145.446 Y88.143 E2.46718
G1 X145.488 Y89.296 E2.49788
G1 X145.489 Y89.339 E2.49902
G1 X145.491 Y89.472 E2.50256
G1 X145.491 Y89.482 E2.50283
G1 X145.5 Y90.392 E2.52704
G1 X145.5 Y110.077 E3.05083
G1 X145.499 Y110.221 E3.05466
G1 X145.498 Y110.268 E3.05591
G1 X145.463 Y111.421 E3.0866
G1 X145.46 Y111.489 E3.08841
G1 X145.414 Y112.201 E3.1074
G1 X145.403 Y112.319 E3.11055
G1 X145.342 Y112.809 E3.12369
G1 X145.325 Y112.919 E3.12665
G1 X145.238 Y113.399 E3.13963
G1 X145.207 Y113.541 E3.1435
G1 X144.99 Y114.383 E3.16663
G1 X144.96 Y114.488 E3.16954
G1 X144.865 Y114.788 E3.17791
G1 X144.825 Y114.902 E3.18113
G1 X144.82 Y114.915 E3.1815
G1 X144.615 Y115.457 E3.19692
G1 X144.569 Y115.568 E3.20011
G1 X144.417 Y115.907 E3.21
G1 X144.391 Y115.964 E3.21167
G1 X144.015 Y116.737 E3.23454
G1 X143.96 Y116.842 E3.23769
G1 X143.86 Y117.02 E3.24312
G1 X143.833 Y117.065 E3.24452
G1 X143.793 Y117.132 E3.2466
G1 X143.759 Y117.188 E3.24834
G1 X143.441 Y117.683 E3.264
G1 X143.387 Y117.763 E3.26656
G1 X143.037 Y118.254 E3.28261
G1 X142.997 Y118.308 E3.2844
G1 X142.971 Y118.342 E3.28553
G1 X142.946 Y118.374 E3.28661
G1 X142.82 Y118.532 E3.29199
G1 X142.784 Y118.575 E3.29348
G1 X142.583 Y118.813 E3.30177
G1 X142.552 Y118.85 E3.30306
G1 X142.466 Y118.947 E3.30651
G1 X142.43 Y118.986 E3.30792
G1 X142.087 Y119.353 E3.32129
G1 X142.05 Y119.391 E3.3227
G1 X141.906 Y119.537 E3.32815
G1 X141.866 Y119.577 E3.32966
G1 X141.77 Y119.669 E3.3332
G1 X141.731 Y119.705 E3.33461
G1 X141.368 Y120.035 E3.34766
G1 X141.3 Y120.095 E3.35007
G1 X141.06 Y120.294 E3.35837
G1 X141.019 Y120.327 E3.35977
G1 X140.725 Y120.558 E3.36972
G1 X140.682 Y120.59 E3.37115
G1 X140.538 Y120.697 E3.37592
G1 X140.483 Y120.736 E3.37771
G1 X140.223 Y120.916 E3.38613
G1 X140.143 Y120.969 E3.38868
G1 X139.493 Y121.374 E3.40906
G1 X139.397 Y121.43 E3.41202
G1 X139.233 Y121.52 E3.41699
G1 X139.187 Y121.545 E3.41839
G1 X138.752 Y121.769 E3.43141
G1 X138.7 Y121.795 E3.43295
G1 X138.629 Y121.829 E3.43505
G1 X138.608 Y121.839 E3.43567
G1 X138.509 Y121.885 E3.43857
G1 X138.45 Y121.911 E3.44029
G1 X138.199 Y122.018 E3.44755
G1 X138.152 Y122.037 E3.4489
G1 X137.935 Y122.123 E3.45511
G1 X137.848 Y122.155 E3.45757
G1 X136.833 Y122.504 E3.48613
G1 X136.771 Y122.525 E3.48787
G1 X136.745 Y122.533 E3.4886
G1 X136.639 Y122.562 E3.49152
G1 X136.164 Y122.68 E3.50454
G1 X136.071 Y122.701 E3.50708
G1 X135.678 Y122.779 E3.51774
G1 X135.613 Y122.791 E3.5195
G1 X135.394 Y122.827 E3.52541
G1 X135.339 Y122.835 E3.52689
G1 X134.809 Y122.907 E3.54112
G1 X134.703 Y122.918 E3.54395
G1 X134.386 Y122.944 E3.55242
G1 X134.293 Y122.95 E3.5549
G1 X133.114 Y122.991 E3.58629
G1 X133.114 Y122.99 E3.58631
G1 X133.092 Y122.992 E3.5869
G1 X132.208 Y123 E3.61042
G1 X67.424 Y123 E5.3342
G1 X67.274 Y122.999 E5.33819
G1 X67.225 Y122.998 E5.3395
G1 X66.096 Y122.963 E5.36955
G1 X66.028 Y122.96 E5.37136
G1 X65.245 Y122.909 E5.39224
G1 X65.206 Y122.906 E5.39328
G1 X65.147 Y122.901 E5.39486
G1 X65.059 Y122.891 E5.39721
G1 X64.735 Y122.849 E5.40591
G1 X64.639 Y122.835 E5.40849
G1 X64.104 Y122.739 E5.42295
G1 X63.957 Y122.706 E5.42696
G1 X63.098 Y122.484 E5.45057
G1 X62.989 Y122.453 E5.45358
G1 X62.717 Y122.366 E5.46118
G1 X62.618 Y122.332 E5.46397
G1 X62.039 Y122.113 E5.48044
G1 X61.934 Y122.069 E5.48347
G1 X61.579 Y121.911 E5.49381
G1 X61.516 Y121.882 E5.49565
G1 X60.767 Y121.517 E5.51782
G1 X60.659 Y121.46 E5.52107
G1 X60.468 Y121.352 E5.52691
G1 X60.431 Y121.331 E5.52804
G1 X60.367 Y121.293 E5.53002
G1 X60.306 Y121.255 E5.53193
G1 X59.818 Y120.941 E5.54738
G1 X59.738 Y120.887 E5.54994
G1 X59.246 Y120.536 E5.56602
G1 X59.196 Y120.499 E5.56768
G1 X59.133 Y120.451 E5.56979
G1 X59.094 Y120.421 E5.5711
G1 X58.968 Y120.32 E5.57539
G1 X58.93 Y120.288 E5.57671
G1 X58.688 Y120.084 E5.58514
G1 X58.647 Y120.049 E5.58657
G1 X58.583 Y119.992 E5.58885
G1 X58.545 Y119.957 E5.59023
G1 X58.068 Y119.51 E5.60762
G1 X58.032 Y119.476 E5.60894
G1 X57.965 Y119.41 E5.61144
G1 X57.918 Y119.362 E5.61323
G1 X57.825 Y119.264 E5.61682
G1 X57.795 Y119.231 E5.61801
G1 X57.5 Y118.906 E5.62969
G1 X57.439 Y118.836 E5.63216
G1 X57.035 Y118.347 E5.64904
G1 X56.97 Y118.263 E5.65186
G1 X56.813 Y118.051 E5.65888
G1 X56.777 Y118.001 E5.66052
G1 X56.575 Y117.71 E5.66995
G1 X56.52 Y117.626 E5.67262
G1 X56.13 Y116.999 E5.69227
G1 X56.078 Y116.912 E5.69496
G1 X55.965 Y116.708 E5.70117
G1 X55.933 Y116.648 E5.70298
G1 X55.833 Y116.452 E5.70883
G1 X55.811 Y116.406 E5.71019
G1 X55.6 Y115.965 E5.7232
G1 X55.538 Y115.823 E5.72732
G1 X55.273 Y115.137 E5.74689
G1 X55.247 Y115.065 E5.74892
G1 X54.991 Y114.319 E5.76991
G1 X54.966 Y114.242 E5.77206
G1 X54.949 Y114.185 E5.77365
G1 X54.925 Y114.094 E5.77615
G1 X54.823 Y113.682 E5.78744
G1 X54.801 Y113.586 E5.79006
G1 X54.748 Y113.316 E5.79739
G1 X54.737 Y113.254 E5.79906
G1 X54.618 Y112.526 E5.81869
G1 X54.604 Y112.419 E5.82156
G1 X54.588 Y112.272 E5.82549
G1 X54.582 Y112.214 E5.82705
G1 X54.555 Y111.873 E5.83615
G1 X54.55 Y111.786 E5.83847
G1 X54.51 Y110.653 E5.86863
G1 X54.512 Y110.653 E5.86869
G1 X54.508 Y110.591 E5.87034
G1 X54.5 Y109.661 E5.89509
G1 X54.5 Y89.924 E6.42025
G1 X54.501 Y89.774 E6.42424
G1 X54.502 Y89.725 E6.42555
G1 X54.537 Y88.596 E6.4556
G1 X54.54 Y88.528 E6.45741
G1 X54.591 Y87.745 E6.47829
G1 X54.596 Y87.682 E6.47997
G1 X54.602 Y87.62 E6.48163
G1 X54.609 Y87.56 E6.48324
G1 X54.651 Y87.231 E6.49206
G1 X54.667 Y87.126 E6.49489
G1 X54.754 Y86.648 E6.50781
G1 X54.772 Y86.561 E6.51018
G1 X54.875 Y86.11 E6.52249
G1 X54.889 Y86.053 E6.52405
G1 X54.974 Y85.725 E6.53307
G1 X54.998 Y85.639 E6.53544
G1 X55.006 Y85.613 E6.53616
G1 X55.012 Y85.595 E6.53667
G1 X55.122 Y85.249 E6.54633
G1 X55.145 Y85.182 E6.54822
G1 X55.16 Y85.14 E6.5494
G1 X55.173 Y85.103 E6.55045
G1 X55.388 Y84.537 E6.56656
G1 X55.432 Y84.431 E6.56961
G1 X55.595 Y84.066 E6.58025
G1 X55.623 Y84.006 E6.58201
G1 X55.946 Y83.343 E6.60163
G1 X55.976 Y83.284 E6.60339
G1 X56.078 Y83.091 E6.6092
G1 X56.108 Y83.036 E6.61087
G1 X56.165 Y82.936 E6.61393
G1 X56.221 Y82.844 E6.6168
G1 X56.553 Y82.328 E6.63312
G1 X56.608 Y82.248 E6.63571
G1 X56.983 Y81.723 E6.65287
G1 X57.044 Y81.641 E6.65559
G1 X57.191 Y81.456 E6.66188
G1 X57.23 Y81.408 E6.66352
G1 X57.406 Y81.2 E6.67077
G1 X57.438 Y81.164 E6.67206
G1 X57.557 Y81.03 E6.67682
G1 X57.591 Y80.992 E6.67818
G1 X57.935 Y80.624 E6.69158
G1 X57.976 Y80.581 E6.69317
G1 X58.109 Y80.447 E6.69819
G1 X58.15 Y80.408 E6.69969
G1 X58.255 Y80.308 E6.70355
G1 X58.29 Y80.275 E6.70483
G1 X58.494 Y80.09 E6.71216
G0 F810 X58.623 Y79.973
G0 X58.694 Y79.912
G0 X59.067 Y79.604
G0 X59.111 Y79.568
G0 X59.224 Y79.48
G0 X59.264 Y79.45
G0 F1542.9 X59.502 Y79.771
G1 F1200 E6.73877
G1 F900 X59.732 Y79.601 E6.74638
G1 X59.772 Y79.573 E6.74768
G1 X59.99 Y79.422 E6.75473
G1 X60.056 Y79.378 E6.75684
G1 X60.73 Y78.959 E6.77796
G1 X60.8 Y78.918 E6.78012
G1 X60.986 Y78.815 E6.78578
G1 X61.033 Y78.79 E6.78719
G1 X61.211 Y78.699 E6.79251
G1 X61.246 Y78.682 E6.79355
G1 X61.731 Y78.449 E6.80787
G1 X61.794 Y78.42 E6.80971
G1 X61.955 Y78.351 E6.81437
G1 X61.996 Y78.335 E6.81554
G1 X62.213 Y78.249 E6.82175
G1 X62.282 Y78.223 E6.82372
G1 X63.297 Y77.874 E6.85227
G1 X63.346 Y77.858 E6.85365
G1 X63.372 Y77.85 E6.85437
G1 X63.457 Y77.826 E6.85672
G1 X63.932 Y77.708 E6.86974
G1 X64.007 Y77.692 E6.87178
G1 X64.4 Y77.614 E6.88244
G1 X64.451 Y77.604 E6.88383
G1 X64.67 Y77.568 E6.88973
G1 X64.715 Y77.562 E6.89094
G1 X65.245 Y77.49 E6.90517
G1 X65.329 Y77.48 E6.90742
G1 X65.646 Y77.454 E6.91589
G1 X65.721 Y77.45 E6.91789
G1 X66.889 Y77.409 E6.94898
G1 X66.93 Y77.408 E6.95007
G1 X67.796 Y77.4 E6.97312
G1 X132.519 Y77.4 E8.69527
G1 X132.824 Y77.402 E8.70339
G1 X132.863 Y77.403 E8.70443
G1 X133.873 Y77.434 E8.73131
G1 X133.925 Y77.436 E8.7327
G1 X134.574 Y77.477 E8.75
G1 X134.625 Y77.481 E8.75136
G1 X134.929 Y77.51 E8.75949
G1 X135.016 Y77.521 E8.76182
G1 X135.42 Y77.582 E8.77269
G1 X135.465 Y77.589 E8.77391
G1 X135.77 Y77.644 E8.78215
G1 X135.839 Y77.659 E8.78403
G1 X136.254 Y77.753 E8.79535
G1 X136.291 Y77.761 E8.79636
G1 X136.446 Y77.8 E8.80061
G1 X136.496 Y77.814 E8.80199
G1 X136.779 Y77.895 E8.80983
G1 X136.824 Y77.908 E8.81107
G1 X137.214 Y78.032 E8.82196
G1 X137.248 Y78.043 E8.82291
G1 X137.353 Y78.079 E8.82587
G1 X137.386 Y78.091 E8.8268
G1 X137.522 Y78.141 E8.83066
G1 X137.612 Y78.177 E8.83324
G1 X138.288 Y78.473 E8.85287
G1 X138.348 Y78.501 E8.85463
G1 X139.094 Y78.865 E8.87672
G1 X139.171 Y78.906 E8.87904
G1 X139.284 Y78.969 E8.88248
G1 X139.325 Y78.992 E8.88373
G1 X139.588 Y79.149 E8.89188
G1 X139.653 Y79.19 E8.89393
G1 X140.072 Y79.468 E8.90731
G1 X140.111 Y79.495 E8.90857
G1 X140.415 Y79.71 E8.91848
G1 X140.457 Y79.741 E8.91987
G1 X140.49 Y79.766 E8.92097
G1 X140.517 Y79.787 E8.92188
G1 X140.887 Y80.08 E8.93444
G1 X140.954 Y80.135 E8.93674
G1 X141.23 Y80.379 E8.94655
G1 X141.258 Y80.405 E8.94756
G1 X141.547 Y80.673 E8.95805
G1 X141.585 Y80.709 E8.95944
G1 X141.691 Y80.814 E8.96341
G1 X141.715 Y80.838 E8.96432
G1 X141.926 Y81.056 E8.97239
G1 X141.96 Y81.093 E8.97373
G1 X142.21 Y81.368 E8.98361
G1 X142.256 Y81.42 E8.98546
G1 X142.564 Y81.79 E8.99827
G1 X142.602 Y81.838 E8.9999
G1 X142.622 Y81.864 E9.00077
G1 X142.639 Y81.887 E9.00153
G1 X142.926 Y82.274 E9.01435
G1 X142.949 Y82.306 E9.0154
G1 X143.049 Y82.448 E9.02002
G1 X143.072 Y82.481 E9.02109
G1 X143.132 Y82.571 E9.02397
G1 X143.155 Y82.607 E9.02511
G1 X143.42 Y83.028 E9.03835
G1 X143.464 Y83.102 E9.04064
G1 X143.764 Y83.641 E9.05705
G1 X143.79 Y83.689 E9.0585
G1 X143.852 Y83.81 E9.06212
G1 X143.864 Y83.835 E9.06286
G1 X143.944 Y83.998 E9.06769
G1 X143.961 Y84.033 E9.06872
G1 X144.015 Y84.15 E9.07215
G1 X144.053 Y84.239 E9.07473
G1 X144.378 Y85.073 E9.09854
G1 X144.398 Y85.129 E9.10013
G1 X144.58 Y85.653 E9.11489
G1 X144.596 Y85.699 E9.11618
G1 X144.623 Y85.785 E9.11858
G1 X144.637 Y85.832 E9.11989
G1 X144.715 Y86.11 E9.12757
G1 X144.723 Y86.14 E9.12839
G1 X144.743 Y86.217 E9.13051
G1 X144.756 Y86.272 E9.13202
G1 X144.818 Y86.551 E9.13962
G1 X144.826 Y86.59 E9.14068
G1 X144.895 Y86.942 E9.15022
G1 X144.908 Y87.017 E9.15225
G1 X144.982 Y87.52 E9.16578
G1 X144.989 Y87.572 E9.16717
G1 X145.023 Y87.87 E9.17515
G1 X145.027 Y87.916 E9.17638
G1 X145.041 Y88.081 E9.18079
G1 X145.046 Y88.158 E9.18284
G1 X145.088 Y89.311 E9.21354
G1 X145.089 Y89.345 E9.21445
G1 X145.091 Y89.478 E9.21799
G1 X145.091 Y89.486 E9.2182
G1 X145.1 Y90.396 E9.24241
G1 X145.1 Y110.074 E9.76601
G1 X145.099 Y110.218 E9.76984
G1 X145.098 Y110.256 E9.77085
G1 X145.063 Y111.409 E9.80154
G1 X145.061 Y111.463 E9.80298
G1 X145.015 Y112.175 E9.82197
G1 X145.006 Y112.27 E9.8245
G1 X144.945 Y112.76 E9.83764
G1 X144.931 Y112.847 E9.83999
G1 X144.844 Y113.327 E9.85297
G1 X144.819 Y113.441 E9.85607
G1 X144.602 Y114.283 E9.87921
G1 X144.578 Y114.367 E9.88153
G1 X144.483 Y114.667 E9.88991
G1 X144.451 Y114.758 E9.89247
G1 X144.449 Y114.763 E9.89262
G1 X144.45 Y114.763 E9.89264
G1 X144.241 Y115.316 E9.90837
G1 X144.204 Y115.405 E9.91094
G1 X144.052 Y115.744 E9.92082
G1 X144.031 Y115.789 E9.92215
G1 X143.655 Y116.562 E9.94502
G1 X143.611 Y116.646 E9.94754
G1 X143.511 Y116.824 E9.95297
G1 X143.49 Y116.86 E9.95408
G1 X143.45 Y116.927 E9.95616
G1 X143.422 Y116.972 E9.95757
G1 X143.104 Y117.467 E9.97322
G1 X143.061 Y117.531 E9.97527
G1 X142.711 Y118.022 E9.99132
G1 X142.679 Y118.065 E9.99275
G1 X142.653 Y118.099 E9.99388
G1 X142.633 Y118.125 E9.99476
G1 X142.507 Y118.283 E10.00013
G1 X142.478 Y118.317 E10.00132
G1 X142.277 Y118.555 E10.00961
G1 X142.252 Y118.584 E10.01063
G1 X142.166 Y118.681 E10.01408
G1 X142.138 Y118.713 E10.01521
G1 X141.795 Y119.08 E10.02858
G1 X141.765 Y119.111 E10.02973
G1 X141.621 Y119.257 E10.03518
G1 X141.589 Y119.288 E10.03637
G1 X141.493 Y119.38 E10.03991
G1 X141.462 Y119.409 E10.04103
G1 X141.099 Y119.739 E10.05409
G1 X141.044 Y119.787 E10.05603
G1 X140.804 Y119.986 E10.06433
G1 X140.772 Y120.012 E10.06542
G1 X140.478 Y120.243 E10.07537
G1 X140.443 Y120.269 E10.07653
G1 X140.299 Y120.376 E10.08131
G1 X140.256 Y120.408 E10.08273
