;FLAVOR:Marlin
;TIME:3839
;Filament used: 4.45891m, 0m
;Layer height: 0.2
;POSTPROCESSED
;Generated with Cura_SteamEngine 3.4.1
T0
M190 S75
M104 S248
M109 S248
M82 ;absolute extrusion mode
; Printer start settings begin
M92 X160 Y160 Z1600; Steps per unit
M201 X1000 Y1000 Z50 E1500 E1500 ; Max Accelleration
M203 X800 Y800 Z2 E90 E90 ; Max Feed
M205 X3.0 Y3.0 Z0.3 E5.0 ; Default Jerk
G28
G0 X0 Y0 Z15 F1200
G92 E-35
G1 E0 F200 ;Home
G92 E5
G1 F1000 E0
G29 ;Auto Bed Level
G92 F400 E-5
G1 E0
G0 X0 Y0 Z15.0 F6000 ;Move the platform down 15mm
G92 E0
G1 F200 E3
G92 E0
G92 E0
G1 F1200 E-6.5
;LAYER_COUNT:76
;LAYER:0
M107
G0 F1542.9 X77.59 Y65.034 Z0.16
;TYPE:SKIRT
G1 F1200 E0
G1 F900 X77.801 Y64.805 E0.00829
G1 X78.396 Y64.202 E0.03083
G1 X78.752 Y63.875 E0.04369
G1 X80.853 Y62.136 E0.11626
G1 X81.355 Y61.773 E0.13274
G1 X81.649 Y61.602 E0.14179
G1 X82.486 Y61.154 E0.16705
G1 X83.05 Y60.898 E0.18353
G1 X83.84 Y60.673 E0.20539
G1 X84.378 Y60.569 E0.21997
G1 X84.992 Y60.491 E0.23644
G1 X85.374 Y60.483 E0.2466
G1 X85.883 Y60.492 E0.26015
G1 X86.5 Y60.543 E0.27662
G1 X87.124 Y60.678 E0.29361
G1 X88.182 Y60.982 E0.3229
G1 X88.544 Y61.102 E0.33305
G1 X90.948 Y62.005 E0.40138
G1 X91.512 Y62.259 E0.41784
G1 X91.913 Y62.498 E0.43026
G1 X92.685 Y63.01 E0.45491
G1 X93.302 Y63.496 E0.4758
G1 X95.187 Y65.25 E0.54432
G1 X99.299 Y68.769 E0.68832
G1 X103.597 Y72.044 E0.8321
G1 X108.056 Y75.06 E0.97534
G1 X112.664 Y77.812 E1.11815
G1 X117.441 Y80.308 E1.26156
G1 X122.382 Y82.544 E1.40587
G1 X124.835 Y83.533 E1.47624
G1 X130.146 Y85.409 E1.62612
G1 X130.716 Y85.653 E1.64261
G1 X131.204 Y85.937 E1.65764
G1 X132.018 Y86.478 E1.68364
G1 X132.511 Y86.854 E1.70014
G1 X133.069 Y87.428 E1.72144
G1 X133.378 Y87.804 E1.73439
G1 X133.74 Y88.307 E1.75088
G1 X134.089 Y88.977 E1.77098
G1 X134.445 Y89.816 E1.79523
G1 X134.649 Y90.401 E1.81172
G1 X134.8 Y91.189 E1.83307
G1 X134.863 Y91.788 E1.84909
G1 X134.889 Y92.289 E1.86244
G1 X134.9 Y131.529 E2.90654
G1 X134.887 Y131.889 E2.91613
G1 X134.786 Y133.237 E2.9521
G1 X134.7 Y133.85 E2.96857
G1 X134.535 Y134.447 E2.98505
G1 X134.39 Y134.816 E2.9956
G1 X134.066 Y135.55 E3.01695
G1 X133.78 Y136.1 E3.03344
G1 X133.426 Y136.608 E3.04992
G1 X133.064 Y137.011 E3.06433
G1 X132.362 Y137.711 E3.09071
G1 X131.896 Y138.119 E3.10719
G1 X131.382 Y138.464 E3.12366
G1 X130.816 Y138.744 E3.14046
G1 X129.938 Y139.109 E3.16576
G1 X129.352 Y139.31 E3.18225
G1 X128.745 Y139.433 E3.19873
G1 X128.131 Y139.477 E3.21511
G1 X121.125 Y139.529 E3.40153
G1 X120.449 Y139.486 E3.41955
G1 X119.52 Y139.361 E3.44449
G1 X118.913 Y139.239 E3.46097
G1 X118.217 Y138.993 E3.48061
G1 X113.635 Y136.965 E3.61393
G1 X111.202 Y135.981 E3.68377
G1 X106.061 Y134.157 E3.82891
G1 X100.9 Y132.647 E3.97199
G1 X95.579 Y131.411 E4.11735
G1 X93.05 Y130.938 E4.1858
G1 X87.673 Y130.163 E4.33036
G1 X82.271 Y129.694 E4.47463
G1 X79.653 Y129.578 E4.54436
G1 X72.87 Y129.527 E4.72485
G1 X72.252 Y129.482 E4.74134
G1 X71.645 Y129.358 E4.75782
G1 X71.059 Y129.157 E4.77431
G1 X70.504 Y128.883 E4.79077
G1 X69.989 Y128.539 E4.80725
G1 X69.513 Y128.122 E4.82409
G1 X66.517 Y125.128 E4.93679
G1 X66.108 Y124.663 E4.95327
G1 X65.762 Y124.149 E4.96976
G1 X65.486 Y123.595 E4.98623
G1 X65.283 Y123.01 E5.0027
G1 X65.157 Y122.403 E5.0192
G1 X65.11 Y121.746 E5.03672
G1 X65.1 Y117.957 E5.13754
G1 X65.112 Y117.601 E5.14702
G1 X65.365 Y114.068 E5.24127
G1 X65.595 Y108.625 E5.38622
G1 X65.519 Y103.223 E5.52998
G1 X65.122 Y97.573 E5.68068
G1 X65.11 Y97.237 E5.68963
G1 X65.11 Y90.747 E5.86231
G1 X65.15 Y90.129 E5.87879
G1 X65.274 Y89.502 E5.8958
G1 X65.411 Y88.992 E5.90985
G1 X65.61 Y88.405 E5.92634
G1 X65.998 Y87.66 E5.94869
G1 X68.062 Y84.417 E6.05098
G1 X70.758 Y79.716 E6.19517
G1 X73.17 Y74.896 E6.33858
G1 X75.323 Y69.91 E6.48309
G1 X76.3 Y67.35 E6.556
G1 X76.473 Y66.95 E6.5676
G1 X76.907 Y66.064 E6.59385
G1 X77.215 Y65.527 E6.61032
G1 X77.59 Y65.034 E6.6268
G0 F1542.9 X78.086 Y65.086
G1 F900 X78.681 Y64.483 E6.64934
G1 X79.007 Y64.183 E6.66113
G1 X81.108 Y62.444 E6.7337
G1 X81.838 Y61.955 E6.75708
G1 X82.675 Y61.507 E6.78234
G1 X83.215 Y61.263 E6.79811
G1 X83.916 Y61.066 E6.81748
G1 X84.454 Y60.962 E6.83206
G1 X85.042 Y60.889 E6.84783
G1 X85.367 Y60.883 E6.85648
G1 X85.876 Y60.892 E6.87002
G1 X86.467 Y60.942 E6.8858
G1 X87.013 Y61.062 E6.90068
G1 X88.071 Y61.366 E6.92997
G1 X88.403 Y61.476 E6.93928
G1 X90.807 Y62.379 E7.0076
G1 X91.347 Y62.624 E7.02338
G1 X91.692 Y62.831 E7.03409
G1 X92.464 Y63.343 E7.05874
G1 X93.029 Y63.789 E7.07789
G1 X94.912 Y65.541 E7.14633
G1 X99.061 Y69.092 E7.29164
G1 X103.344 Y72.356 E7.43492
G1 X107.84 Y75.397 E7.57934
G1 X112.467 Y78.159 E7.72273
G1 X117.269 Y80.669 E7.8669
G1 X122.236 Y82.917 E8.01197
G1 X124.685 Y83.903 E8.08222
G1 X130.013 Y85.786 E8.23258
G1 X130.557 Y86.021 E8.24834
G1 X130.982 Y86.271 E8.26146
G1 X131.796 Y86.812 E8.28747
G1 X132.267 Y87.172 E8.30324
G1 X132.76 Y87.682 E8.32212
G1 X133.069 Y88.058 E8.33507
G1 X133.414 Y88.541 E8.35086
G1 X133.72 Y89.133 E8.36859
G1 X134.076 Y89.972 E8.39284
G1 X134.271 Y90.533 E8.40865
G1 X134.402 Y91.231 E8.42754
G1 X134.465 Y91.83 E8.44357
G1 X134.489 Y92.289 E8.4558
G1 X134.5 Y131.529 E9.4999
G1 X134.488 Y131.859 E9.50869
G1 X134.387 Y133.207 E9.54466
G1 X134.303 Y133.794 E9.56044
G1 X134.14 Y134.364 E9.57621
G1 X134.024 Y134.655 E9.58455
G1 X133.7 Y135.389 E9.60589
G1 X133.425 Y135.914 E9.62166
G1 X133.081 Y136.397 E9.63744
G1 X132.782 Y136.728 E9.64931
G1 X132.08 Y137.428 E9.67569
G1 X131.633 Y137.817 E9.69146
G1 X131.137 Y138.143 E9.70725
G1 X130.662 Y138.375 E9.72131
G1 X129.784 Y138.74 E9.74661
G1 X129.222 Y138.93 E9.7624
G1 X128.64 Y139.043 E9.77817
G1 X128.128 Y139.077 E9.79183
G1 X121.122 Y139.129 E9.97825
G1 X120.502 Y139.09 E9.99478
G1 X119.573 Y138.965 E10.01972
G1 X118.992 Y138.846 E10.0355
G1 X118.379 Y138.627 E10.05282
G1 X113.793 Y136.597 E10.18627
G1 X111.346 Y135.607 E10.2565
G1 X106.182 Y133.775 E10.4023
G1 X100.998 Y132.258 E10.54602
G1 X95.674 Y131.022 E10.69145
G1 X93.111 Y130.543 E10.76083
G1 X87.728 Y129.767 E10.90554
G1 X82.3 Y129.296 E11.05051
G1 X79.647 Y129.178 E11.12117
G1 X72.873 Y129.127 E11.30142
G1 X72.281 Y129.082 E11.31722
G1 X71.701 Y128.959 E11.33299
G1 X71.143 Y128.759 E11.34876
G1 X70.617 Y128.485 E11.36455
G1 X70.133 Y128.143 E11.38031
G1 X69.796 Y127.839 E11.39239
G1 X66.8 Y124.845 E11.50509
G1 X66.41 Y124.399 E11.52086
G1 X66.083 Y123.904 E11.53664
G1 X65.826 Y123.37 E11.55241
G1 X65.643 Y122.806 E11.56819
G1 X65.537 Y122.222 E11.58398
G1 X65.51 Y121.745 E11.59669
G1 X65.5 Y117.956 E11.69751
G1 X65.511 Y117.63 E11.70619
G1 X65.765 Y114.08 E11.80089
G1 X65.995 Y108.636 E11.94587
G1 X65.919 Y103.207 E12.09034
G1 X65.521 Y97.545 E12.24137
G1 X65.51 Y97.237 E12.24957
G1 X65.51 Y90.747 E12.42226
G1 X65.55 Y90.155 E12.43805
G1 X65.661 Y89.606 E12.45295
G1 X65.798 Y89.096 E12.467
G1 X65.99 Y88.535 E12.48278
G1 X66.335 Y87.874 E12.50262
G1 X68.413 Y84.609 E12.60559
G1 X71.113 Y79.901 E12.75
G1 X73.531 Y75.069 E12.89377
G1 X75.689 Y70.071 E13.03863
G1 X76.673 Y67.493 E13.11205
G1 X76.833 Y67.126 E13.1227
G1 X77.267 Y66.24 E13.14895
G1 X77.563 Y65.727 E13.16471
G1 X78.086 Y65.086 E13.18673
G0 F1542.9 X78.371 Y65.367
G1 F900 X78.966 Y64.764 E13.20927
G1 X79.263 Y64.492 E13.21998
G1 X81.364 Y62.753 E13.29255
G1 X82.026 Y62.307 E13.31379
G1 X82.863 Y61.859 E13.33905
G1 X83.379 Y61.629 E13.35408
G1 X83.992 Y61.459 E13.37101
G1 X84.53 Y61.355 E13.38559
G1 X85.36 Y61.283 E13.40776
G1 X85.869 Y61.292 E13.4213
G1 X86.432 Y61.342 E13.43634
G1 X86.903 Y61.447 E13.44918
G1 X87.961 Y61.751 E13.47847
G1 X88.263 Y61.85 E13.48693
G1 X90.667 Y62.753 E13.55526
G1 X91.18 Y62.989 E13.57028
G1 X91.471 Y63.164 E13.57932
G1 X92.243 Y63.676 E13.60397
G1 X92.757 Y64.082 E13.6214
G1 X94.65 Y65.843 E13.69019
G1 X98.804 Y69.398 E13.83567
G1 X103.123 Y72.69 E13.98017
G1 X107.612 Y75.726 E14.12436
G1 X112.282 Y78.514 E14.26908
G1 X117.098 Y81.031 E14.41367
G1 X122.062 Y83.278 E14.55866
G1 X124.543 Y84.277 E14.62982
G1 X129.88 Y86.163 E14.78044
G1 X130.398 Y86.389 E14.79548
G1 X130.761 Y86.604 E14.8067
G1 X131.575 Y87.145 E14.83271
G1 X132.023 Y87.49 E14.84775
G1 X132.451 Y87.936 E14.8642
G1 X132.76 Y88.312 E14.87715
G1 X133.088 Y88.773 E14.8922
G1 X133.352 Y89.29 E14.90765
G1 X133.708 Y90.129 E14.9319
G1 X133.892 Y90.663 E14.94693
G1 X134.004 Y91.273 E14.96343
G1 X134.067 Y91.872 E14.97946
G1 X134.089 Y92.289 E14.99057
G1 X134.1 Y131.529 E16.03467
G1 X134.089 Y131.829 E16.04266
G1 X133.988 Y133.177 E16.07863
G1 X133.906 Y133.736 E16.09366
G1 X133.658 Y134.493 E16.11486
G1 X133.334 Y135.227 E16.1362
G1 X133.07 Y135.727 E16.15125
G1 X132.738 Y136.185 E16.1663
G1 X132.499 Y136.444 E16.17568
G1 X131.797 Y137.144 E16.20206
G1 X131.37 Y137.514 E16.21709
G1 X130.894 Y137.82 E16.23215
G1 X130.508 Y138.006 E16.24355
G1 X129.63 Y138.371 E16.26885
G1 X129.094 Y138.55 E16.28388
G1 X128.538 Y138.652 E16.29893
G1 X128.125 Y138.677 E16.30993
G1 X121.119 Y138.729 E16.49636
G1 X120.556 Y138.693 E16.51137
G1 X119.627 Y138.568 E16.53631
G1 X119.073 Y138.453 E16.55136
G1 X118.541 Y138.262 E16.5664
G1 X113.925 Y136.219 E16.70072
G1 X111.496 Y135.236 E16.77044
G1 X106.301 Y133.393 E16.91711
G1 X101.096 Y131.87 E17.06141
G1 X95.768 Y130.633 E17.20695
G1 X93.168 Y130.147 E17.27733
G1 X87.768 Y129.368 E17.4225
G1 X82.328 Y128.896 E17.5678
G1 X79.667 Y128.778 E17.63867
G1 X72.876 Y128.727 E17.81937
G1 X72.312 Y128.683 E17.83442
G1 X71.76 Y128.559 E17.84948
G1 X71.231 Y128.36 E17.86452
G1 X70.736 Y128.087 E17.87956
G1 X70.079 Y127.556 E17.90203
G1 X67.083 Y124.562 E18.01473
G1 X66.712 Y124.135 E18.02979
G1 X66.405 Y123.661 E18.04481
G1 X66.168 Y123.147 E18.05987
G1 X66.006 Y122.606 E18.0749
G1 X65.922 Y122.047 E18.08994
G1 X65.91 Y121.744 E18.09801
G1 X65.9 Y117.955 E18.19883
G1 X65.91 Y117.658 E18.20673
G1 X66.165 Y114.09 E18.30191
G1 X66.396 Y108.648 E18.44685
G1 X66.318 Y103.191 E18.59206
G1 X65.92 Y97.517 E18.74341
G1 X65.91 Y97.237 E18.75086
G1 X65.91 Y90.747 E18.92355
G1 X65.95 Y90.183 E18.93859
G1 X66.047 Y89.709 E18.95147
G1 X66.184 Y89.199 E18.96552
G1 X66.369 Y88.665 E18.98055
G1 X66.673 Y88.089 E18.99788
G1 X68.75 Y84.827 E19.10078
G1 X71.468 Y80.087 E19.24617
G1 X73.899 Y75.229 E19.39071
G1 X76.053 Y70.24 E19.5353
G1 X77.047 Y67.635 E19.60949
G1 X77.192 Y67.302 E19.61916
G1 X77.626 Y66.416 E19.64541
G1 X77.91 Y65.928 E19.66043
G1 X78.371 Y65.367 E19.67975
G0 F1542.9 X78.655 Y65.647
G1 F900 X79.25 Y65.044 E19.70229
G1 X79.518 Y64.8 E19.71194
G1 X81.619 Y63.061 E19.7845
G1 X82.215 Y62.66 E19.80362
G1 X83.052 Y62.212 E19.82888
G1 X83.543 Y61.995 E19.84316
G1 X84.068 Y61.851 E19.85765
G1 X84.606 Y61.747 E19.87223
G1 X85.353 Y61.683 E19.89218
G1 X85.862 Y61.692 E19.90572
G1 X86.396 Y61.741 E19.91999
G1 X86.792 Y61.831 E19.9308
G1 X87.85 Y62.135 E19.96009
G1 X88.122 Y62.225 E19.96771
G1 X90.526 Y63.128 E20.03604
G1 X91.012 Y63.353 E20.05029
G1 X91.25 Y63.498 E20.05771
G1 X92.022 Y64.01 E20.08235
G1 X92.484 Y64.375 E20.09802
G1 X94.37 Y66.13 E20.16657
G1 X98.555 Y69.712 E20.31314
G1 X102.882 Y73.009 E20.45789
G1 X107.408 Y76.071 E20.60329
G1 X112.078 Y78.859 E20.74801
G1 X116.919 Y81.389 E20.89335
G1 X121.917 Y83.651 E21.03932
G1 X124.42 Y84.659 E21.11112
G1 X129.746 Y86.541 E21.26142
G1 X130.237 Y86.756 E21.27568
G1 X130.54 Y86.937 E21.28508
G1 X131.354 Y87.478 E21.31108
G1 X131.777 Y87.807 E21.32534
G1 X132.142 Y88.19 E21.33942
G1 X132.451 Y88.566 E21.35237
G1 X132.76 Y89.005 E21.36665
G1 X132.984 Y89.446 E21.37981
G1 X133.34 Y90.285 E21.40406
G1 X133.512 Y90.793 E21.41833
G1 X133.606 Y91.314 E21.43242
G1 X133.669 Y91.913 E21.44845
G1 X133.689 Y92.289 E21.45847
G1 X133.7 Y131.529 E22.50257
G1 X133.69 Y131.799 E22.50976
G1 X133.589 Y133.147 E22.54573
G1 X133.509 Y133.677 E22.55999
G1 X133.292 Y134.332 E22.57835
G1 X132.968 Y135.066 E22.5997
G1 X132.716 Y135.539 E22.61396
G1 X132.217 Y136.161 E22.63517
G1 X131.515 Y136.861 E22.66155
G1 X131.108 Y137.211 E22.67584
G1 X130.654 Y137.496 E22.6901
G1 X130.355 Y137.636 E22.69888
G1 X129.477 Y138.001 E22.72418
G1 X128.968 Y138.17 E22.73845
G1 X128.439 Y138.261 E22.75274
G1 X128.122 Y138.277 E22.76118
G1 X121.116 Y138.329 E22.9476
G1 X120.609 Y138.297 E22.96112
G1 X119.68 Y138.172 E22.98606
G1 X119.155 Y138.061 E23.00034
G1 X118.703 Y137.896 E23.01314
G1 X114.083 Y135.851 E23.14758
G1 X111.64 Y134.863 E23.2177
G1 X106.426 Y133.013 E23.36491
G1 X101.206 Y131.485 E23.50963
G1 X95.841 Y130.239 E23.65618
G1 X93.229 Y129.751 E23.72688
G1 X87.823 Y128.972 E23.87221
G1 X82.334 Y128.496 E24.01881
G1 X79.688 Y128.379 E24.08929
G1 X72.879 Y128.327 E24.27047
G1 X72.344 Y128.283 E24.28475
G1 X71.822 Y128.16 E24.29902
G1 X71.324 Y127.961 E24.31329
G1 X70.861 Y127.69 E24.32756
G1 X70.361 Y127.273 E24.34489
G1 X67.365 Y124.279 E24.45759
G1 X67.015 Y123.873 E24.47185
G1 X66.729 Y123.419 E24.48613
G1 X66.514 Y122.928 E24.50039
G1 X66.374 Y122.41 E24.51467
G1 X66.31 Y121.743 E24.5325
G1 X66.3 Y117.954 E24.63331
G1 X66.309 Y117.687 E24.64042
G1 X66.563 Y114.136 E24.73515
G1 X66.796 Y108.641 E24.88149
G1 X66.718 Y103.175 E25.02695
G1 X66.319 Y97.489 E25.17861
G1 X66.31 Y97.237 E25.18532
G1 X66.31 Y90.747 E25.35801
G1 X66.35 Y90.212 E25.37228
G1 X66.433 Y89.813 E25.38313
G1 X66.57 Y89.303 E25.39718
G1 X66.748 Y88.797 E25.41145
G1 X67.01 Y88.304 E25.42631
G1 X69.095 Y85.028 E25.52963
G1 X71.822 Y80.272 E25.67551
G1 X74.256 Y75.409 E25.82021
G1 X76.431 Y70.372 E25.96619
G1 X77.421 Y67.778 E26.04007
G1 X77.551 Y67.478 E26.04877
G1 X77.985 Y66.592 E26.07502
G1 X78.256 Y66.13 E26.08927
G1 X78.655 Y65.647 E26.10594
G0 F1542.9 X78.94 Y65.928
G1 F900 X79.535 Y65.325 E26.12848
G1 X79.773 Y65.108 E26.13705
G1 X81.874 Y63.369 E26.20962
G1 X82.404 Y63.013 E26.22661
G1 X83.241 Y62.565 E26.25187
G1 X83.704 Y62.362 E26.26532
G1 X84.144 Y62.244 E26.27744
G1 X84.682 Y62.14 E26.29202
G1 X85.346 Y62.083 E26.30976
G1 X85.855 Y62.092 E26.3233
G1 X86.358 Y62.14 E26.33675
G1 X86.682 Y62.215 E26.34559
G1 X87.74 Y62.519 E26.37489
G1 X87.981 Y62.599 E26.38164
G1 X90.385 Y63.502 E26.44997
G1 X91.029 Y63.831 E26.46921
G1 X91.801 Y64.343 E26.49386
G1 X92.212 Y64.667 E26.50779
G1 X94.126 Y66.448 E26.57735
G1 X98.298 Y70.018 E26.72346
G1 X102.649 Y73.335 E26.86903
G1 X107.193 Y76.408 E27.01499
G1 X111.894 Y79.214 E27.16067
G1 X116.747 Y81.751 E27.30638
G1 X121.743 Y84.012 E27.45229
G1 X124.278 Y85.033 E27.52501
G1 X129.613 Y86.918 E27.67556
G1 X130.075 Y87.123 E27.68901
G1 X130.318 Y87.27 E27.69657
G1 X131.132 Y87.811 E27.72257
G1 X131.53 Y88.123 E27.73603
G1 X131.833 Y88.444 E27.74778
G1 X132.142 Y88.82 E27.76072
G1 X132.431 Y89.235 E27.77418
G1 X132.616 Y89.602 E27.78512
G1 X132.972 Y90.441 E27.80937
G1 X133.132 Y90.921 E27.82283
G1 X133.208 Y91.356 E27.83458
G1 X133.271 Y91.955 E27.85061
G1 X133.289 Y92.289 E27.85951
G1 X133.3 Y131.529 E28.90361
G1 X133.291 Y131.769 E28.91
G1 X133.19 Y133.117 E28.94597
G1 X133.113 Y133.617 E28.95943
G1 X132.926 Y134.17 E28.97496
G1 X132.602 Y134.904 E28.99631
G1 X132.362 Y135.349 E29.00976
G1 X131.935 Y135.878 E29.02785
G1 X131.233 Y136.578 E29.05423
G1 X130.847 Y136.906 E29.06771
G1 X130.201 Y137.267 E29.0874
G1 X129.323 Y137.632 E29.1127
G1 X128.843 Y137.788 E29.12613
G1 X128.119 Y137.877 E29.14554
G1 X121.113 Y137.929 E29.33196
G1 X120.662 Y137.9 E29.34398
G1 X119.733 Y137.775 E29.36893
G1 X119.239 Y137.669 E29.38237
G1 X118.865 Y137.53 E29.39299
G1 X114.241 Y135.483 E29.52754
G1 X111.778 Y134.487 E29.59823
G1 X111.775 Y134.486 E29.59831
G1 X106.551 Y132.632 E29.74581
G1 X101.303 Y131.097 E29.8913
G1 X95.935 Y129.85 E30.03793
G1 X93.286 Y129.355 E30.10964
G1 X87.863 Y128.574 E30.25542
G1 X82.384 Y128.098 E30.40176
G1 X79.682 Y127.979 E30.47372
G1 X72.882 Y127.927 E30.65466
G1 X72.378 Y127.883 E30.66813
G1 X71.888 Y127.761 E30.68156
G1 X71.423 Y127.562 E30.69502
G1 X70.994 Y127.293 E30.70849
G1 X70.644 Y126.99 E30.72081
G1 X67.648 Y123.996 E30.83351
G1 X67.32 Y123.612 E30.84695
G1 X67.056 Y123.181 E30.8604
G1 X66.864 Y122.713 E30.87386
G1 X66.747 Y122.221 E30.88731
G1 X66.71 Y121.741 E30.90012
G1 X66.7 Y117.952 E31.00094
G1 X66.708 Y117.716 E31.00722
G1 X66.963 Y114.148 E31.1024
G1 X67.196 Y108.652 E31.24877
G1 X67.118 Y103.159 E31.39495
